; Generated with Sorted k-d tree nearest neighbor
M5 ; Pen Up
G1 X0 Y0 F5000
G1 X51.95 Y54.32 F5000
M3 ; Pen Down
G1 X51.95 Y54.32 F2000
G1 X52.00 Y54.32 F2000
G1 X52.04 Y54.32 F2000
G1 X52.08 Y54.32 F2000
G1 X52.12 Y54.32 F2000
G1 X52.16 Y54.32 F2000
G1 X52.16 Y54.37 F2000
G1 X52.12 Y54.37 F2000
G1 X52.08 Y54.37 F2000
G1 X52.08 Y54.41 F2000
G1 X52.04 Y54.41 F2000
G1 X52.04 Y54.45 F2000
G1 X52.08 Y54.45 F2000
G1 X52.08 Y54.49 F2000
G1 X52.04 Y54.49 F2000
G1 X52.04 Y54.54 F2000
G1 X52.08 Y54.54 F2000
G1 X52.08 Y54.58 F2000
G1 X52.08 Y54.62 F2000
G1 X52.08 Y54.66 F2000
G1 X52.12 Y54.66 F2000
G1 X52.12 Y54.71 F2000
G1 X52.08 Y54.71 F2000
G1 X52.04 Y54.71 F2000
G1 X52.00 Y54.71 F2000
G1 X52.00 Y54.75 F2000
G1 X52.04 Y54.75 F2000
G1 X52.08 Y54.75 F2000
G1 X52.08 Y54.79 F2000
G1 X52.04 Y54.79 F2000
G1 X52.04 Y54.83 F2000
G1 X52.00 Y54.83 F2000
G1 X51.95 Y54.83 F2000
G1 X51.95 Y54.87 F2000
G1 X52.00 Y54.87 F2000
G1 X52.00 Y54.92 F2000
G1 X52.04 Y54.92 F2000
G1 X52.08 Y54.92 F2000
G1 X52.12 Y54.92 F2000
G1 X52.12 Y54.96 F2000
G1 X52.08 Y54.96 F2000
G1 X52.08 Y55.00 F2000
G1 X52.08 Y55.04 F2000
G1 X52.08 Y55.09 F2000
G1 X52.12 Y55.09 F2000
G1 X52.12 Y55.04 F2000
G1 X52.12 Y55.00 F2000
G1 X52.16 Y55.00 F2000
G1 X52.21 Y55.00 F2000
G1 X52.25 Y55.00 F2000
G1 X52.25 Y54.96 F2000
G1 X52.21 Y54.96 F2000
G1 X52.16 Y54.96 F2000
G1 X52.16 Y54.92 F2000
G1 X52.21 Y54.92 F2000
G1 X52.21 Y54.87 F2000
G1 X52.16 Y54.87 F2000
G1 X52.12 Y54.87 F2000
G1 X52.08 Y54.87 F2000
G1 X52.04 Y54.87 F2000
G1 X52.08 Y54.83 F2000
G1 X52.12 Y54.83 F2000
G1 X52.12 Y54.79 F2000
G1 X52.12 Y54.75 F2000
G1 X52.16 Y54.75 F2000
G1 X52.21 Y54.75 F2000
G1 X52.21 Y54.71 F2000
G1 X52.21 Y54.66 F2000
G1 X52.16 Y54.66 F2000
G1 X52.16 Y54.71 F2000
M5 ; Pen Up
G1 X52.21 Y54.32 F5000
M3 ; Pen Down
G1 X52.21 Y54.32 F2000
G1 X52.21 Y54.37 F2000
G1 X52.21 Y54.41 F2000
G1 X52.21 Y54.45 F2000
G1 X52.16 Y54.45 F2000
G1 X52.16 Y54.41 F2000
G1 X52.12 Y54.41 F2000
G1 X52.12 Y54.45 F2000
G1 X52.12 Y54.49 F2000
G1 X52.16 Y54.49 F2000
G1 X52.16 Y54.54 F2000
G1 X52.16 Y54.58 F2000
G1 X52.21 Y54.58 F2000
G1 X52.21 Y54.62 F2000
G1 X52.16 Y54.62 F2000
G1 X52.12 Y54.62 F2000
G1 X52.12 Y54.58 F2000
G1 X52.12 Y54.54 F2000
M5 ; Pen Up
G1 X52.25 Y54.32 F5000
M3 ; Pen Down
G1 X52.25 Y54.32 F2000
G1 X52.25 Y54.37 F2000
G1 X52.29 Y54.37 F2000
G1 X52.29 Y54.41 F2000
G1 X52.29 Y54.45 F2000
G1 X52.25 Y54.45 F2000
G1 X52.25 Y54.41 F2000
M5 ; Pen Up
G1 X52.29 Y54.32 F5000
M3 ; Pen Down
G1 X52.29 Y54.32 F2000
G1 X52.33 Y54.32 F2000
G1 X52.33 Y54.37 F2000
G1 X52.38 Y54.37 F2000
G1 X52.38 Y54.41 F2000
G1 X52.42 Y54.41 F2000
G1 X52.42 Y54.37 F2000
G1 X52.46 Y54.37 F2000
G1 X52.46 Y54.32 F2000
G1 X52.50 Y54.32 F2000
G1 X52.50 Y54.37 F2000
G1 X52.50 Y54.41 F2000
G1 X52.46 Y54.41 F2000
G1 X52.46 Y54.45 F2000
G1 X52.46 Y54.49 F2000
G1 X52.42 Y54.49 F2000
G1 X52.38 Y54.49 F2000
G1 X52.38 Y54.54 F2000
G1 X52.33 Y54.54 F2000
G1 X52.33 Y54.49 F2000
G1 X52.29 Y54.49 F2000
G1 X52.29 Y54.54 F2000
G1 X52.25 Y54.54 F2000
G1 X52.25 Y54.49 F2000
G1 X52.21 Y54.49 F2000
G1 X52.21 Y54.54 F2000
G1 X52.25 Y54.58 F2000
G1 X52.29 Y54.62 F2000
G1 X52.33 Y54.62 F2000
G1 X52.38 Y54.62 F2000
G1 X52.38 Y54.66 F2000
G1 X52.38 Y54.71 F2000
G1 X52.38 Y54.75 F2000
G1 X52.38 Y54.79 F2000
G1 X52.33 Y54.79 F2000
G1 X52.29 Y54.79 F2000
G1 X52.29 Y54.83 F2000
G1 X52.33 Y54.83 F2000
G1 X52.29 Y54.87 F2000
G1 X52.29 Y54.92 F2000
G1 X52.25 Y54.92 F2000
G1 X52.25 Y54.87 F2000
G1 X52.25 Y54.83 F2000
G1 X52.21 Y54.83 F2000
G1 X52.16 Y54.83 F2000
G1 X52.16 Y54.79 F2000
G1 X52.21 Y54.79 F2000
G1 X52.25 Y54.79 F2000
M5 ; Pen Up
G1 X52.38 Y54.32 F5000
M3 ; Pen Down
G1 X52.38 Y54.32 F2000
G1 X52.42 Y54.32 F2000
M5 ; Pen Up
G1 X52.55 Y54.32 F5000
M3 ; Pen Down
G1 X52.55 Y54.32 F2000
G1 X52.59 Y54.32 F2000
G1 X52.59 Y54.37 F2000
G1 X52.59 Y54.41 F2000
G1 X52.55 Y54.41 F2000
G1 X52.55 Y54.37 F2000
G1 X52.55 Y54.45 F2000
G1 X52.50 Y54.45 F2000
G1 X52.50 Y54.49 F2000
G1 X52.55 Y54.49 F2000
G1 X52.55 Y54.54 F2000
G1 X52.59 Y54.54 F2000
G1 X52.59 Y54.49 F2000
G1 X52.59 Y54.45 F2000
G1 X52.63 Y54.45 F2000
G1 X52.67 Y54.45 F2000
G1 X52.67 Y54.41 F2000
G1 X52.63 Y54.41 F2000
G1 X52.63 Y54.37 F2000
G1 X52.67 Y54.37 F2000
G1 X52.72 Y54.37 F2000
G1 X52.76 Y54.37 F2000
G1 X52.76 Y54.32 F2000
G1 X52.80 Y54.32 F2000
G1 X52.80 Y54.37 F2000
G1 X52.84 Y54.37 F2000
G1 X52.88 Y54.37 F2000
G1 X52.93 Y54.37 F2000
G1 X52.93 Y54.32 F2000
G1 X52.97 Y54.32 F2000
G1 X52.97 Y54.37 F2000
G1 X52.97 Y54.41 F2000
G1 X52.93 Y54.41 F2000
G1 X52.88 Y54.41 F2000
G1 X52.84 Y54.41 F2000
G1 X52.80 Y54.41 F2000
G1 X52.76 Y54.41 F2000
G1 X52.76 Y54.45 F2000
G1 X52.76 Y54.49 F2000
G1 X52.80 Y54.49 F2000
G1 X52.84 Y54.49 F2000
G1 X52.84 Y54.45 F2000
G1 X52.88 Y54.45 F2000
G1 X52.93 Y54.45 F2000
G1 X52.97 Y54.45 F2000
G1 X52.97 Y54.49 F2000
G1 X53.01 Y54.49 F2000
G1 X53.05 Y54.49 F2000
G1 X53.05 Y54.54 F2000
G1 X53.10 Y54.54 F2000
G1 X53.10 Y54.49 F2000
G1 X53.10 Y54.45 F2000
G1 X53.10 Y54.41 F2000
G1 X53.10 Y54.37 F2000
G1 X53.05 Y54.37 F2000
G1 X53.05 Y54.32 F2000
G1 X53.01 Y54.32 F2000
G1 X53.01 Y54.37 F2000
G1 X53.01 Y54.41 F2000
G1 X53.05 Y54.41 F2000
G1 X53.05 Y54.45 F2000
G1 X53.01 Y54.45 F2000
M5 ; Pen Up
G1 X52.63 Y54.32 F5000
M3 ; Pen Down
G1 X52.63 Y54.32 F2000
G1 X52.67 Y54.32 F2000
G1 X52.72 Y54.32 F2000
G1 X52.72 Y54.41 F2000
G1 X52.72 Y54.45 F2000
G1 X52.72 Y54.49 F2000
G1 X52.72 Y54.54 F2000
G1 X52.67 Y54.54 F2000
G1 X52.67 Y54.49 F2000
G1 X52.63 Y54.49 F2000
G1 X52.63 Y54.54 F2000
G1 X52.67 Y54.58 F2000
G1 X52.67 Y54.62 F2000
G1 X52.72 Y54.62 F2000
G1 X52.72 Y54.58 F2000
G1 X52.76 Y54.54 F2000
G1 X52.80 Y54.58 F2000
G1 X52.80 Y54.62 F2000
G1 X52.80 Y54.66 F2000
G1 X52.76 Y54.66 F2000
G1 X52.76 Y54.71 F2000
G1 X52.80 Y54.71 F2000
G1 X52.80 Y54.75 F2000
G1 X52.80 Y54.79 F2000
G1 X52.84 Y54.79 F2000
G1 X52.84 Y54.87 F2000
G1 X52.88 Y54.87 F2000
G1 X52.93 Y54.87 F2000
G1 X52.93 Y54.83 F2000
G1 X52.97 Y54.83 F2000
G1 X52.97 Y54.79 F2000
G1 X52.97 Y54.75 F2000
G1 X52.97 Y54.71 F2000
G1 X52.97 Y54.66 F2000
G1 X52.97 Y54.62 F2000
G1 X52.93 Y54.62 F2000
G1 X52.88 Y54.62 F2000
G1 X52.88 Y54.66 F2000
G1 X52.93 Y54.66 F2000
G1 X52.93 Y54.71 F2000
G1 X52.84 Y54.66 F2000
G1 X52.84 Y54.62 F2000
G1 X52.84 Y54.58 F2000
G1 X52.88 Y54.58 F2000
G1 X52.93 Y54.58 F2000
M5 ; Pen Up
G1 X52.84 Y54.32 F5000
M3 ; Pen Down
G1 X52.84 Y54.32 F2000
G1 X52.88 Y54.32 F2000
M5 ; Pen Up
G1 X53.10 Y54.32 F5000
M3 ; Pen Down
G1 X53.10 Y54.32 F2000
G1 X53.14 Y54.32 F2000
G1 X53.14 Y54.37 F2000
G1 X53.18 Y54.37 F2000
G1 X53.18 Y54.41 F2000
G1 X53.18 Y54.45 F2000
G1 X53.22 Y54.45 F2000
G1 X53.27 Y54.45 F2000
G1 X53.27 Y54.49 F2000
G1 X53.27 Y54.54 F2000
G1 X53.31 Y54.54 F2000
G1 X53.31 Y54.49 F2000
G1 X53.31 Y54.45 F2000
G1 X53.35 Y54.45 F2000
G1 X53.39 Y54.45 F2000
G1 X53.39 Y54.49 F2000
G1 X53.44 Y54.49 F2000
G1 X53.44 Y54.54 F2000
G1 X53.48 Y54.54 F2000
G1 X53.48 Y54.58 F2000
G1 X53.44 Y54.62 F2000
G1 X53.44 Y54.66 F2000
G1 X53.39 Y54.66 F2000
G1 X53.39 Y54.62 F2000
G1 X53.35 Y54.62 F2000
G1 X53.35 Y54.58 F2000
M5 ; Pen Up
G1 X53.18 Y54.32 F5000
M3 ; Pen Down
G1 X53.18 Y54.32 F2000
G1 X53.22 Y54.32 F2000
G1 X53.27 Y54.32 F2000
G1 X53.27 Y54.37 F2000
G1 X53.31 Y54.37 F2000
G1 X53.31 Y54.41 F2000
G1 X53.35 Y54.41 F2000
G1 X53.39 Y54.41 F2000
G1 X53.44 Y54.41 F2000
G1 X53.48 Y54.41 F2000
G1 X53.48 Y54.45 F2000
G1 X53.52 Y54.45 F2000
G1 X53.52 Y54.49 F2000
G1 X53.48 Y54.49 F2000
G1 X53.52 Y54.54 F2000
G1 X53.56 Y54.49 F2000
G1 X53.60 Y54.49 F2000
G1 X53.60 Y54.45 F2000
G1 X53.56 Y54.45 F2000
G1 X53.56 Y54.41 F2000
G1 X53.56 Y54.37 F2000
G1 X53.60 Y54.37 F2000
G1 X53.65 Y54.37 F2000
G1 X53.69 Y54.37 F2000
G1 X53.73 Y54.37 F2000
G1 X53.77 Y54.37 F2000
G1 X53.82 Y54.37 F2000
G1 X53.86 Y54.37 F2000
G1 X53.86 Y54.41 F2000
G1 X53.82 Y54.41 F2000
G1 X53.77 Y54.41 F2000
G1 X53.73 Y54.41 F2000
G1 X53.73 Y54.45 F2000
G1 X53.73 Y54.49 F2000
G1 X53.77 Y54.49 F2000
G1 X53.82 Y54.49 F2000
G1 X53.82 Y54.45 F2000
G1 X53.77 Y54.45 F2000
M5 ; Pen Up
G1 X53.31 Y54.32 F5000
M3 ; Pen Down
G1 X53.31 Y54.32 F2000
G1 X53.35 Y54.32 F2000
G1 X53.39 Y54.32 F2000
G1 X53.44 Y54.32 F2000
G1 X53.48 Y54.32 F2000
G1 X53.52 Y54.32 F2000
G1 X53.52 Y54.37 F2000
G1 X53.48 Y54.37 F2000
G1 X53.44 Y54.37 F2000
G1 X53.39 Y54.37 F2000
G1 X53.35 Y54.37 F2000
M5 ; Pen Up
G1 X53.56 Y54.32 F5000
M3 ; Pen Down
G1 X53.56 Y54.32 F2000
G1 X53.60 Y54.32 F2000
G1 X53.65 Y54.32 F2000
G1 X53.69 Y54.32 F2000
G1 X53.73 Y54.32 F2000
G1 X53.77 Y54.32 F2000
G1 X53.82 Y54.32 F2000
G1 X53.86 Y54.32 F2000
G1 X53.90 Y54.32 F2000
G1 X53.90 Y54.37 F2000
G1 X53.94 Y54.37 F2000
G1 X53.99 Y54.37 F2000
G1 X53.99 Y54.32 F2000
G1 X54.03 Y54.32 F2000
G1 X54.07 Y54.32 F2000
G1 X54.11 Y54.32 F2000
G1 X54.16 Y54.32 F2000
G1 X54.16 Y54.37 F2000
G1 X54.11 Y54.37 F2000
G1 X54.11 Y54.41 F2000
G1 X54.16 Y54.41 F2000
G1 X54.16 Y54.45 F2000
G1 X54.20 Y54.45 F2000
G1 X54.20 Y54.49 F2000
G1 X54.24 Y54.49 F2000
G1 X54.24 Y54.54 F2000
G1 X54.20 Y54.54 F2000
G1 X54.16 Y54.54 F2000
G1 X54.11 Y54.54 F2000
G1 X54.07 Y54.54 F2000
G1 X54.07 Y54.49 F2000
G1 X54.03 Y54.49 F2000
G1 X54.03 Y54.45 F2000
G1 X54.03 Y54.41 F2000
G1 X54.07 Y54.41 F2000
G1 X54.07 Y54.45 F2000
G1 X54.11 Y54.45 F2000
G1 X54.11 Y54.49 F2000
G1 X54.16 Y54.49 F2000
M5 ; Pen Up
G1 X53.94 Y54.32 F5000
M3 ; Pen Down
G1 X53.94 Y54.32 F2000
G1 X53.94 Y54.41 F2000
G1 X53.99 Y54.41 F2000
G1 X53.99 Y54.45 F2000
G1 X53.94 Y54.45 F2000
G1 X53.94 Y54.49 F2000
G1 X53.94 Y54.54 F2000
G1 X53.90 Y54.54 F2000
G1 X53.86 Y54.54 F2000
G1 X53.86 Y54.49 F2000
G1 X53.86 Y54.45 F2000
G1 X53.90 Y54.45 F2000
G1 X53.90 Y54.49 F2000
G1 X53.90 Y54.58 F2000
G1 X53.90 Y54.62 F2000
G1 X53.86 Y54.62 F2000
G1 X53.86 Y54.66 F2000
G1 X53.82 Y54.66 F2000
G1 X53.82 Y54.71 F2000
G1 X53.77 Y54.71 F2000
G1 X53.77 Y54.66 F2000
G1 X53.77 Y54.62 F2000
G1 X53.73 Y54.62 F2000
G1 X53.69 Y54.62 F2000
G1 X53.69 Y54.58 F2000
G1 X53.73 Y54.58 F2000
G1 X53.73 Y54.66 F2000
G1 X53.73 Y54.71 F2000
G1 X53.69 Y54.66 F2000
G1 X53.65 Y54.66 F2000
G1 X53.65 Y54.62 F2000
G1 X53.60 Y54.62 F2000
G1 X53.60 Y54.66 F2000
G1 X53.60 Y54.71 F2000
G1 X53.60 Y54.75 F2000
G1 X53.56 Y54.75 F2000
G1 X53.56 Y54.71 F2000
G1 X53.56 Y54.79 F2000
G1 X53.60 Y54.79 F2000
G1 X53.60 Y54.83 F2000
G1 X53.65 Y54.83 F2000
G1 X53.65 Y54.87 F2000
G1 X53.69 Y54.87 F2000
G1 X53.73 Y54.87 F2000
G1 X53.77 Y54.87 F2000
G1 X53.82 Y54.87 F2000
G1 X53.82 Y54.83 F2000
G1 X53.86 Y54.83 F2000
G1 X53.86 Y54.87 F2000
G1 X53.90 Y54.87 F2000
G1 X53.90 Y54.83 F2000
G1 X53.86 Y54.79 F2000
G1 X53.86 Y54.75 F2000
G1 X53.77 Y54.75 F2000
G1 X53.77 Y54.79 F2000
G1 X53.73 Y54.79 F2000
M5 ; Pen Up
G1 X54.20 Y54.32 F5000
M3 ; Pen Down
G1 X54.20 Y54.32 F2000
G1 X54.20 Y54.37 F2000
G1 X54.20 Y54.41 F2000
G1 X54.24 Y54.41 F2000
G1 X54.24 Y54.37 F2000
G1 X54.24 Y54.32 F2000
G1 X54.28 Y54.32 F2000
G1 X54.28 Y54.37 F2000
G1 X54.32 Y54.37 F2000
G1 X54.37 Y54.37 F2000
G1 X54.37 Y54.32 F2000
G1 X54.32 Y54.32 F2000
G1 X54.32 Y54.41 F2000
G1 X54.32 Y54.45 F2000
G1 X54.37 Y54.45 F2000
G1 X54.37 Y54.49 F2000
G1 X54.41 Y54.49 F2000
G1 X54.45 Y54.49 F2000
G1 X54.49 Y54.49 F2000
G1 X54.49 Y54.45 F2000
G1 X54.49 Y54.41 F2000
G1 X54.54 Y54.41 F2000
G1 X54.54 Y54.37 F2000
G1 X54.54 Y54.32 F2000
G1 X54.49 Y54.32 F2000
G1 X54.49 Y54.37 F2000
G1 X54.45 Y54.37 F2000
G1 X54.45 Y54.41 F2000
G1 X54.45 Y54.45 F2000
G1 X54.41 Y54.45 F2000
G1 X54.41 Y54.41 F2000
G1 X54.41 Y54.37 F2000
G1 X54.41 Y54.32 F2000
G1 X54.45 Y54.32 F2000
M5 ; Pen Up
G1 X54.58 Y54.32 F5000
M3 ; Pen Down
G1 X54.58 Y54.32 F2000
G1 X54.58 Y54.37 F2000
G1 X54.58 Y54.41 F2000
G1 X54.58 Y54.45 F2000
G1 X54.54 Y54.45 F2000
G1 X54.54 Y54.49 F2000
G1 X54.54 Y54.54 F2000
G1 X54.58 Y54.54 F2000
G1 X54.58 Y54.49 F2000
G1 X54.62 Y54.49 F2000
G1 X54.62 Y54.45 F2000
G1 X54.62 Y54.41 F2000
G1 X54.62 Y54.37 F2000
M5 ; Pen Up
G1 X54.75 Y54.32 F5000
M3 ; Pen Down
G1 X54.75 Y54.32 F2000
G1 X54.75 Y54.37 F2000
G1 X54.75 Y54.41 F2000
G1 X54.79 Y54.41 F2000
G1 X54.79 Y54.37 F2000
G1 X54.79 Y54.32 F2000
G1 X54.83 Y54.32 F2000
G1 X54.83 Y54.37 F2000
G1 X54.83 Y54.41 F2000
G1 X54.83 Y54.45 F2000
G1 X54.79 Y54.45 F2000
G1 X54.75 Y54.45 F2000
G1 X54.75 Y54.49 F2000
G1 X54.75 Y54.54 F2000
G1 X54.75 Y54.58 F2000
G1 X54.75 Y54.62 F2000
G1 X54.79 Y54.62 F2000
G1 X54.79 Y54.58 F2000
G1 X54.83 Y54.58 F2000
G1 X54.83 Y54.62 F2000
G1 X54.83 Y54.66 F2000
G1 X54.83 Y54.71 F2000
G1 X54.83 Y54.75 F2000
G1 X54.83 Y54.79 F2000
G1 X54.87 Y54.79 F2000
G1 X54.87 Y54.75 F2000
G1 X54.87 Y54.71 F2000
G1 X54.92 Y54.75 F2000
G1 X54.92 Y54.79 F2000
G1 X54.96 Y54.79 F2000
G1 X54.96 Y54.83 F2000
G1 X55.00 Y54.83 F2000
G1 X55.04 Y54.83 F2000
G1 X55.04 Y54.79 F2000
G1 X55.09 Y54.79 F2000
G1 X55.09 Y54.83 F2000
G1 X55.09 Y54.87 F2000
G1 X55.09 Y54.92 F2000
G1 X55.04 Y54.92 F2000
G1 X55.04 Y54.87 F2000
G1 X55.00 Y54.87 F2000
M5 ; Pen Up
G1 X54.87 Y54.32 F5000
M3 ; Pen Down
G1 X54.87 Y54.32 F2000
G1 X54.87 Y54.37 F2000
G1 X54.87 Y54.41 F2000
G1 X54.87 Y54.45 F2000
G1 X54.83 Y54.49 F2000
G1 X54.83 Y54.54 F2000
G1 X54.87 Y54.54 F2000
G1 X54.92 Y54.54 F2000
G1 X54.92 Y54.58 F2000
G1 X54.96 Y54.58 F2000
G1 X55.00 Y54.58 F2000
G1 X55.00 Y54.62 F2000
G1 X55.04 Y54.62 F2000
G1 X55.09 Y54.62 F2000
G1 X55.09 Y54.58 F2000
G1 X55.04 Y54.58 F2000
G1 X55.04 Y54.54 F2000
G1 X55.09 Y54.54 F2000
G1 X55.09 Y54.49 F2000
G1 X55.09 Y54.45 F2000
G1 X55.09 Y54.41 F2000
G1 X55.13 Y54.41 F2000
G1 X55.13 Y54.37 F2000
G1 X55.09 Y54.37 F2000
G1 X55.09 Y54.32 F2000
G1 X55.13 Y54.32 F2000
G1 X55.17 Y54.32 F2000
G1 X55.17 Y54.37 F2000
G1 X55.21 Y54.37 F2000
G1 X55.21 Y54.41 F2000
G1 X55.17 Y54.41 F2000
G1 X55.21 Y54.45 F2000
G1 X55.26 Y54.45 F2000
G1 X55.26 Y54.49 F2000
G1 X55.30 Y54.49 F2000
G1 X55.30 Y54.54 F2000
G1 X55.26 Y54.54 F2000
G1 X55.30 Y54.58 F2000
G1 X55.30 Y54.62 F2000
G1 X55.34 Y54.62 F2000
G1 X55.38 Y54.62 F2000
G1 X55.43 Y54.62 F2000
G1 X55.43 Y54.66 F2000
G1 X55.47 Y54.66 F2000
G1 X55.47 Y54.71 F2000
G1 X55.43 Y54.71 F2000
G1 X55.38 Y54.66 F2000
G1 X55.34 Y54.66 F2000
G1 X55.30 Y54.66 F2000
G1 X55.30 Y54.71 F2000
G1 X55.26 Y54.71 F2000
G1 X55.21 Y54.71 F2000
G1 X55.17 Y54.71 F2000
G1 X55.17 Y54.66 F2000
G1 X55.13 Y54.66 F2000
G1 X55.09 Y54.66 F2000
G1 X55.04 Y54.66 F2000
G1 X55.04 Y54.71 F2000
G1 X55.09 Y54.71 F2000
G1 X55.13 Y54.71 F2000
G1 X55.09 Y54.75 F2000
G1 X55.04 Y54.75 F2000
M5 ; Pen Up
G1 X54.92 Y54.32 F5000
M3 ; Pen Down
G1 X54.92 Y54.32 F2000
G1 X54.92 Y54.37 F2000
G1 X54.96 Y54.37 F2000
G1 X54.96 Y54.41 F2000
G1 X55.00 Y54.41 F2000
G1 X55.04 Y54.41 F2000
G1 X55.04 Y54.45 F2000
G1 X55.04 Y54.37 F2000
G1 X55.04 Y54.32 F2000
G1 X55.00 Y54.32 F2000
G1 X54.96 Y54.32 F2000
G1 X55.00 Y54.37 F2000
M5 ; Pen Up
G1 X55.21 Y54.32 F5000
M3 ; Pen Down
G1 X55.21 Y54.32 F2000
G1 X55.26 Y54.32 F2000
G1 X55.26 Y54.37 F2000
G1 X55.26 Y54.41 F2000
G1 X55.30 Y54.41 F2000
G1 X55.30 Y54.37 F2000
G1 X55.30 Y54.32 F2000
G1 X55.34 Y54.32 F2000
G1 X55.34 Y54.37 F2000
G1 X55.34 Y54.41 F2000
G1 X55.34 Y54.45 F2000
G1 X55.30 Y54.45 F2000
M5 ; Pen Up
G1 X55.38 Y54.32 F5000
M3 ; Pen Down
G1 X55.38 Y54.32 F2000
G1 X55.43 Y54.32 F2000
G1 X55.47 Y54.32 F2000
G1 X55.51 Y54.32 F2000
G1 X55.55 Y54.32 F2000
G1 X55.55 Y54.37 F2000
G1 X55.55 Y54.41 F2000
G1 X55.51 Y54.41 F2000
G1 X55.47 Y54.41 F2000
G1 X55.43 Y54.41 F2000
G1 X55.43 Y54.37 F2000
G1 X55.47 Y54.37 F2000
G1 X55.51 Y54.37 F2000
G1 X55.59 Y54.37 F2000
G1 X55.59 Y54.32 F2000
G1 X55.64 Y54.32 F2000
G1 X55.64 Y54.37 F2000
G1 X55.64 Y54.41 F2000
G1 X55.64 Y54.45 F2000
G1 X55.59 Y54.45 F2000
G1 X55.59 Y54.41 F2000
G1 X55.55 Y54.45 F2000
G1 X55.59 Y54.49 F2000
G1 X55.59 Y54.54 F2000
G1 X55.59 Y54.58 F2000
G1 X55.55 Y54.58 F2000
G1 X55.55 Y54.62 F2000
G1 X55.59 Y54.62 F2000
G1 X55.59 Y54.66 F2000
G1 X55.55 Y54.66 F2000
G1 X55.55 Y54.71 F2000
G1 X55.51 Y54.71 F2000
G1 X55.51 Y54.75 F2000
G1 X55.55 Y54.75 F2000
G1 X55.59 Y54.75 F2000
G1 X55.59 Y54.71 F2000
G1 X55.59 Y54.79 F2000
G1 X55.59 Y54.83 F2000
G1 X55.64 Y54.83 F2000
G1 X55.68 Y54.83 F2000
G1 X55.72 Y54.83 F2000
G1 X55.72 Y54.87 F2000
G1 X55.68 Y54.87 F2000
G1 X55.64 Y54.87 F2000
G1 X55.64 Y54.92 F2000
G1 X55.64 Y54.96 F2000
G1 X55.64 Y55.00 F2000
G1 X55.68 Y55.00 F2000
G1 X55.68 Y54.96 F2000
G1 X55.68 Y54.92 F2000
M5 ; Pen Up
G1 X55.68 Y54.32 F5000
M3 ; Pen Down
G1 X55.68 Y54.32 F2000
G1 X55.68 Y54.37 F2000
G1 X55.68 Y54.41 F2000
G1 X55.72 Y54.41 F2000
G1 X55.76 Y54.41 F2000
G1 X55.81 Y54.41 F2000
G1 X55.85 Y54.41 F2000
G1 X55.85 Y54.37 F2000
G1 X55.89 Y54.37 F2000
G1 X55.89 Y54.32 F2000
G1 X55.93 Y54.32 F2000
G1 X55.98 Y54.32 F2000
G1 X55.98 Y54.37 F2000
G1 X55.98 Y54.41 F2000
G1 X55.98 Y54.45 F2000
G1 X55.93 Y54.45 F2000
G1 X55.93 Y54.49 F2000
G1 X55.93 Y54.54 F2000
G1 X55.98 Y54.54 F2000
G1 X55.98 Y54.49 F2000
G1 X56.02 Y54.45 F2000
G1 X56.02 Y54.41 F2000
G1 X56.02 Y54.37 F2000
G1 X56.06 Y54.37 F2000
G1 X56.10 Y54.37 F2000
G1 X56.10 Y54.32 F2000
G1 X56.06 Y54.32 F2000
G1 X56.02 Y54.32 F2000
M5 ; Pen Up
G1 X55.72 Y54.32 F5000
M3 ; Pen Down
G1 X55.72 Y54.32 F2000
G1 X55.76 Y54.32 F2000
G1 X55.76 Y54.37 F2000
G1 X55.81 Y54.37 F2000
G1 X55.81 Y54.32 F2000
G1 X55.85 Y54.32 F2000
G1 X55.93 Y54.37 F2000
G1 X55.93 Y54.41 F2000
G1 X55.89 Y54.41 F2000
M5 ; Pen Up
G1 X56.15 Y54.32 F5000
M3 ; Pen Down
G1 X56.15 Y54.32 F2000
G1 X56.19 Y54.32 F2000
G1 X56.19 Y54.37 F2000
G1 X56.19 Y54.41 F2000
G1 X56.19 Y54.45 F2000
G1 X56.23 Y54.41 F2000
G1 X56.27 Y54.41 F2000
G1 X56.31 Y54.41 F2000
G1 X56.36 Y54.41 F2000
G1 X56.40 Y54.41 F2000
G1 X56.40 Y54.37 F2000
G1 X56.36 Y54.37 F2000
G1 X56.31 Y54.37 F2000
G1 X56.31 Y54.32 F2000
G1 X56.36 Y54.32 F2000
G1 X56.40 Y54.32 F2000
G1 X56.44 Y54.32 F2000
G1 X56.44 Y54.37 F2000
G1 X56.44 Y54.41 F2000
G1 X56.44 Y54.45 F2000
G1 X56.40 Y54.45 F2000
G1 X56.40 Y54.49 F2000
G1 X56.40 Y54.54 F2000
G1 X56.44 Y54.54 F2000
G1 X56.44 Y54.58 F2000
G1 X56.44 Y54.62 F2000
G1 X56.48 Y54.62 F2000
G1 X56.48 Y54.58 F2000
G1 X56.48 Y54.66 F2000
G1 X56.48 Y54.71 F2000
G1 X56.53 Y54.71 F2000
G1 X56.53 Y54.75 F2000
G1 X56.53 Y54.79 F2000
G1 X56.48 Y54.79 F2000
G1 X56.48 Y54.83 F2000
G1 X56.48 Y54.87 F2000
G1 X56.53 Y54.87 F2000
G1 X56.53 Y54.92 F2000
G1 X56.53 Y54.96 F2000
G1 X56.53 Y55.00 F2000
G1 X56.48 Y55.00 F2000
G1 X56.48 Y54.96 F2000
G1 X56.44 Y54.96 F2000
G1 X56.44 Y55.00 F2000
G1 X56.40 Y55.00 F2000
G1 X56.36 Y55.00 F2000
G1 X56.31 Y55.00 F2000
G1 X56.27 Y55.00 F2000
G1 X56.27 Y54.96 F2000
G1 X56.27 Y54.92 F2000
G1 X56.23 Y54.92 F2000
G1 X56.23 Y54.96 F2000
G1 X56.23 Y54.87 F2000
G1 X56.23 Y54.83 F2000
G1 X56.23 Y54.79 F2000
G1 X56.27 Y54.79 F2000
G1 X56.27 Y54.75 F2000
G1 X56.23 Y54.75 F2000
G1 X56.23 Y54.71 F2000
G1 X56.27 Y54.71 F2000
G1 X56.27 Y54.66 F2000
G1 X56.31 Y54.66 F2000
G1 X56.31 Y54.62 F2000
G1 X56.27 Y54.62 F2000
G1 X56.27 Y54.58 F2000
G1 X56.31 Y54.58 F2000
G1 X56.31 Y54.54 F2000
G1 X56.36 Y54.54 F2000
G1 X56.36 Y54.49 F2000
G1 X56.36 Y54.45 F2000
G1 X56.31 Y54.45 F2000
G1 X56.31 Y54.49 F2000
M5 ; Pen Up
G1 X56.23 Y54.32 F5000
M3 ; Pen Down
G1 X56.23 Y54.32 F2000
G1 X56.23 Y54.37 F2000
G1 X56.27 Y54.37 F2000
G1 X56.27 Y54.32 F2000
M5 ; Pen Up
G1 X56.48 Y54.32 F5000
M3 ; Pen Down
G1 X56.48 Y54.32 F2000
G1 X56.53 Y54.32 F2000
G1 X56.53 Y54.37 F2000
G1 X56.53 Y54.41 F2000
G1 X56.57 Y54.41 F2000
G1 X56.57 Y54.45 F2000
G1 X56.61 Y54.45 F2000
G1 X56.61 Y54.41 F2000
G1 X56.65 Y54.41 F2000
G1 X56.65 Y54.37 F2000
G1 X56.65 Y54.32 F2000
G1 X56.61 Y54.32 F2000
G1 X56.61 Y54.37 F2000
G1 X56.57 Y54.37 F2000
G1 X56.57 Y54.32 F2000
M5 ; Pen Up
G1 X56.70 Y54.32 F5000
M3 ; Pen Down
G1 X56.70 Y54.32 F2000
G1 X56.70 Y54.37 F2000
G1 X56.74 Y54.37 F2000
G1 X56.74 Y54.41 F2000
G1 X56.78 Y54.41 F2000
G1 X56.82 Y54.41 F2000
G1 X56.82 Y54.37 F2000
G1 X56.82 Y54.32 F2000
G1 X56.86 Y54.32 F2000
G1 X56.91 Y54.32 F2000
G1 X56.91 Y54.37 F2000
G1 X56.95 Y54.37 F2000
G1 X56.99 Y54.37 F2000
G1 X56.99 Y54.32 F2000
G1 X56.95 Y54.32 F2000
G1 X56.95 Y54.41 F2000
G1 X56.91 Y54.41 F2000
G1 X56.91 Y54.45 F2000
G1 X56.86 Y54.45 F2000
G1 X56.86 Y54.41 F2000
G1 X56.86 Y54.37 F2000
G1 X56.78 Y54.37 F2000
G1 X56.78 Y54.32 F2000
G1 X56.74 Y54.32 F2000
M5 ; Pen Up
G1 X57.03 Y54.32 F5000
M3 ; Pen Down
G1 X57.03 Y54.32 F2000
G1 X57.03 Y54.37 F2000
G1 X57.08 Y54.37 F2000
G1 X57.12 Y54.37 F2000
G1 X57.16 Y54.37 F2000
G1 X57.16 Y54.32 F2000
G1 X57.12 Y54.32 F2000
G1 X57.08 Y54.32 F2000
G1 X57.08 Y54.41 F2000
G1 X57.12 Y54.41 F2000
G1 X57.16 Y54.41 F2000
G1 X57.20 Y54.41 F2000
G1 X57.20 Y54.37 F2000
G1 X57.20 Y54.32 F2000
G1 X57.25 Y54.32 F2000
G1 X57.25 Y54.37 F2000
G1 X57.29 Y54.37 F2000
G1 X57.29 Y54.32 F2000
G1 X57.33 Y54.32 F2000
G1 X57.33 Y54.37 F2000
G1 X57.37 Y54.37 F2000
G1 X57.37 Y54.32 F2000
G1 X57.42 Y54.32 F2000
G1 X57.42 Y54.37 F2000
G1 X57.42 Y54.41 F2000
G1 X57.37 Y54.41 F2000
G1 X57.33 Y54.41 F2000
G1 X57.33 Y54.45 F2000
G1 X57.37 Y54.45 F2000
G1 X57.42 Y54.45 F2000
G1 X57.42 Y54.49 F2000
G1 X57.42 Y54.54 F2000
G1 X57.42 Y54.58 F2000
G1 X57.42 Y54.62 F2000
G1 X57.42 Y54.66 F2000
G1 X57.42 Y54.71 F2000
G1 X57.37 Y54.71 F2000
G1 X57.37 Y54.66 F2000
G1 X57.37 Y54.62 F2000
G1 X57.37 Y54.58 F2000
G1 X57.37 Y54.54 F2000
G1 X57.33 Y54.54 F2000
G1 X57.33 Y54.49 F2000
G1 X57.37 Y54.49 F2000
M5 ; Pen Up
G1 X57.54 Y54.32 F5000
M3 ; Pen Down
G1 X57.54 Y54.32 F2000
G1 X57.58 Y54.32 F2000
G1 X57.58 Y54.37 F2000
G1 X57.54 Y54.37 F2000
G1 X57.54 Y54.41 F2000
G1 X57.54 Y54.45 F2000
G1 X57.54 Y54.49 F2000
G1 X57.54 Y54.54 F2000
G1 X57.58 Y54.54 F2000
G1 X57.58 Y54.58 F2000
G1 X57.63 Y54.58 F2000
G1 X57.63 Y54.62 F2000
G1 X57.67 Y54.62 F2000
G1 X57.67 Y54.66 F2000
G1 X57.71 Y54.66 F2000
G1 X57.71 Y54.71 F2000
G1 X57.75 Y54.71 F2000
G1 X57.80 Y54.71 F2000
G1 X57.80 Y54.75 F2000
G1 X57.84 Y54.75 F2000
G1 X57.84 Y54.79 F2000
G1 X57.84 Y54.83 F2000
G1 X57.80 Y54.83 F2000
G1 X57.80 Y54.79 F2000
G1 X57.75 Y54.79 F2000
G1 X57.75 Y54.83 F2000
G1 X57.71 Y54.87 F2000
G1 X57.67 Y54.87 F2000
G1 X57.67 Y54.92 F2000
G1 X57.63 Y54.92 F2000
G1 X57.63 Y54.87 F2000
G1 X57.63 Y54.83 F2000
G1 X57.63 Y54.79 F2000
G1 X57.58 Y54.79 F2000
G1 X57.58 Y54.75 F2000
G1 X57.54 Y54.75 F2000
G1 X57.54 Y54.71 F2000
G1 X57.58 Y54.71 F2000
G1 X57.63 Y54.71 F2000
G1 X57.63 Y54.66 F2000
G1 X57.58 Y54.66 F2000
G1 X57.54 Y54.66 F2000
G1 X57.54 Y54.62 F2000
G1 X57.54 Y54.58 F2000
G1 X57.58 Y54.62 F2000
M5 ; Pen Up
G1 X57.63 Y54.32 F5000
M3 ; Pen Down
G1 X57.63 Y54.32 F2000
G1 X57.67 Y54.32 F2000
G1 X57.67 Y54.37 F2000
G1 X57.63 Y54.37 F2000
G1 X57.63 Y54.41 F2000
G1 X57.63 Y54.45 F2000
G1 X57.67 Y54.45 F2000
G1 X57.71 Y54.45 F2000
G1 X57.71 Y54.49 F2000
G1 X57.67 Y54.49 F2000
G1 X57.67 Y54.54 F2000
G1 X57.67 Y54.58 F2000
G1 X57.71 Y54.58 F2000
G1 X57.71 Y54.54 F2000
G1 X57.75 Y54.49 F2000
G1 X57.80 Y54.49 F2000
G1 X57.84 Y54.49 F2000
G1 X57.88 Y54.49 F2000
G1 X57.88 Y54.45 F2000
G1 X57.84 Y54.45 F2000
G1 X57.84 Y54.41 F2000
G1 X57.88 Y54.41 F2000
G1 X57.88 Y54.37 F2000
G1 X57.92 Y54.37 F2000
G1 X57.97 Y54.37 F2000
G1 X57.97 Y54.32 F2000
G1 X57.92 Y54.32 F2000
G1 X57.88 Y54.32 F2000
G1 X57.84 Y54.32 F2000
G1 X57.80 Y54.32 F2000
G1 X57.80 Y54.37 F2000
G1 X57.80 Y54.41 F2000
G1 X57.80 Y54.45 F2000
G1 X57.75 Y54.45 F2000
G1 X57.75 Y54.41 F2000
G1 X57.75 Y54.37 F2000
G1 X57.75 Y54.32 F2000
G1 X57.71 Y54.32 F2000
G1 X57.71 Y54.37 F2000
G1 X57.71 Y54.41 F2000
G1 X57.67 Y54.41 F2000
M5 ; Pen Up
G1 X58.01 Y54.32 F5000
M3 ; Pen Down
G1 X58.01 Y54.32 F2000
G1 X58.01 Y54.37 F2000
G1 X58.01 Y54.41 F2000
G1 X58.01 Y54.45 F2000
G1 X58.05 Y54.45 F2000
G1 X58.05 Y54.41 F2000
G1 X58.09 Y54.41 F2000
G1 X58.14 Y54.41 F2000
G1 X58.18 Y54.41 F2000
G1 X58.18 Y54.45 F2000
G1 X58.22 Y54.45 F2000
G1 X58.26 Y54.45 F2000
G1 X58.26 Y54.41 F2000
G1 X58.26 Y54.37 F2000
G1 X58.26 Y54.32 F2000
G1 X58.30 Y54.32 F2000
G1 X58.30 Y54.37 F2000
G1 X58.30 Y54.41 F2000
G1 X58.30 Y54.45 F2000
G1 X58.35 Y54.45 F2000
G1 X58.35 Y54.41 F2000
G1 X58.35 Y54.37 F2000
G1 X58.35 Y54.32 F2000
G1 X58.39 Y54.32 F2000
G1 X58.39 Y54.37 F2000
G1 X58.43 Y54.37 F2000
G1 X58.43 Y54.32 F2000
G1 X58.47 Y54.32 F2000
G1 X58.52 Y54.32 F2000
G1 X58.56 Y54.32 F2000
G1 X58.56 Y54.37 F2000
G1 X58.56 Y54.41 F2000
G1 X58.52 Y54.41 F2000
G1 X58.52 Y54.45 F2000
G1 X58.56 Y54.45 F2000
G1 X58.60 Y54.45 F2000
G1 X58.60 Y54.41 F2000
G1 X58.64 Y54.41 F2000
G1 X58.64 Y54.37 F2000
G1 X58.60 Y54.37 F2000
G1 X58.60 Y54.32 F2000
G1 X58.64 Y54.32 F2000
G1 X58.69 Y54.32 F2000
G1 X58.73 Y54.32 F2000
G1 X58.77 Y54.32 F2000
G1 X58.77 Y54.37 F2000
G1 X58.81 Y54.37 F2000
G1 X58.81 Y54.41 F2000
G1 X58.81 Y54.45 F2000
G1 X58.81 Y54.49 F2000
G1 X58.77 Y54.49 F2000
G1 X58.77 Y54.54 F2000
G1 X58.77 Y54.58 F2000
G1 X58.81 Y54.58 F2000
G1 X58.81 Y54.54 F2000
G1 X58.85 Y54.54 F2000
G1 X58.85 Y54.49 F2000
G1 X58.85 Y54.45 F2000
G1 X58.85 Y54.41 F2000
G1 X58.85 Y54.37 F2000
G1 X58.90 Y54.37 F2000
G1 X58.90 Y54.41 F2000
G1 X58.90 Y54.45 F2000
G1 X58.90 Y54.49 F2000
G1 X58.90 Y54.54 F2000
G1 X58.90 Y54.58 F2000
G1 X58.85 Y54.58 F2000
G1 X58.90 Y54.62 F2000
G1 X58.94 Y54.62 F2000
G1 X58.94 Y54.66 F2000
G1 X58.94 Y54.71 F2000
G1 X58.98 Y54.71 F2000
G1 X59.02 Y54.71 F2000
G1 X59.02 Y54.66 F2000
G1 X58.98 Y54.66 F2000
G1 X59.02 Y54.62 F2000
G1 X59.07 Y54.62 F2000
G1 X59.11 Y54.62 F2000
G1 X59.15 Y54.62 F2000
G1 X59.15 Y54.58 F2000
G1 X59.19 Y54.58 F2000
G1 X59.19 Y54.54 F2000
G1 X59.15 Y54.54 F2000
G1 X59.15 Y54.49 F2000
G1 X59.19 Y54.49 F2000
G1 X59.19 Y54.45 F2000
G1 X59.15 Y54.45 F2000
G1 X59.15 Y54.41 F2000
G1 X59.15 Y54.37 F2000
G1 X59.19 Y54.37 F2000
G1 X59.19 Y54.32 F2000
G1 X59.15 Y54.32 F2000
G1 X59.11 Y54.32 F2000
G1 X59.07 Y54.32 F2000
G1 X59.07 Y54.37 F2000
G1 X59.07 Y54.41 F2000
G1 X59.07 Y54.45 F2000
G1 X59.11 Y54.45 F2000
G1 X59.11 Y54.41 F2000
G1 X59.11 Y54.37 F2000
M5 ; Pen Up
G1 X58.05 Y54.32 F5000
M3 ; Pen Down
G1 X58.05 Y54.32 F2000
G1 X58.05 Y54.37 F2000
G1 X58.09 Y54.37 F2000
G1 X58.09 Y54.32 F2000
G1 X58.14 Y54.32 F2000
G1 X58.18 Y54.32 F2000
G1 X58.18 Y54.37 F2000
G1 X58.14 Y54.37 F2000
G1 X58.14 Y54.45 F2000
G1 X58.09 Y54.45 F2000
G1 X58.09 Y54.49 F2000
G1 X58.14 Y54.49 F2000
G1 X58.18 Y54.49 F2000
G1 X58.22 Y54.49 F2000
G1 X58.22 Y54.54 F2000
G1 X58.26 Y54.54 F2000
G1 X58.26 Y54.58 F2000
G1 X58.26 Y54.62 F2000
G1 X58.30 Y54.62 F2000
G1 X58.35 Y54.62 F2000
G1 X58.35 Y54.58 F2000
G1 X58.39 Y54.58 F2000
G1 X58.39 Y54.62 F2000
G1 X58.39 Y54.66 F2000
G1 X58.39 Y54.71 F2000
G1 X58.39 Y54.75 F2000
G1 X58.39 Y54.79 F2000
G1 X58.43 Y54.79 F2000
G1 X58.43 Y54.83 F2000
G1 X58.39 Y54.83 F2000
G1 X58.39 Y54.87 F2000
G1 X58.39 Y54.92 F2000
G1 X58.35 Y54.92 F2000
G1 X58.35 Y54.96 F2000
G1 X58.35 Y55.00 F2000
G1 X58.30 Y55.00 F2000
G1 X58.26 Y55.00 F2000
G1 X58.26 Y55.04 F2000
G1 X58.30 Y55.04 F2000
G1 X58.30 Y55.09 F2000
G1 X58.35 Y55.09 F2000
G1 X58.35 Y55.04 F2000
G1 X58.39 Y55.04 F2000
G1 X58.43 Y55.04 F2000
G1 X58.47 Y55.04 F2000
G1 X58.47 Y55.00 F2000
G1 X58.43 Y55.00 F2000
G1 X58.43 Y54.96 F2000
G1 X58.47 Y54.96 F2000
G1 X58.47 Y54.92 F2000
G1 X58.52 Y54.92 F2000
G1 X58.52 Y54.87 F2000
G1 X58.56 Y54.87 F2000
G1 X58.56 Y54.92 F2000
G1 X58.60 Y54.92 F2000
G1 X58.64 Y54.92 F2000
G1 X58.64 Y54.96 F2000
G1 X58.69 Y54.96 F2000
G1 X58.69 Y55.00 F2000
G1 X58.69 Y55.04 F2000
G1 X58.73 Y55.04 F2000
G1 X58.73 Y55.09 F2000
G1 X58.73 Y55.13 F2000
G1 X58.73 Y55.17 F2000
G1 X58.73 Y55.21 F2000
G1 X58.77 Y55.21 F2000
G1 X58.77 Y55.26 F2000
G1 X58.73 Y55.26 F2000
G1 X58.73 Y55.30 F2000
G1 X58.77 Y55.30 F2000
G1 X58.77 Y55.34 F2000
G1 X58.77 Y55.38 F2000
G1 X58.77 Y55.43 F2000
G1 X58.77 Y55.47 F2000
G1 X58.81 Y55.47 F2000
G1 X58.81 Y55.51 F2000
G1 X58.81 Y55.55 F2000
G1 X58.81 Y55.59 F2000
G1 X58.81 Y55.64 F2000
G1 X58.81 Y55.68 F2000
G1 X58.81 Y55.72 F2000
G1 X58.81 Y55.76 F2000
G1 X58.77 Y55.76 F2000
G1 X58.77 Y55.72 F2000
G1 X58.73 Y55.72 F2000
G1 X58.73 Y55.68 F2000
G1 X58.73 Y55.64 F2000
G1 X58.69 Y55.64 F2000
G1 X58.69 Y55.59 F2000
G1 X58.69 Y55.55 F2000
G1 X58.64 Y55.55 F2000
G1 X58.64 Y55.51 F2000
G1 X58.64 Y55.47 F2000
G1 X58.60 Y55.47 F2000
G1 X58.60 Y55.43 F2000
G1 X58.60 Y55.38 F2000
G1 X58.60 Y55.34 F2000
G1 X58.56 Y55.34 F2000
G1 X58.56 Y55.38 F2000
G1 X58.56 Y55.30 F2000
G1 X58.56 Y55.26 F2000
G1 X58.52 Y55.26 F2000
G1 X58.52 Y55.30 F2000
G1 X58.52 Y55.21 F2000
G1 X58.52 Y55.17 F2000
G1 X58.47 Y55.17 F2000
G1 X58.47 Y55.13 F2000
G1 X58.43 Y55.13 F2000
G1 X58.43 Y55.09 F2000
G1 X58.47 Y55.09 F2000
G1 X58.39 Y55.09 F2000
M5 ; Pen Up
G1 X58.22 Y54.32 F5000
M3 ; Pen Down
G1 X58.22 Y54.32 F2000
G1 X58.22 Y54.37 F2000
G1 X58.22 Y54.41 F2000
M5 ; Pen Up
G1 X58.81 Y54.32 F5000
M3 ; Pen Down
G1 X58.81 Y54.32 F2000
G1 X58.85 Y54.32 F2000
G1 X58.90 Y54.32 F2000
G1 X58.94 Y54.32 F2000
G1 X58.98 Y54.32 F2000
G1 X59.02 Y54.32 F2000
G1 X59.02 Y54.37 F2000
G1 X59.02 Y54.41 F2000
G1 X59.02 Y54.45 F2000
G1 X58.98 Y54.45 F2000
G1 X58.98 Y54.41 F2000
G1 X58.98 Y54.37 F2000
G1 X58.94 Y54.37 F2000
G1 X58.94 Y54.41 F2000
G1 X58.94 Y54.45 F2000
M5 ; Pen Up
G1 X59.24 Y54.32 F5000
M3 ; Pen Down
G1 X59.24 Y54.32 F2000
G1 X59.24 Y54.37 F2000
G1 X59.24 Y54.41 F2000
G1 X59.28 Y54.41 F2000
G1 X59.32 Y54.41 F2000
G1 X59.32 Y54.37 F2000
G1 X59.32 Y54.32 F2000
G1 X59.28 Y54.32 F2000
G1 X59.28 Y54.37 F2000
M5 ; Pen Up
G1 X59.36 Y54.32 F5000
M3 ; Pen Down
G1 X59.36 Y54.32 F2000
G1 X59.41 Y54.32 F2000
G1 X59.45 Y54.32 F2000
G1 X59.45 Y54.37 F2000
G1 X59.41 Y54.37 F2000
G1 X59.36 Y54.37 F2000
G1 X59.36 Y54.41 F2000
G1 X59.41 Y54.41 F2000
G1 X59.45 Y54.41 F2000
G1 X59.45 Y54.45 F2000
G1 X59.49 Y54.45 F2000
G1 X59.49 Y54.49 F2000
G1 X59.49 Y54.54 F2000
G1 X59.49 Y54.58 F2000
G1 X59.49 Y54.62 F2000
G1 X59.45 Y54.62 F2000
G1 X59.45 Y54.66 F2000
G1 X59.41 Y54.66 F2000
G1 X59.36 Y54.66 F2000
G1 X59.32 Y54.66 F2000
G1 X59.28 Y54.66 F2000
G1 X59.28 Y54.71 F2000
G1 X59.32 Y54.71 F2000
G1 X59.36 Y54.71 F2000
G1 X59.36 Y54.75 F2000
G1 X59.36 Y54.79 F2000
G1 X59.36 Y54.83 F2000
G1 X59.36 Y54.87 F2000
G1 X59.36 Y54.92 F2000
G1 X59.41 Y54.92 F2000
G1 X59.45 Y54.92 F2000
G1 X59.49 Y54.92 F2000
G1 X59.49 Y54.96 F2000
G1 X59.53 Y54.96 F2000
G1 X59.53 Y54.92 F2000
G1 X59.53 Y54.87 F2000
G1 X59.49 Y54.87 F2000
G1 X59.45 Y54.87 F2000
G1 X59.41 Y54.87 F2000
G1 X59.41 Y54.96 F2000
G1 X59.45 Y54.96 F2000
G1 X59.45 Y55.00 F2000
G1 X59.45 Y55.04 F2000
G1 X59.41 Y55.04 F2000
G1 X59.41 Y55.00 F2000
G1 X59.36 Y55.04 F2000
G1 X59.36 Y55.09 F2000
G1 X59.32 Y55.09 F2000
G1 X59.32 Y55.13 F2000
G1 X59.28 Y55.13 F2000
G1 X59.28 Y55.17 F2000
G1 X59.24 Y55.17 F2000
G1 X59.24 Y55.21 F2000
G1 X59.24 Y55.26 F2000
G1 X59.19 Y55.26 F2000
G1 X59.19 Y55.30 F2000
G1 X59.19 Y55.34 F2000
G1 X59.15 Y55.34 F2000
G1 X59.15 Y55.38 F2000
G1 X59.15 Y55.43 F2000
G1 X59.11 Y55.43 F2000
G1 X59.11 Y55.47 F2000
G1 X59.11 Y55.51 F2000
G1 X59.07 Y55.51 F2000
G1 X59.07 Y55.55 F2000
G1 X59.07 Y55.59 F2000
G1 X59.02 Y55.64 F2000
G1 X59.02 Y55.68 F2000
G1 X58.98 Y55.72 F2000
G1 X58.98 Y55.76 F2000
G1 X58.98 Y55.81 F2000
G1 X58.98 Y55.85 F2000
G1 X59.02 Y55.85 F2000
G1 X59.02 Y55.81 F2000
G1 X59.07 Y55.81 F2000
G1 X59.07 Y55.85 F2000
G1 X59.07 Y55.89 F2000
G1 X59.02 Y55.89 F2000
G1 X59.02 Y55.93 F2000
G1 X59.07 Y55.93 F2000
G1 X59.07 Y55.98 F2000
G1 X59.02 Y55.98 F2000
G1 X59.02 Y56.02 F2000
G1 X59.07 Y56.02 F2000
G1 X59.07 Y56.06 F2000
G1 X59.07 Y56.10 F2000
G1 X59.11 Y56.10 F2000
G1 X59.11 Y56.15 F2000
G1 X59.07 Y56.15 F2000
G1 X59.02 Y56.15 F2000
G1 X59.02 Y56.10 F2000
G1 X58.98 Y56.10 F2000
G1 X58.94 Y56.10 F2000
G1 X58.90 Y56.10 F2000
G1 X58.90 Y56.15 F2000
G1 X58.85 Y56.15 F2000
G1 X58.85 Y56.19 F2000
G1 X58.85 Y56.23 F2000
G1 X58.90 Y56.23 F2000
G1 X58.94 Y56.23 F2000
G1 X58.94 Y56.19 F2000
G1 X58.94 Y56.15 F2000
G1 X58.90 Y56.19 F2000
M5 ; Pen Up
G1 X59.49 Y54.32 F5000
M3 ; Pen Down
G1 X59.49 Y54.32 F2000
G1 X59.49 Y54.37 F2000
G1 X59.49 Y54.41 F2000
G1 X59.53 Y54.41 F2000
G1 X59.53 Y54.45 F2000
G1 X59.57 Y54.45 F2000
G1 X59.57 Y54.49 F2000
G1 X59.53 Y54.49 F2000
G1 X59.53 Y54.54 F2000
G1 X59.53 Y54.58 F2000
G1 X59.53 Y54.62 F2000
G1 X59.53 Y54.66 F2000
G1 X59.57 Y54.66 F2000
G1 X59.57 Y54.71 F2000
G1 X59.57 Y54.75 F2000
G1 X59.62 Y54.75 F2000
G1 X59.62 Y54.71 F2000
G1 X59.66 Y54.71 F2000
G1 X59.66 Y54.75 F2000
G1 X59.70 Y54.75 F2000
G1 X59.70 Y54.71 F2000
G1 X59.74 Y54.71 F2000
G1 X59.74 Y54.66 F2000
G1 X59.79 Y54.66 F2000
G1 X59.83 Y54.66 F2000
G1 X59.83 Y54.62 F2000
G1 X59.83 Y54.58 F2000
G1 X59.79 Y54.58 F2000
G1 X59.79 Y54.62 F2000
G1 X59.74 Y54.62 F2000
G1 X59.74 Y54.58 F2000
G1 X59.74 Y54.54 F2000
G1 X59.74 Y54.49 F2000
G1 X59.70 Y54.49 F2000
G1 X59.70 Y54.45 F2000
G1 X59.66 Y54.45 F2000
G1 X59.66 Y54.41 F2000
G1 X59.66 Y54.37 F2000
G1 X59.66 Y54.32 F2000
G1 X59.62 Y54.32 F2000
G1 X59.62 Y54.37 F2000
G1 X59.62 Y54.41 F2000
G1 X59.62 Y54.45 F2000
G1 X59.57 Y54.41 F2000
G1 X59.57 Y54.37 F2000
G1 X59.53 Y54.37 F2000
G1 X59.53 Y54.32 F2000
G1 X59.57 Y54.32 F2000
M5 ; Pen Up
G1 X59.70 Y54.32 F5000
M3 ; Pen Down
G1 X59.70 Y54.32 F2000
G1 X59.70 Y54.37 F2000
G1 X59.74 Y54.37 F2000
G1 X59.74 Y54.32 F2000
G1 X59.79 Y54.32 F2000
G1 X59.83 Y54.32 F2000
G1 X59.83 Y54.37 F2000
G1 X59.87 Y54.37 F2000
G1 X59.87 Y54.32 F2000
G1 X59.91 Y54.32 F2000
G1 X59.91 Y54.37 F2000
G1 X59.91 Y54.41 F2000
G1 X59.96 Y54.41 F2000
G1 X59.96 Y54.45 F2000
G1 X60.00 Y54.45 F2000
G1 X60.00 Y54.49 F2000
G1 X59.96 Y54.49 F2000
G1 X59.91 Y54.49 F2000
G1 X59.91 Y54.45 F2000
G1 X59.87 Y54.45 F2000
G1 X59.83 Y54.45 F2000
G1 X59.83 Y54.41 F2000
G1 X59.79 Y54.41 F2000
G1 X59.79 Y54.45 F2000
G1 X59.74 Y54.45 F2000
G1 X59.74 Y54.41 F2000
G1 X59.70 Y54.41 F2000
M5 ; Pen Up
G1 X59.96 Y54.32 F5000
M3 ; Pen Down
G1 X59.96 Y54.32 F2000
G1 X59.96 Y54.37 F2000
G1 X60.00 Y54.37 F2000
G1 X60.00 Y54.41 F2000
G1 X60.04 Y54.41 F2000
G1 X60.04 Y54.45 F2000
G1 X60.08 Y54.45 F2000
G1 X60.08 Y54.41 F2000
G1 X60.08 Y54.37 F2000
G1 X60.08 Y54.32 F2000
G1 X60.04 Y54.32 F2000
G1 X60.00 Y54.32 F2000
G1 X60.04 Y54.37 F2000
M5 ; Pen Up
G1 X60.13 Y54.32 F5000
M3 ; Pen Down
G1 X60.13 Y54.32 F2000
G1 X60.17 Y54.32 F2000
G1 X60.17 Y54.37 F2000
G1 X60.17 Y54.41 F2000
G1 X60.17 Y54.45 F2000
G1 X60.17 Y54.49 F2000
G1 X60.17 Y54.54 F2000
G1 X60.13 Y54.54 F2000
G1 X60.08 Y54.54 F2000
G1 X60.08 Y54.58 F2000
G1 X60.08 Y54.62 F2000
G1 X60.08 Y54.66 F2000
G1 X60.08 Y54.71 F2000
G1 X60.04 Y54.71 F2000
G1 X60.04 Y54.75 F2000
G1 X60.08 Y54.75 F2000
G1 X60.13 Y54.75 F2000
G1 X60.13 Y54.71 F2000
G1 X60.17 Y54.71 F2000
G1 X60.17 Y54.75 F2000
G1 X60.17 Y54.79 F2000
G1 X60.21 Y54.79 F2000
G1 X60.21 Y54.83 F2000
G1 X60.21 Y54.87 F2000
G1 X60.21 Y54.92 F2000
G1 X60.17 Y54.92 F2000
G1 X60.13 Y54.92 F2000
G1 X60.13 Y54.87 F2000
G1 X60.13 Y54.83 F2000
G1 X60.08 Y54.83 F2000
G1 X60.08 Y54.87 F2000
G1 X60.04 Y54.87 F2000
G1 X60.00 Y54.87 F2000
G1 X59.96 Y54.87 F2000
G1 X59.91 Y54.87 F2000
G1 X59.87 Y54.87 F2000
G1 X59.87 Y54.92 F2000
G1 X59.83 Y54.92 F2000
G1 X59.83 Y54.96 F2000
G1 X59.79 Y54.96 F2000
G1 X59.74 Y54.96 F2000
G1 X59.74 Y54.92 F2000
G1 X59.79 Y54.92 F2000
G1 X59.79 Y55.00 F2000
G1 X59.83 Y55.00 F2000
G1 X59.83 Y55.04 F2000
G1 X59.79 Y55.04 F2000
G1 X59.74 Y55.04 F2000
G1 X59.74 Y55.00 F2000
G1 X59.70 Y55.04 F2000
G1 X59.66 Y55.09 F2000
G1 X59.62 Y55.09 F2000
G1 X59.62 Y55.13 F2000
G1 X59.57 Y55.13 F2000
G1 X59.57 Y55.17 F2000
G1 X59.62 Y55.17 F2000
G1 X59.62 Y55.21 F2000
G1 X59.66 Y55.21 F2000
G1 X59.66 Y55.17 F2000
G1 X59.66 Y55.13 F2000
G1 X59.57 Y55.09 F2000
G1 X59.53 Y55.09 F2000
G1 X59.49 Y55.09 F2000
G1 X59.49 Y55.04 F2000
G1 X59.49 Y55.00 F2000
G1 X59.53 Y55.04 F2000
G1 X59.53 Y55.13 F2000
G1 X59.49 Y55.13 F2000
G1 X59.49 Y55.17 F2000
G1 X59.53 Y55.17 F2000
G1 X59.49 Y55.21 F2000
G1 X59.49 Y55.26 F2000
G1 X59.45 Y55.26 F2000
G1 X59.45 Y55.30 F2000
G1 X59.49 Y55.30 F2000
G1 X59.53 Y55.30 F2000
G1 X59.57 Y55.30 F2000
G1 X59.57 Y55.26 F2000
G1 X59.62 Y55.26 F2000
G1 X59.62 Y55.30 F2000
G1 X59.62 Y55.34 F2000
G1 X59.62 Y55.38 F2000
G1 X59.62 Y55.43 F2000
G1 X59.62 Y55.47 F2000
G1 X59.57 Y55.47 F2000
G1 X59.57 Y55.51 F2000
G1 X59.57 Y55.55 F2000
G1 X59.53 Y55.55 F2000
G1 X59.53 Y55.51 F2000
G1 X59.49 Y55.51 F2000
G1 X59.49 Y55.55 F2000
G1 X59.49 Y55.59 F2000
G1 X59.45 Y55.59 F2000
G1 X59.45 Y55.55 F2000
G1 X59.41 Y55.59 F2000
G1 X59.41 Y55.64 F2000
G1 X59.36 Y55.64 F2000
G1 X59.36 Y55.68 F2000
G1 X59.32 Y55.68 F2000
G1 X59.32 Y55.72 F2000
G1 X59.32 Y55.76 F2000
G1 X59.28 Y55.76 F2000
G1 X59.24 Y55.76 F2000
G1 X59.24 Y55.81 F2000
G1 X59.19 Y55.81 F2000
G1 X59.15 Y55.81 F2000
G1 X59.15 Y55.85 F2000
G1 X59.11 Y55.85 F2000
G1 X59.11 Y55.89 F2000
M5 ; Pen Up
G1 X60.21 Y54.32 F5000
M3 ; Pen Down
G1 X60.21 Y54.32 F2000
G1 X60.21 Y54.37 F2000
G1 X60.21 Y54.41 F2000
G1 X60.21 Y54.45 F2000
G1 X60.21 Y54.49 F2000
G1 X60.21 Y54.54 F2000
G1 X60.21 Y54.58 F2000
G1 X60.21 Y54.62 F2000
G1 X60.21 Y54.66 F2000
G1 X60.21 Y54.71 F2000
G1 X60.21 Y54.75 F2000
G1 X60.17 Y54.66 F2000
G1 X60.17 Y54.62 F2000
G1 X60.17 Y54.58 F2000
G1 X60.13 Y54.58 F2000
G1 X60.13 Y54.62 F2000
G1 X60.13 Y54.66 F2000
M5 ; Pen Up
G1 X60.34 Y54.32 F5000
M3 ; Pen Down
G1 X60.34 Y54.32 F2000
G1 X60.34 Y54.37 F2000
G1 X60.34 Y54.41 F2000
G1 X60.38 Y54.41 F2000
G1 X60.38 Y54.45 F2000
G1 X60.38 Y54.49 F2000
G1 X60.34 Y54.49 F2000
G1 X60.34 Y54.45 F2000
G1 X60.34 Y54.54 F2000
G1 X60.38 Y54.54 F2000
G1 X60.38 Y54.58 F2000
G1 X60.42 Y54.58 F2000
G1 X60.46 Y54.58 F2000
G1 X60.46 Y54.54 F2000
G1 X60.42 Y54.54 F2000
G1 X60.42 Y54.49 F2000
G1 X60.46 Y54.49 F2000
G1 X60.46 Y54.45 F2000
G1 X60.42 Y54.45 F2000
G1 X60.42 Y54.41 F2000
G1 X60.46 Y54.41 F2000
G1 X60.46 Y54.37 F2000
G1 X60.42 Y54.37 F2000
G1 X60.42 Y54.32 F2000
G1 X60.38 Y54.32 F2000
G1 X60.38 Y54.37 F2000
M5 ; Pen Up
G1 X60.46 Y54.32 F5000
M3 ; Pen Down
G1 X60.46 Y54.32 F2000
G1 X60.51 Y54.32 F2000
G1 X60.51 Y54.37 F2000
G1 X60.51 Y54.41 F2000
G1 X60.51 Y54.45 F2000
G1 X60.55 Y54.41 F2000
G1 X60.55 Y54.37 F2000
G1 X60.59 Y54.37 F2000
G1 X60.59 Y54.32 F2000
G1 X60.55 Y54.32 F2000
G1 X60.63 Y54.32 F2000
G1 X60.63 Y54.37 F2000
G1 X60.68 Y54.37 F2000
G1 X60.68 Y54.41 F2000
G1 X60.68 Y54.45 F2000
G1 X60.63 Y54.45 F2000
G1 X60.63 Y54.41 F2000
G1 X60.59 Y54.41 F2000
M5 ; Pen Up
G1 X60.68 Y54.32 F5000
M3 ; Pen Down
G1 X60.68 Y54.32 F2000
G1 X60.72 Y54.32 F2000
G1 X60.76 Y54.32 F2000
G1 X60.76 Y54.37 F2000
G1 X60.80 Y54.37 F2000
G1 X60.80 Y54.41 F2000
G1 X60.76 Y54.41 F2000
G1 X60.76 Y54.45 F2000
G1 X60.72 Y54.45 F2000
G1 X60.72 Y54.41 F2000
G1 X60.72 Y54.37 F2000
M5 ; Pen Up
G1 X60.80 Y54.32 F5000
M3 ; Pen Down
G1 X60.80 Y54.32 F2000
G1 X60.84 Y54.32 F2000
G1 X60.89 Y54.32 F2000
G1 X60.93 Y54.32 F2000
G1 X60.97 Y54.32 F2000
G1 X61.01 Y54.32 F2000
G1 X61.01 Y54.37 F2000
G1 X61.01 Y54.41 F2000
G1 X60.97 Y54.41 F2000
G1 X60.93 Y54.41 F2000
G1 X60.89 Y54.41 F2000
G1 X60.89 Y54.37 F2000
G1 X60.84 Y54.37 F2000
G1 X60.84 Y54.41 F2000
M5 ; Pen Up
G1 X61.06 Y54.32 F5000
M3 ; Pen Down
G1 X61.06 Y54.32 F2000
G1 X61.06 Y54.37 F2000
G1 X61.10 Y54.37 F2000
G1 X61.10 Y54.32 F2000
G1 X61.14 Y54.32 F2000
G1 X61.18 Y54.32 F2000
G1 X61.18 Y54.37 F2000
G1 X61.18 Y54.41 F2000
G1 X61.18 Y54.45 F2000
G1 X61.23 Y54.45 F2000
G1 X61.27 Y54.45 F2000
G1 X61.31 Y54.45 F2000
G1 X61.35 Y54.45 F2000
G1 X61.35 Y54.41 F2000
G1 X61.40 Y54.41 F2000
G1 X61.44 Y54.41 F2000
G1 X61.44 Y54.37 F2000
G1 X61.48 Y54.37 F2000
G1 X61.48 Y54.41 F2000
G1 X61.48 Y54.45 F2000
G1 X61.44 Y54.45 F2000
G1 X61.40 Y54.45 F2000
G1 X61.40 Y54.37 F2000
G1 X61.35 Y54.37 F2000
G1 X61.31 Y54.37 F2000
G1 X61.31 Y54.32 F2000
G1 X61.27 Y54.32 F2000
G1 X61.23 Y54.32 F2000
G1 X61.23 Y54.37 F2000
G1 X61.23 Y54.41 F2000
G1 X61.27 Y54.41 F2000
G1 X61.27 Y54.37 F2000
G1 X61.31 Y54.41 F2000
M5 ; Pen Up
G1 X61.35 Y54.32 F5000
M3 ; Pen Down
G1 X61.35 Y54.32 F2000
G1 X61.40 Y54.32 F2000
G1 X61.44 Y54.32 F2000
G1 X61.48 Y54.32 F2000
G1 X61.52 Y54.32 F2000
G1 X61.56 Y54.32 F2000
G1 X61.61 Y54.32 F2000
G1 X61.65 Y54.32 F2000
G1 X61.69 Y54.32 F2000
G1 X61.69 Y54.37 F2000
G1 X61.69 Y54.41 F2000
G1 X61.73 Y54.41 F2000
G1 X61.78 Y54.41 F2000
G1 X61.82 Y54.41 F2000
G1 X61.82 Y54.37 F2000
G1 X61.86 Y54.37 F2000
G1 X61.86 Y54.32 F2000
G1 X61.90 Y54.32 F2000
G1 X61.90 Y54.37 F2000
G1 X61.95 Y54.37 F2000
G1 X61.95 Y54.32 F2000
G1 X61.99 Y54.32 F2000
G1 X61.99 Y54.37 F2000
G1 X62.03 Y54.37 F2000
G1 X62.03 Y54.41 F2000
G1 X62.07 Y54.41 F2000
G1 X62.07 Y54.45 F2000
G1 X62.12 Y54.45 F2000
G1 X62.16 Y54.45 F2000
G1 X62.16 Y54.49 F2000
G1 X62.20 Y54.49 F2000
G1 X62.20 Y54.45 F2000
G1 X62.24 Y54.45 F2000
G1 X62.28 Y54.45 F2000
G1 X62.28 Y54.41 F2000
G1 X62.24 Y54.41 F2000
G1 X62.20 Y54.41 F2000
G1 X62.16 Y54.41 F2000
G1 X62.12 Y54.41 F2000
G1 X62.12 Y54.37 F2000
G1 X62.07 Y54.37 F2000
G1 X62.07 Y54.32 F2000
G1 X62.12 Y54.32 F2000
G1 X62.16 Y54.32 F2000
G1 X62.16 Y54.37 F2000
G1 X62.20 Y54.37 F2000
G1 X62.20 Y54.32 F2000
G1 X62.24 Y54.32 F2000
G1 X62.28 Y54.32 F2000
G1 X62.33 Y54.32 F2000
G1 X62.33 Y54.37 F2000
G1 X62.33 Y54.41 F2000
G1 X62.33 Y54.45 F2000
G1 X62.37 Y54.41 F2000
G1 X62.41 Y54.41 F2000
G1 X62.41 Y54.37 F2000
G1 X62.41 Y54.32 F2000
G1 X62.37 Y54.32 F2000
G1 X62.37 Y54.37 F2000
G1 X62.28 Y54.37 F2000
G1 X62.24 Y54.37 F2000
M5 ; Pen Up
G1 X61.73 Y54.32 F5000
M3 ; Pen Down
G1 X61.73 Y54.32 F2000
G1 X61.78 Y54.32 F2000
G1 X61.82 Y54.32 F2000
G1 X61.78 Y54.37 F2000
G1 X61.73 Y54.37 F2000
G1 X61.73 Y54.45 F2000
G1 X61.73 Y54.49 F2000
G1 X61.69 Y54.49 F2000
G1 X61.69 Y54.54 F2000
G1 X61.69 Y54.58 F2000
G1 X61.65 Y54.58 F2000
G1 X61.65 Y54.62 F2000
G1 X61.61 Y54.62 F2000
G1 X61.61 Y54.58 F2000
G1 X61.61 Y54.54 F2000
G1 X61.61 Y54.49 F2000
G1 X61.61 Y54.45 F2000
G1 X61.65 Y54.45 F2000
G1 X61.65 Y54.41 F2000
G1 X61.61 Y54.41 F2000
G1 X61.56 Y54.41 F2000
G1 X61.56 Y54.45 F2000
G1 X61.52 Y54.41 F2000
G1 X61.52 Y54.37 F2000
G1 X61.56 Y54.37 F2000
G1 X61.61 Y54.37 F2000
G1 X61.65 Y54.37 F2000
M5 ; Pen Up
G1 X62.03 Y54.32 F5000
M3 ; Pen Down
G1 X62.03 Y54.32 F2000
M5 ; Pen Up
G1 X62.45 Y54.32 F5000
M3 ; Pen Down
G1 X62.45 Y54.32 F2000
G1 X62.45 Y54.37 F2000
G1 X62.45 Y54.41 F2000
G1 X62.45 Y54.45 F2000
G1 X62.50 Y54.45 F2000
G1 X62.54 Y54.45 F2000
G1 X62.54 Y54.41 F2000
G1 X62.50 Y54.41 F2000
G1 X62.50 Y54.37 F2000
G1 X62.54 Y54.37 F2000
G1 X62.58 Y54.37 F2000
G1 X62.58 Y54.32 F2000
G1 X62.54 Y54.32 F2000
G1 X62.50 Y54.32 F2000
M5 ; Pen Up
G1 X62.62 Y54.32 F5000
M3 ; Pen Down
G1 X62.62 Y54.32 F2000
G1 X62.62 Y54.37 F2000
G1 X62.67 Y54.37 F2000
G1 X62.67 Y54.41 F2000
G1 X62.71 Y54.41 F2000
G1 X62.71 Y54.37 F2000
G1 X62.71 Y54.32 F2000
G1 X62.67 Y54.32 F2000
G1 X62.75 Y54.32 F2000
G1 X62.79 Y54.32 F2000
G1 X62.79 Y54.37 F2000
G1 X62.84 Y54.37 F2000
G1 X62.84 Y54.32 F2000
G1 X62.88 Y54.32 F2000
G1 X62.88 Y54.37 F2000
G1 X62.92 Y54.37 F2000
G1 X62.92 Y54.41 F2000
G1 X62.88 Y54.41 F2000
G1 X62.88 Y54.45 F2000
G1 X62.88 Y54.49 F2000
G1 X62.92 Y54.49 F2000
G1 X62.96 Y54.49 F2000
G1 X62.96 Y54.54 F2000
G1 X62.92 Y54.54 F2000
G1 X62.88 Y54.54 F2000
G1 X62.88 Y54.58 F2000
G1 X62.92 Y54.58 F2000
G1 X62.92 Y54.62 F2000
G1 X62.92 Y54.66 F2000
G1 X62.88 Y54.66 F2000
G1 X62.88 Y54.71 F2000
G1 X62.92 Y54.71 F2000
G1 X62.92 Y54.75 F2000
G1 X62.92 Y54.79 F2000
G1 X62.88 Y54.79 F2000
G1 X62.88 Y54.75 F2000
G1 X62.84 Y54.75 F2000
G1 X62.84 Y54.71 F2000
G1 X62.84 Y54.66 F2000
G1 X62.79 Y54.66 F2000
G1 X62.75 Y54.66 F2000
G1 X62.71 Y54.66 F2000
G1 X62.67 Y54.66 F2000
G1 X62.62 Y54.66 F2000
G1 X62.58 Y54.66 F2000
G1 X62.54 Y54.66 F2000
G1 X62.50 Y54.66 F2000
G1 X62.45 Y54.66 F2000
G1 X62.41 Y54.66 F2000
G1 X62.41 Y54.71 F2000
G1 X62.41 Y54.75 F2000
G1 X62.45 Y54.75 F2000
G1 X62.45 Y54.71 F2000
G1 X62.45 Y54.79 F2000
G1 X62.50 Y54.79 F2000
G1 X62.50 Y54.83 F2000
G1 X62.50 Y54.87 F2000
G1 X62.50 Y54.92 F2000
G1 X62.54 Y54.92 F2000
G1 X62.58 Y54.92 F2000
G1 X62.58 Y54.96 F2000
G1 X62.58 Y55.00 F2000
G1 X62.62 Y55.00 F2000
G1 X62.62 Y54.96 F2000
G1 X62.62 Y54.92 F2000
G1 X62.67 Y54.92 F2000
G1 X62.75 Y54.92 F2000
G1 X62.84 Y54.92 F2000
G1 X62.84 Y54.87 F2000
G1 X62.84 Y54.83 F2000
G1 X62.84 Y54.79 F2000
G1 X62.79 Y54.79 F2000
G1 X62.75 Y54.79 F2000
G1 X62.71 Y54.79 F2000
G1 X62.67 Y54.79 F2000
G1 X62.62 Y54.79 F2000
G1 X62.58 Y54.79 F2000
G1 X62.54 Y54.79 F2000
G1 X62.54 Y54.83 F2000
G1 X62.54 Y54.87 F2000
G1 X62.58 Y54.87 F2000
M5 ; Pen Up
G1 X62.92 Y54.32 F5000
M3 ; Pen Down
G1 X62.92 Y54.32 F2000
G1 X62.96 Y54.32 F2000
G1 X62.96 Y54.37 F2000
G1 X63.00 Y54.37 F2000
G1 X63.00 Y54.41 F2000
G1 X63.00 Y54.45 F2000
G1 X62.96 Y54.45 F2000
G1 X62.92 Y54.45 F2000
G1 X62.96 Y54.41 F2000
M5 ; Pen Up
G1 X51.95 Y54.37 F5000
M3 ; Pen Down
G1 X51.95 Y54.37 F2000
G1 X52.00 Y54.37 F2000
G1 X52.00 Y54.41 F2000
G1 X52.00 Y54.45 F2000
G1 X52.00 Y54.49 F2000
G1 X51.95 Y54.49 F2000
G1 X51.95 Y54.45 F2000
G1 X51.95 Y54.41 F2000
G1 X52.04 Y54.37 F2000
M5 ; Pen Up
G1 X53.22 Y54.37 F5000
M3 ; Pen Down
G1 X53.22 Y54.37 F2000
G1 X53.22 Y54.41 F2000
G1 X53.27 Y54.41 F2000
M5 ; Pen Up
G1 X54.03 Y54.37 F5000
M3 ; Pen Down
G1 X54.03 Y54.37 F2000
G1 X54.07 Y54.37 F2000
M5 ; Pen Up
G1 X55.38 Y54.37 F5000
M3 ; Pen Down
G1 X55.38 Y54.37 F2000
G1 X55.38 Y54.41 F2000
M5 ; Pen Up
G1 X55.72 Y54.37 F5000
M3 ; Pen Down
G1 X55.72 Y54.37 F2000
M5 ; Pen Up
G1 X56.15 Y54.37 F5000
M3 ; Pen Down
G1 X56.15 Y54.37 F2000
G1 X56.15 Y54.41 F2000
G1 X56.10 Y54.41 F2000
G1 X56.06 Y54.41 F2000
M5 ; Pen Up
G1 X56.48 Y54.37 F5000
M3 ; Pen Down
G1 X56.48 Y54.37 F2000
G1 X56.48 Y54.41 F2000
M5 ; Pen Up
G1 X57.84 Y54.37 F5000
M3 ; Pen Down
G1 X57.84 Y54.37 F2000
M5 ; Pen Up
G1 X58.47 Y54.37 F5000
M3 ; Pen Down
G1 X58.47 Y54.37 F2000
G1 X58.52 Y54.37 F2000
G1 X58.47 Y54.41 F2000
G1 X58.43 Y54.41 F2000
G1 X58.39 Y54.41 F2000
G1 X58.39 Y54.45 F2000
G1 X58.43 Y54.45 F2000
G1 X58.43 Y54.49 F2000
G1 X58.43 Y54.54 F2000
G1 X58.47 Y54.54 F2000
G1 X58.52 Y54.54 F2000
G1 X58.52 Y54.49 F2000
G1 X58.56 Y54.49 F2000
G1 X58.56 Y54.54 F2000
G1 X58.56 Y54.58 F2000
G1 X58.60 Y54.62 F2000
G1 X58.60 Y54.66 F2000
G1 X58.64 Y54.66 F2000
G1 X58.64 Y54.62 F2000
G1 X58.69 Y54.62 F2000
G1 X58.73 Y54.62 F2000
G1 X58.73 Y54.58 F2000
G1 X58.69 Y54.66 F2000
G1 X58.69 Y54.71 F2000
G1 X58.64 Y54.71 F2000
G1 X58.64 Y54.75 F2000
G1 X58.60 Y54.75 F2000
G1 X58.56 Y54.75 F2000
G1 X58.56 Y54.79 F2000
G1 X58.52 Y54.79 F2000
G1 X58.47 Y54.79 F2000
G1 X58.47 Y54.83 F2000
G1 X58.52 Y54.83 F2000
G1 X58.56 Y54.83 F2000
G1 X58.60 Y54.83 F2000
G1 X58.64 Y54.83 F2000
G1 X58.69 Y54.83 F2000
G1 X58.73 Y54.83 F2000
G1 X58.73 Y54.79 F2000
G1 X58.73 Y54.75 F2000
G1 X58.69 Y54.75 F2000
G1 X58.69 Y54.79 F2000
G1 X58.64 Y54.79 F2000
M5 ; Pen Up
G1 X58.69 Y54.37 F5000
M3 ; Pen Down
G1 X58.69 Y54.37 F2000
G1 X58.73 Y54.37 F2000
G1 X58.73 Y54.41 F2000
G1 X58.77 Y54.41 F2000
G1 X58.77 Y54.45 F2000
G1 X58.73 Y54.45 F2000
G1 X58.69 Y54.45 F2000
G1 X58.69 Y54.41 F2000
G1 X58.64 Y54.45 F2000
M5 ; Pen Up
G1 X59.79 Y54.37 F5000
M3 ; Pen Down
G1 X59.79 Y54.37 F2000
M5 ; Pen Up
G1 X60.13 Y54.37 F5000
M3 ; Pen Down
G1 X60.13 Y54.37 F2000
G1 X60.13 Y54.41 F2000
G1 X60.13 Y54.45 F2000
G1 X60.13 Y54.49 F2000
G1 X60.08 Y54.49 F2000
G1 X60.04 Y54.49 F2000
G1 X60.04 Y54.54 F2000
M5 ; Pen Up
G1 X60.93 Y54.37 F5000
M3 ; Pen Down
G1 X60.93 Y54.37 F2000
G1 X60.97 Y54.37 F2000
M5 ; Pen Up
G1 X61.14 Y54.37 F5000
M3 ; Pen Down
G1 X61.14 Y54.37 F2000
G1 X61.14 Y54.41 F2000
G1 X61.10 Y54.41 F2000
G1 X61.06 Y54.41 F2000
G1 X61.06 Y54.45 F2000
G1 X61.10 Y54.45 F2000
G1 X61.14 Y54.45 F2000
G1 X61.14 Y54.49 F2000
G1 X61.14 Y54.54 F2000
G1 X61.10 Y54.54 F2000
G1 X61.10 Y54.58 F2000
G1 X61.14 Y54.58 F2000
G1 X61.14 Y54.62 F2000
G1 X61.10 Y54.62 F2000
G1 X61.06 Y54.62 F2000
G1 X61.06 Y54.66 F2000
G1 X61.10 Y54.66 F2000
G1 X61.06 Y54.71 F2000
G1 X61.01 Y54.71 F2000
G1 X61.01 Y54.75 F2000
G1 X61.01 Y54.79 F2000
G1 X61.01 Y54.83 F2000
G1 X61.01 Y54.87 F2000
G1 X61.01 Y54.92 F2000
G1 X61.01 Y54.96 F2000
G1 X60.97 Y54.96 F2000
G1 X60.97 Y55.00 F2000
G1 X60.93 Y55.00 F2000
G1 X60.89 Y55.00 F2000
G1 X60.89 Y54.96 F2000
G1 X60.93 Y54.96 F2000
G1 X60.93 Y54.92 F2000
G1 X60.93 Y54.87 F2000
G1 X60.89 Y54.87 F2000
G1 X60.89 Y54.83 F2000
G1 X60.84 Y54.83 F2000
G1 X60.84 Y54.87 F2000
G1 X60.84 Y54.92 F2000
G1 X60.89 Y54.92 F2000
G1 X60.84 Y54.96 F2000
G1 X60.84 Y55.00 F2000
G1 X60.80 Y55.00 F2000
G1 X60.80 Y54.96 F2000
G1 X60.80 Y54.92 F2000
G1 X60.76 Y54.92 F2000
G1 X60.72 Y54.92 F2000
G1 X60.68 Y54.92 F2000
G1 X60.63 Y54.92 F2000
G1 X60.59 Y54.92 F2000
G1 X60.55 Y54.92 F2000
G1 X60.51 Y54.92 F2000
G1 X60.46 Y54.92 F2000
G1 X60.42 Y54.92 F2000
G1 X60.38 Y54.92 F2000
G1 X60.38 Y54.96 F2000
G1 X60.42 Y54.96 F2000
G1 X60.42 Y55.00 F2000
G1 X60.38 Y55.00 F2000
G1 X60.38 Y55.04 F2000
G1 X60.34 Y55.04 F2000
G1 X60.34 Y55.00 F2000
G1 X60.34 Y54.96 F2000
G1 X60.34 Y54.92 F2000
G1 X60.34 Y54.87 F2000
G1 X60.34 Y54.83 F2000
G1 X60.34 Y54.79 F2000
G1 X60.34 Y54.75 F2000
G1 X60.38 Y54.75 F2000
G1 X60.38 Y54.71 F2000
G1 X60.34 Y54.71 F2000
G1 X60.34 Y54.66 F2000
G1 X60.38 Y54.66 F2000
G1 X60.42 Y54.66 F2000
G1 X60.46 Y54.66 F2000
G1 X60.46 Y54.62 F2000
G1 X60.42 Y54.62 F2000
G1 X60.38 Y54.62 F2000
G1 X60.34 Y54.62 F2000
G1 X60.34 Y54.58 F2000
M5 ; Pen Up
G1 X62.75 Y54.37 F5000
M3 ; Pen Down
G1 X62.75 Y54.37 F2000
G1 X62.75 Y54.41 F2000
G1 X62.75 Y54.45 F2000
G1 X62.71 Y54.45 F2000
G1 X62.71 Y54.54 F2000
G1 X62.75 Y54.54 F2000
G1 X62.79 Y54.54 F2000
G1 X62.84 Y54.54 F2000
G1 X62.84 Y54.58 F2000
G1 X62.84 Y54.62 F2000
G1 X62.88 Y54.62 F2000
M5 ; Pen Up
G1 X52.33 Y54.41 F5000
M3 ; Pen Down
G1 X52.33 Y54.41 F2000
G1 X52.33 Y54.45 F2000
G1 X52.38 Y54.45 F2000
G1 X52.42 Y54.45 F2000
M5 ; Pen Up
G1 X53.14 Y54.41 F5000
M3 ; Pen Down
G1 X53.14 Y54.41 F2000
G1 X53.14 Y54.45 F2000
G1 X53.14 Y54.49 F2000
G1 X53.18 Y54.49 F2000
G1 X53.14 Y54.54 F2000
G1 X53.10 Y54.58 F2000
G1 X53.14 Y54.62 F2000
G1 X53.18 Y54.62 F2000
G1 X53.18 Y54.66 F2000
G1 X53.14 Y54.66 F2000
G1 X53.14 Y54.71 F2000
G1 X53.18 Y54.71 F2000
G1 X53.18 Y54.75 F2000
G1 X53.18 Y54.87 F2000
G1 X53.14 Y54.87 F2000
G1 X53.14 Y54.92 F2000
G1 X53.14 Y54.96 F2000
G1 X53.18 Y55.00 F2000
G1 X53.22 Y55.00 F2000
G1 X53.22 Y54.96 F2000
G1 X53.22 Y54.92 F2000
G1 X53.35 Y54.92 F2000
G1 X53.39 Y54.92 F2000
G1 X53.39 Y54.87 F2000
G1 X53.44 Y54.92 F2000
G1 X53.44 Y54.96 F2000
G1 X53.44 Y55.04 F2000
G1 X53.44 Y55.09 F2000
G1 X53.39 Y55.04 F2000
G1 X53.35 Y55.00 F2000
G1 X53.35 Y54.96 F2000
M5 ; Pen Up
G1 X53.52 Y54.41 F5000
M3 ; Pen Down
G1 X53.52 Y54.41 F2000
M5 ; Pen Up
G1 X53.60 Y54.41 F5000
M3 ; Pen Down
G1 X53.60 Y54.41 F2000
G1 X53.65 Y54.41 F2000
G1 X53.69 Y54.41 F2000
G1 X53.69 Y54.45 F2000
G1 X53.65 Y54.45 F2000
G1 X53.65 Y54.49 F2000
G1 X53.65 Y54.58 F2000
M5 ; Pen Up
G1 X53.90 Y54.41 F5000
M3 ; Pen Down
G1 X53.90 Y54.41 F2000
M5 ; Pen Up
G1 X54.28 Y54.41 F5000
M3 ; Pen Down
G1 X54.28 Y54.41 F2000
G1 X54.28 Y54.45 F2000
G1 X54.24 Y54.45 F2000
G1 X54.28 Y54.49 F2000
G1 X54.32 Y54.49 F2000
G1 X54.32 Y54.54 F2000
G1 X54.28 Y54.54 F2000
G1 X54.28 Y54.58 F2000
G1 X54.28 Y54.62 F2000
G1 X54.24 Y54.62 F2000
G1 X54.20 Y54.62 F2000
G1 X54.20 Y54.66 F2000
G1 X54.20 Y54.71 F2000
G1 X54.20 Y54.75 F2000
G1 X54.20 Y54.79 F2000
G1 X54.24 Y54.79 F2000
G1 X54.28 Y54.79 F2000
G1 X54.28 Y54.75 F2000
G1 X54.32 Y54.75 F2000
G1 X54.37 Y54.75 F2000
G1 X54.37 Y54.71 F2000
G1 X54.37 Y54.66 F2000
G1 X54.41 Y54.66 F2000
G1 X54.41 Y54.62 F2000
G1 X54.45 Y54.62 F2000
G1 X54.45 Y54.66 F2000
G1 X54.49 Y54.66 F2000
G1 X54.54 Y54.66 F2000
G1 X54.58 Y54.66 F2000
G1 X54.58 Y54.71 F2000
G1 X54.62 Y54.71 F2000
G1 X54.62 Y54.75 F2000
G1 X54.58 Y54.75 F2000
G1 X54.58 Y54.79 F2000
G1 X54.62 Y54.79 F2000
G1 X54.62 Y54.83 F2000
G1 X54.58 Y54.83 F2000
G1 X54.58 Y54.87 F2000
G1 X54.62 Y54.87 F2000
G1 X54.62 Y54.92 F2000
G1 X54.58 Y54.92 F2000
G1 X54.58 Y54.96 F2000
G1 X54.62 Y54.96 F2000
G1 X54.62 Y55.00 F2000
G1 X54.62 Y55.04 F2000
G1 X54.58 Y55.04 F2000
G1 X54.58 Y55.00 F2000
G1 X54.54 Y55.00 F2000
G1 X54.49 Y55.00 F2000
G1 X54.49 Y54.96 F2000
G1 X54.54 Y54.96 F2000
G1 X54.54 Y54.92 F2000
G1 X54.49 Y54.92 F2000
G1 X54.49 Y54.87 F2000
G1 X54.54 Y54.87 F2000
G1 X54.54 Y54.83 F2000
G1 X54.54 Y54.79 F2000
G1 X54.49 Y54.79 F2000
G1 X54.49 Y54.83 F2000
G1 X54.45 Y54.83 F2000
G1 X54.41 Y54.83 F2000
G1 X54.41 Y54.79 F2000
G1 X54.41 Y54.75 F2000
G1 X54.41 Y54.71 F2000
G1 X54.45 Y54.71 F2000
G1 X54.49 Y54.71 F2000
G1 X54.49 Y54.75 F2000
G1 X54.54 Y54.75 F2000
G1 X54.54 Y54.71 F2000
M5 ; Pen Up
G1 X54.37 Y54.41 F5000
M3 ; Pen Down
G1 X54.37 Y54.41 F2000
M5 ; Pen Up
G1 X54.92 Y54.41 F5000
M3 ; Pen Down
G1 X54.92 Y54.41 F2000
M5 ; Pen Up
G1 X56.70 Y54.41 F5000
M3 ; Pen Down
G1 X56.70 Y54.41 F2000
G1 X56.70 Y54.45 F2000
G1 X56.65 Y54.45 F2000
G1 X56.65 Y54.49 F2000
G1 X56.65 Y54.54 F2000
G1 X56.65 Y54.58 F2000
G1 X56.70 Y54.58 F2000
G1 X56.70 Y54.62 F2000
G1 X56.74 Y54.62 F2000
G1 X56.74 Y54.66 F2000
G1 X56.78 Y54.66 F2000
G1 X56.82 Y54.66 F2000
G1 X56.82 Y54.71 F2000
G1 X56.86 Y54.71 F2000
G1 X56.86 Y54.75 F2000
G1 X56.86 Y54.79 F2000
G1 X56.91 Y54.79 F2000
G1 X56.91 Y54.75 F2000
G1 X56.95 Y54.79 F2000
G1 X56.95 Y54.83 F2000
G1 X56.95 Y54.87 F2000
G1 X56.99 Y54.87 F2000
G1 X56.99 Y54.92 F2000
G1 X57.03 Y54.92 F2000
G1 X57.08 Y54.92 F2000
G1 X57.08 Y54.87 F2000
G1 X57.08 Y54.83 F2000
G1 X57.03 Y54.83 F2000
G1 X57.03 Y54.87 F2000
G1 X56.99 Y54.83 F2000
M5 ; Pen Up
G1 X56.99 Y54.41 F5000
M3 ; Pen Down
G1 X56.99 Y54.41 F2000
G1 X57.03 Y54.41 F2000
G1 X57.08 Y54.45 F2000
G1 X57.12 Y54.45 F2000
G1 X57.16 Y54.45 F2000
G1 X57.12 Y54.49 F2000
G1 X57.12 Y54.54 F2000
G1 X57.12 Y54.58 F2000
G1 X57.12 Y54.62 F2000
G1 X57.12 Y54.66 F2000
G1 X57.16 Y54.66 F2000
G1 X57.16 Y54.62 F2000
G1 X57.20 Y54.62 F2000
G1 X57.20 Y54.66 F2000
G1 X57.20 Y54.71 F2000
G1 X57.25 Y54.71 F2000
G1 X57.29 Y54.71 F2000
G1 X57.33 Y54.71 F2000
G1 X57.33 Y54.66 F2000
G1 X57.29 Y54.66 F2000
G1 X57.33 Y54.62 F2000
G1 X57.33 Y54.58 F2000
M5 ; Pen Up
G1 X57.25 Y54.41 F5000
M3 ; Pen Down
G1 X57.25 Y54.41 F2000
G1 X57.29 Y54.41 F2000
G1 X57.29 Y54.45 F2000
M5 ; Pen Up
G1 X57.58 Y54.41 F5000
M3 ; Pen Down
G1 X57.58 Y54.41 F2000
G1 X57.58 Y54.45 F2000
G1 X57.58 Y54.49 F2000
G1 X57.63 Y54.49 F2000
G1 X57.63 Y54.54 F2000
M5 ; Pen Up
G1 X57.92 Y54.41 F5000
M3 ; Pen Down
G1 X57.92 Y54.41 F2000
G1 X57.97 Y54.41 F2000
G1 X57.97 Y54.45 F2000
G1 X57.92 Y54.45 F2000
G1 X57.92 Y54.49 F2000
G1 X57.92 Y54.54 F2000
G1 X57.92 Y54.58 F2000
G1 X57.92 Y54.62 F2000
G1 X57.92 Y54.66 F2000
G1 X57.97 Y54.66 F2000
G1 X58.01 Y54.66 F2000
G1 X58.01 Y54.71 F2000
G1 X58.05 Y54.71 F2000
G1 X58.05 Y54.66 F2000
G1 X58.05 Y54.62 F2000
G1 X58.01 Y54.62 F2000
G1 X57.97 Y54.62 F2000
G1 X57.97 Y54.58 F2000
G1 X57.97 Y54.54 F2000
G1 X58.01 Y54.54 F2000
G1 X58.01 Y54.58 F2000
G1 X58.05 Y54.58 F2000
G1 X58.05 Y54.54 F2000
G1 X58.09 Y54.54 F2000
M5 ; Pen Up
G1 X59.19 Y54.41 F5000
M3 ; Pen Down
G1 X59.19 Y54.41 F2000
G1 X59.24 Y54.45 F2000
G1 X59.28 Y54.45 F2000
G1 X59.32 Y54.45 F2000
G1 X59.36 Y54.45 F2000
G1 X59.41 Y54.45 F2000
G1 X59.41 Y54.49 F2000
G1 X59.41 Y54.54 F2000
G1 X59.41 Y54.58 F2000
G1 X59.45 Y54.58 F2000
G1 X59.45 Y54.54 F2000
G1 X59.45 Y54.49 F2000
M5 ; Pen Up
G1 X59.87 Y54.41 F5000
M3 ; Pen Down
G1 X59.87 Y54.41 F2000
M5 ; Pen Up
G1 X61.86 Y54.41 F5000
M3 ; Pen Down
G1 X61.86 Y54.41 F2000
G1 X61.90 Y54.41 F2000
G1 X61.90 Y54.45 F2000
G1 X61.95 Y54.41 F2000
G1 X61.99 Y54.41 F2000
G1 X61.99 Y54.45 F2000
M5 ; Pen Up
G1 X62.58 Y54.41 F5000
M3 ; Pen Down
G1 X62.58 Y54.41 F2000
G1 X62.62 Y54.41 F2000
M5 ; Pen Up
G1 X62.79 Y54.41 F5000
M3 ; Pen Down
G1 X62.79 Y54.41 F2000
G1 X62.84 Y54.41 F2000
G1 X62.84 Y54.45 F2000
G1 X62.84 Y54.49 F2000
M5 ; Pen Up
G1 X52.80 Y54.45 F5000
M3 ; Pen Down
G1 X52.80 Y54.45 F2000
M5 ; Pen Up
G1 X53.44 Y54.45 F5000
M3 ; Pen Down
G1 X53.44 Y54.45 F2000
M5 ; Pen Up
G1 X56.95 Y54.45 F5000
M3 ; Pen Down
G1 X56.95 Y54.45 F2000
G1 X56.91 Y54.49 F2000
G1 X56.91 Y54.54 F2000
G1 X56.86 Y54.54 F2000
G1 X56.86 Y54.58 F2000
G1 X56.86 Y54.62 F2000
G1 X56.82 Y54.62 F2000
G1 X56.78 Y54.71 F2000
G1 X56.78 Y54.75 F2000
G1 X56.78 Y54.79 F2000
G1 X56.74 Y54.79 F2000
G1 X56.74 Y54.83 F2000
G1 X56.70 Y54.83 F2000
G1 X56.70 Y54.87 F2000
G1 X56.74 Y54.87 F2000
G1 X56.70 Y54.92 F2000
G1 X56.65 Y54.92 F2000
G1 X56.65 Y54.87 F2000
G1 X56.61 Y54.87 F2000
G1 X56.57 Y54.87 F2000
G1 X56.57 Y54.83 F2000
G1 X56.57 Y54.79 F2000
G1 X56.57 Y54.75 F2000
G1 X56.57 Y54.71 F2000
G1 X56.61 Y54.71 F2000
G1 X56.61 Y54.66 F2000
G1 X56.61 Y54.62 F2000
G1 X56.65 Y54.62 F2000
G1 X56.61 Y54.58 F2000
M5 ; Pen Up
G1 X58.47 Y54.45 F5000
M3 ; Pen Down
G1 X58.47 Y54.45 F2000
G1 X58.47 Y54.49 F2000
M5 ; Pen Up
G1 X61.69 Y54.45 F5000
M3 ; Pen Down
G1 X61.69 Y54.45 F2000
G1 X61.65 Y54.49 F2000
G1 X61.65 Y54.54 F2000
M5 ; Pen Up
G1 X53.99 Y54.49 F5000
M3 ; Pen Down
G1 X53.99 Y54.49 F2000
G1 X53.99 Y54.54 F2000
G1 X53.99 Y54.58 F2000
G1 X54.03 Y54.54 F2000
M5 ; Pen Up
G1 X54.79 Y54.49 F5000
M3 ; Pen Down
G1 X54.79 Y54.49 F2000
G1 X54.79 Y54.54 F2000
M5 ; Pen Up
G1 X56.44 Y54.49 F5000
M3 ; Pen Down
G1 X56.44 Y54.49 F2000
M5 ; Pen Up
G1 X59.07 Y54.49 F5000
M3 ; Pen Down
G1 X59.07 Y54.49 F2000
G1 X59.11 Y54.49 F2000
G1 X59.11 Y54.54 F2000
G1 X59.11 Y54.58 F2000
M5 ; Pen Up
G1 X59.24 Y54.49 F5000
M3 ; Pen Down
G1 X59.24 Y54.49 F2000
G1 X59.24 Y54.54 F2000
G1 X59.24 Y54.62 F2000
G1 X59.24 Y54.66 F2000
G1 X59.24 Y54.71 F2000
G1 X59.24 Y54.75 F2000
G1 X59.24 Y54.79 F2000
G1 X59.24 Y54.83 F2000
G1 X59.19 Y54.83 F2000
G1 X59.19 Y54.87 F2000
G1 X59.24 Y54.87 F2000
G1 X59.28 Y54.87 F2000
G1 X59.28 Y54.92 F2000
G1 X59.32 Y54.92 F2000
G1 X59.32 Y54.96 F2000
G1 X59.36 Y54.96 F2000
G1 X59.28 Y54.96 F2000
G1 X59.24 Y54.96 F2000
G1 X59.24 Y54.92 F2000
G1 X59.19 Y54.92 F2000
G1 X59.15 Y54.92 F2000
G1 X59.15 Y54.87 F2000
G1 X59.11 Y54.87 F2000
G1 X59.11 Y54.83 F2000
G1 X59.15 Y54.83 F2000
G1 X59.11 Y54.79 F2000
G1 X59.07 Y54.79 F2000
G1 X59.07 Y54.83 F2000
G1 X59.02 Y54.83 F2000
G1 X59.02 Y54.79 F2000
G1 X59.02 Y54.75 F2000
G1 X58.98 Y54.75 F2000
G1 X58.98 Y54.79 F2000
G1 X58.98 Y54.83 F2000
G1 X58.94 Y54.83 F2000
G1 X58.94 Y54.79 F2000
G1 X58.90 Y54.79 F2000
G1 X58.90 Y54.75 F2000
G1 X58.94 Y54.75 F2000
G1 X58.90 Y54.71 F2000
M5 ; Pen Up
G1 X61.18 Y54.49 F5000
M3 ; Pen Down
G1 X61.18 Y54.49 F2000
G1 X61.18 Y54.54 F2000
G1 X61.23 Y54.54 F2000
G1 X61.23 Y54.49 F2000
G1 X61.27 Y54.49 F2000
M5 ; Pen Up
G1 X62.24 Y54.49 F5000
M3 ; Pen Down
G1 X62.24 Y54.49 F2000
G1 X62.24 Y54.54 F2000
G1 X62.28 Y54.54 F2000
G1 X62.28 Y54.58 F2000
G1 X62.33 Y54.58 F2000
G1 X62.33 Y54.54 F2000
G1 X62.37 Y54.54 F2000
G1 X62.41 Y54.54 F2000
G1 X62.45 Y54.54 F2000
G1 X62.50 Y54.54 F2000
G1 X62.54 Y54.54 F2000
G1 X62.58 Y54.54 F2000
G1 X62.62 Y54.54 F2000
G1 X62.67 Y54.54 F2000
M5 ; Pen Up
G1 X63.00 Y54.49 F5000
M3 ; Pen Down
G1 X63.00 Y54.49 F2000
G1 X63.00 Y54.54 F2000
G1 X63.00 Y54.58 F2000
G1 X63.00 Y54.62 F2000
G1 X62.96 Y54.62 F2000
G1 X62.96 Y54.66 F2000
G1 X63.00 Y54.66 F2000
G1 X63.00 Y54.71 F2000
G1 X62.96 Y54.71 F2000
G1 X62.96 Y54.75 F2000
G1 X62.96 Y54.79 F2000
G1 X62.96 Y54.83 F2000
G1 X62.92 Y54.83 F2000
G1 X62.88 Y54.83 F2000
G1 X62.88 Y54.87 F2000
G1 X62.88 Y54.92 F2000
G1 X62.92 Y54.92 F2000
G1 X62.96 Y54.92 F2000
G1 X63.00 Y54.92 F2000
G1 X63.00 Y54.96 F2000
G1 X63.00 Y55.00 F2000
G1 X62.96 Y55.00 F2000
G1 X62.96 Y55.04 F2000
G1 X62.92 Y55.04 F2000
G1 X62.92 Y55.09 F2000
G1 X62.88 Y55.09 F2000
G1 X62.88 Y55.13 F2000
G1 X62.84 Y55.13 F2000
G1 X62.84 Y55.09 F2000
G1 X62.84 Y55.04 F2000
G1 X62.79 Y55.04 F2000
G1 X62.75 Y55.04 F2000
G1 X62.71 Y55.04 F2000
G1 X62.67 Y55.04 F2000
G1 X62.67 Y55.00 F2000
G1 X62.62 Y55.04 F2000
G1 X62.62 Y55.09 F2000
G1 X62.67 Y55.09 F2000
G1 X62.71 Y55.09 F2000
G1 X62.71 Y55.13 F2000
G1 X62.75 Y55.13 F2000
G1 X62.75 Y55.17 F2000
G1 X62.75 Y55.21 F2000
G1 X62.79 Y55.21 F2000
G1 X62.79 Y55.26 F2000
G1 X62.75 Y55.26 F2000
G1 X62.71 Y55.21 F2000
G1 X62.71 Y55.17 F2000
G1 X62.67 Y55.13 F2000
M5 ; Pen Up
G1 X51.95 Y54.54 F5000
M3 ; Pen Down
G1 X51.95 Y54.54 F2000
G1 X51.95 Y54.58 F2000
G1 X51.95 Y54.62 F2000
G1 X51.95 Y54.66 F2000
G1 X52.00 Y54.66 F2000
G1 X52.00 Y54.62 F2000
G1 X52.04 Y54.62 F2000
G1 X52.04 Y54.66 F2000
M5 ; Pen Up
G1 X52.00 Y54.54 F5000
M3 ; Pen Down
G1 X52.00 Y54.54 F2000
G1 X52.00 Y54.58 F2000
G1 X52.04 Y54.58 F2000
M5 ; Pen Up
G1 X52.42 Y54.54 F5000
M3 ; Pen Down
G1 X52.42 Y54.54 F2000
G1 X52.42 Y54.58 F2000
G1 X52.46 Y54.58 F2000
G1 X52.46 Y54.54 F2000
G1 X52.50 Y54.54 F2000
G1 X52.55 Y54.58 F2000
G1 X52.59 Y54.66 F2000
G1 X52.59 Y54.71 F2000
G1 X52.59 Y54.75 F2000
G1 X52.55 Y54.75 F2000
G1 X52.55 Y54.79 F2000
G1 X52.50 Y54.79 F2000
G1 X52.50 Y54.83 F2000
G1 X52.46 Y54.83 F2000
G1 X52.50 Y54.75 F2000
G1 X52.50 Y54.71 F2000
G1 X52.55 Y54.71 F2000
G1 X52.46 Y54.62 F2000
M5 ; Pen Up
G1 X53.82 Y54.54 F5000
M3 ; Pen Down
G1 X53.82 Y54.54 F2000
G1 X53.86 Y54.58 F2000
M5 ; Pen Up
G1 X54.37 Y54.54 F5000
M3 ; Pen Down
G1 X54.37 Y54.54 F2000
G1 X54.41 Y54.54 F2000
G1 X54.41 Y54.58 F2000
G1 X54.45 Y54.58 F2000
G1 X54.45 Y54.54 F2000
G1 X54.49 Y54.54 F2000
G1 X54.49 Y54.58 F2000
G1 X54.49 Y54.62 F2000
G1 X54.54 Y54.62 F2000
G1 X54.58 Y54.62 F2000
G1 X54.58 Y54.58 F2000
G1 X54.62 Y54.58 F2000
G1 X54.62 Y54.54 F2000
G1 X54.62 Y54.62 F2000
G1 X54.62 Y54.66 F2000
M5 ; Pen Up
G1 X55.34 Y54.54 F5000
M3 ; Pen Down
G1 X55.34 Y54.54 F2000
G1 X55.34 Y54.58 F2000
M5 ; Pen Up
G1 X57.16 Y54.54 F5000
M3 ; Pen Down
G1 X57.16 Y54.54 F2000
G1 X57.16 Y54.58 F2000
M5 ; Pen Up
G1 X59.79 Y54.54 F5000
M3 ; Pen Down
G1 X59.79 Y54.54 F2000
G1 X59.83 Y54.54 F2000
G1 X59.87 Y54.54 F2000
G1 X59.91 Y54.54 F2000
G1 X59.87 Y54.58 F2000
G1 X59.87 Y54.62 F2000
G1 X59.87 Y54.66 F2000
G1 X59.87 Y54.71 F2000
G1 X59.91 Y54.71 F2000
G1 X59.91 Y54.75 F2000
G1 X59.96 Y54.75 F2000
G1 X59.96 Y54.79 F2000
G1 X59.91 Y54.79 F2000
G1 X59.91 Y54.83 F2000
G1 X59.96 Y54.83 F2000
G1 X60.00 Y54.83 F2000
G1 X60.00 Y54.79 F2000
G1 X60.00 Y54.75 F2000
M5 ; Pen Up
G1 X60.97 Y54.54 F5000
M3 ; Pen Down
G1 X60.97 Y54.54 F2000
G1 X60.97 Y54.58 F2000
G1 X61.01 Y54.58 F2000
G1 X61.06 Y54.58 F2000
G1 X61.01 Y54.62 F2000
G1 X61.01 Y54.66 F2000
G1 X60.97 Y54.66 F2000
G1 X60.97 Y54.71 F2000
G1 X60.97 Y54.75 F2000
G1 X60.93 Y54.75 F2000
G1 X60.93 Y54.79 F2000
G1 X60.93 Y54.83 F2000
G1 X60.97 Y54.83 F2000
G1 X60.97 Y54.79 F2000
M5 ; Pen Up
G1 X62.16 Y54.54 F5000
M3 ; Pen Down
G1 X62.16 Y54.54 F2000
G1 X62.20 Y54.54 F2000
G1 X62.20 Y54.58 F2000
G1 X62.16 Y54.58 F2000
G1 X62.12 Y54.58 F2000
G1 X62.12 Y54.62 F2000
G1 X62.16 Y54.62 F2000
G1 X62.16 Y54.66 F2000
G1 X62.12 Y54.66 F2000
G1 X62.12 Y54.71 F2000
G1 X62.12 Y54.75 F2000
G1 X62.07 Y54.75 F2000
G1 X62.07 Y54.71 F2000
G1 X62.07 Y54.66 F2000
G1 X62.03 Y54.75 F2000
G1 X62.03 Y54.79 F2000
G1 X62.07 Y54.79 F2000
G1 X62.07 Y54.83 F2000
G1 X62.03 Y54.83 F2000
G1 X61.99 Y54.83 F2000
G1 X61.99 Y54.87 F2000
G1 X61.95 Y54.87 F2000
G1 X61.90 Y54.87 F2000
G1 X61.86 Y54.87 F2000
G1 X61.86 Y54.92 F2000
G1 X61.82 Y54.92 F2000
G1 X61.82 Y54.87 F2000
G1 X61.82 Y54.83 F2000
G1 X61.86 Y54.83 F2000
G1 X61.78 Y54.83 F2000
G1 X61.73 Y54.83 F2000
G1 X61.73 Y54.79 F2000
G1 X61.78 Y54.79 F2000
G1 X61.73 Y54.75 F2000
G1 X61.69 Y54.75 F2000
G1 X61.65 Y54.75 F2000
G1 X61.65 Y54.79 F2000
G1 X61.69 Y54.79 F2000
G1 X61.61 Y54.79 F2000
G1 X61.56 Y54.79 F2000
G1 X61.56 Y54.83 F2000
G1 X61.52 Y54.83 F2000
G1 X61.52 Y54.87 F2000
G1 X61.56 Y54.87 F2000
G1 X61.56 Y54.92 F2000
G1 X61.56 Y54.96 F2000
G1 X61.56 Y55.00 F2000
G1 X61.52 Y55.00 F2000
G1 X61.48 Y55.00 F2000
G1 X61.48 Y55.04 F2000
G1 X61.48 Y55.09 F2000
G1 X61.52 Y55.09 F2000
G1 X61.52 Y55.13 F2000
G1 X61.52 Y55.17 F2000
G1 X61.56 Y55.17 F2000
G1 X61.56 Y55.21 F2000
G1 X61.56 Y55.26 F2000
G1 X61.56 Y55.30 F2000
G1 X61.61 Y55.30 F2000
G1 X61.61 Y55.26 F2000
G1 X61.61 Y55.34 F2000
G1 X61.61 Y55.38 F2000
G1 X61.61 Y55.43 F2000
G1 X61.61 Y55.47 F2000
G1 X61.65 Y55.47 F2000
G1 X61.65 Y55.43 F2000
G1 X61.56 Y55.43 F2000
G1 X61.56 Y55.38 F2000
G1 X61.56 Y55.34 F2000
M5 ; Pen Up
G1 X53.22 Y54.58 F5000
M3 ; Pen Down
G1 X53.22 Y54.58 F2000
G1 X53.22 Y54.62 F2000
M5 ; Pen Up
G1 X54.11 Y54.58 F5000
M3 ; Pen Down
G1 X54.11 Y54.58 F2000
G1 X54.16 Y54.58 F2000
G1 X54.11 Y54.62 F2000
G1 X54.07 Y54.66 F2000
G1 X54.07 Y54.71 F2000
G1 X54.07 Y54.75 F2000
G1 X54.03 Y54.75 F2000
G1 X53.99 Y54.75 F2000
G1 X53.99 Y54.71 F2000
G1 X54.03 Y54.71 F2000
G1 X54.03 Y54.79 F2000
G1 X54.07 Y54.79 F2000
G1 X54.07 Y54.83 F2000
M5 ; Pen Up
G1 X54.32 Y54.58 F5000
M3 ; Pen Down
G1 X54.32 Y54.58 F2000
G1 X54.37 Y54.58 F2000
G1 X54.37 Y54.62 F2000
G1 X54.32 Y54.62 F2000
G1 X54.32 Y54.66 F2000
M5 ; Pen Up
G1 X54.54 Y54.58 F5000
M3 ; Pen Down
G1 X54.54 Y54.58 F2000
M5 ; Pen Up
G1 X54.87 Y54.58 F5000
M3 ; Pen Down
G1 X54.87 Y54.58 F2000
M5 ; Pen Up
G1 X55.89 Y54.58 F5000
M3 ; Pen Down
G1 X55.89 Y54.58 F2000
G1 X55.93 Y54.58 F2000
G1 X55.98 Y54.58 F2000
G1 X55.98 Y54.62 F2000
G1 X55.98 Y54.66 F2000
G1 X55.98 Y54.71 F2000
G1 X55.98 Y54.75 F2000
G1 X56.02 Y54.75 F2000
G1 X56.02 Y54.71 F2000
G1 X56.06 Y54.71 F2000
G1 X56.06 Y54.75 F2000
G1 X56.10 Y54.75 F2000
G1 X56.15 Y54.75 F2000
G1 X56.15 Y54.79 F2000
G1 X56.19 Y54.79 F2000
G1 X56.19 Y54.83 F2000
G1 X56.15 Y54.83 F2000
G1 X56.19 Y54.87 F2000
M5 ; Pen Up
G1 X58.30 Y54.58 F5000
M3 ; Pen Down
G1 X58.30 Y54.58 F2000
G1 X58.30 Y54.66 F2000
G1 X58.35 Y54.66 F2000
G1 X58.35 Y54.71 F2000
G1 X58.30 Y54.71 F2000
G1 X58.26 Y54.71 F2000
G1 X58.26 Y54.66 F2000
G1 X58.22 Y54.71 F2000
G1 X58.22 Y54.75 F2000
G1 X58.18 Y54.75 F2000
G1 X58.14 Y54.75 F2000
G1 X58.09 Y54.75 F2000
G1 X58.09 Y54.79 F2000
G1 X58.14 Y54.79 F2000
G1 X58.14 Y54.83 F2000
G1 X58.14 Y54.87 F2000
G1 X58.09 Y54.87 F2000
G1 X58.09 Y54.83 F2000
G1 X58.05 Y54.87 F2000
G1 X58.05 Y54.92 F2000
G1 X58.01 Y54.92 F2000
G1 X57.97 Y54.92 F2000
G1 X57.92 Y54.92 F2000
G1 X57.92 Y54.96 F2000
G1 X57.97 Y54.96 F2000
G1 X57.97 Y55.00 F2000
G1 X57.97 Y55.04 F2000
G1 X58.01 Y55.04 F2000
G1 X58.01 Y55.09 F2000
G1 X58.05 Y55.09 F2000
G1 X58.05 Y55.13 F2000
G1 X58.05 Y55.17 F2000
G1 X58.05 Y55.21 F2000
G1 X58.05 Y55.26 F2000
G1 X58.09 Y55.26 F2000
G1 X58.14 Y55.26 F2000
G1 X58.14 Y55.30 F2000
G1 X58.09 Y55.30 F2000
G1 X58.09 Y55.34 F2000
G1 X58.09 Y55.38 F2000
G1 X58.09 Y55.43 F2000
G1 X58.14 Y55.43 F2000
G1 X58.14 Y55.38 F2000
G1 X58.14 Y55.34 F2000
G1 X58.18 Y55.30 F2000
G1 X58.22 Y55.30 F2000
G1 X58.26 Y55.30 F2000
G1 X58.26 Y55.26 F2000
G1 X58.22 Y55.26 F2000
G1 X58.18 Y55.26 F2000
G1 X58.14 Y55.21 F2000
G1 X58.14 Y55.17 F2000
G1 X58.14 Y55.13 F2000
G1 X58.09 Y55.13 F2000
G1 X58.09 Y55.17 F2000
G1 X58.09 Y55.21 F2000
M5 ; Pen Up
G1 X60.55 Y54.58 F5000
M3 ; Pen Down
G1 X60.55 Y54.58 F2000
G1 X60.59 Y54.58 F2000
G1 X60.59 Y54.66 F2000
G1 X60.63 Y54.66 F2000
G1 X60.68 Y54.66 F2000
G1 X60.72 Y54.66 F2000
G1 X60.76 Y54.66 F2000
G1 X60.80 Y54.66 F2000
G1 X60.84 Y54.66 F2000
G1 X60.89 Y54.66 F2000
G1 X60.93 Y54.66 F2000
M5 ; Pen Up
G1 X60.80 Y54.58 F5000
M3 ; Pen Down
G1 X60.80 Y54.58 F2000
G1 X60.84 Y54.58 F2000
M5 ; Pen Up
G1 X61.18 Y54.58 F5000
M3 ; Pen Down
G1 X61.18 Y54.58 F2000
M5 ; Pen Up
G1 X61.56 Y54.58 F5000
M3 ; Pen Down
G1 X61.56 Y54.58 F2000
G1 X61.56 Y54.62 F2000
G1 X61.56 Y54.66 F2000
G1 X61.61 Y54.66 F2000
G1 X61.61 Y54.71 F2000
G1 X61.65 Y54.71 F2000
G1 X61.65 Y54.66 F2000
G1 X61.69 Y54.62 F2000
M5 ; Pen Up
G1 X62.96 Y54.58 F5000
M3 ; Pen Down
G1 X62.96 Y54.58 F2000
M5 ; Pen Up
G1 X55.85 Y54.62 F5000
M3 ; Pen Down
G1 X55.85 Y54.62 F2000
G1 X55.85 Y54.66 F2000
G1 X55.81 Y54.66 F2000
G1 X55.81 Y54.71 F2000
G1 X55.81 Y54.75 F2000
G1 X55.76 Y54.75 F2000
G1 X55.76 Y54.79 F2000
G1 X55.72 Y54.79 F2000
G1 X55.72 Y54.75 F2000
G1 X55.76 Y54.71 F2000
M5 ; Pen Up
G1 X55.89 Y54.62 F5000
M3 ; Pen Down
G1 X55.89 Y54.62 F2000
G1 X55.93 Y54.62 F2000
M5 ; Pen Up
G1 X57.71 Y54.62 F5000
M3 ; Pen Down
G1 X57.71 Y54.62 F2000
M5 ; Pen Up
G1 X59.19 Y54.62 F5000
M3 ; Pen Down
G1 X59.19 Y54.62 F2000
M5 ; Pen Up
G1 X59.41 Y54.62 F5000
M3 ; Pen Down
G1 X59.41 Y54.62 F2000
M5 ; Pen Up
G1 X61.44 Y54.62 F5000
M3 ; Pen Down
G1 X61.44 Y54.62 F2000
G1 X61.48 Y54.62 F2000
G1 X61.52 Y54.62 F2000
G1 X61.52 Y54.66 F2000
G1 X61.52 Y54.71 F2000
G1 X61.52 Y54.75 F2000
G1 X61.52 Y54.79 F2000
G1 X61.48 Y54.79 F2000
G1 X61.48 Y54.83 F2000
G1 X61.48 Y54.87 F2000
G1 X61.48 Y54.92 F2000
G1 X61.52 Y54.92 F2000
G1 X61.52 Y54.96 F2000
G1 X61.48 Y54.96 F2000
G1 X61.44 Y54.96 F2000
G1 X61.44 Y55.00 F2000
G1 X61.44 Y55.04 F2000
G1 X61.44 Y55.09 F2000
G1 X61.40 Y55.09 F2000
G1 X61.40 Y55.04 F2000
G1 X61.40 Y55.13 F2000
G1 X61.40 Y55.17 F2000
G1 X61.40 Y55.21 F2000
G1 X61.44 Y55.21 F2000
G1 X61.44 Y55.17 F2000
G1 X61.44 Y55.13 F2000
G1 X61.48 Y55.13 F2000
G1 X61.48 Y55.17 F2000
G1 X61.52 Y55.21 F2000
G1 X61.44 Y55.26 F2000
G1 X61.44 Y55.30 F2000
G1 X61.40 Y55.30 F2000
G1 X61.40 Y55.34 F2000
G1 X61.35 Y55.34 F2000
G1 X61.35 Y55.38 F2000
G1 X61.40 Y55.38 F2000
G1 X61.40 Y55.43 F2000
G1 X61.35 Y55.43 F2000
G1 X61.31 Y55.43 F2000
G1 X61.31 Y55.38 F2000
G1 X61.31 Y55.34 F2000
G1 X61.27 Y55.34 F2000
G1 X61.27 Y55.38 F2000
G1 X61.23 Y55.38 F2000
G1 X61.23 Y55.43 F2000
G1 X61.18 Y55.43 F2000
G1 X61.18 Y55.38 F2000
G1 X61.14 Y55.38 F2000
G1 X61.14 Y55.43 F2000
G1 X61.10 Y55.43 F2000
G1 X61.10 Y55.47 F2000
G1 X61.14 Y55.47 F2000
G1 X61.06 Y55.47 F2000
G1 X61.06 Y55.51 F2000
G1 X61.01 Y55.51 F2000
G1 X60.97 Y55.51 F2000
G1 X60.97 Y55.55 F2000
G1 X60.93 Y55.55 F2000
G1 X60.93 Y55.51 F2000
G1 X60.93 Y55.47 F2000
G1 X60.97 Y55.47 F2000
G1 X61.01 Y55.47 F2000
G1 X61.01 Y55.43 F2000
G1 X61.06 Y55.43 F2000
G1 X61.10 Y55.38 F2000
G1 X61.18 Y55.34 F2000
G1 X61.23 Y55.34 F2000
G1 X61.31 Y55.30 F2000
G1 X61.35 Y55.30 F2000
G1 X61.35 Y55.26 F2000
G1 X61.40 Y55.26 F2000
G1 X61.35 Y55.21 F2000
G1 X61.35 Y55.17 F2000
G1 X61.31 Y55.26 F2000
M5 ; Pen Up
G1 X62.33 Y54.62 F5000
M3 ; Pen Down
G1 X62.33 Y54.62 F2000
G1 X62.33 Y54.66 F2000
G1 X62.37 Y54.66 F2000
G1 X62.37 Y54.62 F2000
G1 X62.37 Y54.71 F2000
G1 X62.41 Y54.79 F2000
G1 X62.45 Y54.83 F2000
M5 ; Pen Up
G1 X53.94 Y54.66 F5000
M3 ; Pen Down
G1 X53.94 Y54.66 F2000
M5 ; Pen Up
G1 X54.75 Y54.66 F5000
M3 ; Pen Down
G1 X54.75 Y54.66 F2000
G1 X54.79 Y54.66 F2000
G1 X54.79 Y54.71 F2000
G1 X54.75 Y54.71 F2000
G1 X54.75 Y54.75 F2000
G1 X54.79 Y54.75 F2000
G1 X54.79 Y54.79 F2000
G1 X54.79 Y54.83 F2000
G1 X54.79 Y54.87 F2000
G1 X54.79 Y54.92 F2000
G1 X54.83 Y54.92 F2000
G1 X54.83 Y54.87 F2000
G1 X54.83 Y54.83 F2000
G1 X54.75 Y54.83 F2000
G1 X54.75 Y54.79 F2000
G1 X54.75 Y54.87 F2000
G1 X54.75 Y54.92 F2000
G1 X54.75 Y54.96 F2000
G1 X54.75 Y55.00 F2000
G1 X54.75 Y55.04 F2000
G1 X54.75 Y55.09 F2000
G1 X54.79 Y55.09 F2000
G1 X54.79 Y55.13 F2000
G1 X54.75 Y55.13 F2000
G1 X54.75 Y55.17 F2000
G1 X54.75 Y55.21 F2000
G1 X54.79 Y55.21 F2000
G1 X54.83 Y55.21 F2000
G1 X54.83 Y55.17 F2000
G1 X54.79 Y55.17 F2000
G1 X54.83 Y55.13 F2000
G1 X54.83 Y55.09 F2000
G1 X54.83 Y55.04 F2000
G1 X54.83 Y55.00 F2000
G1 X54.87 Y55.00 F2000
G1 X54.87 Y54.96 F2000
G1 X54.83 Y54.96 F2000
G1 X54.79 Y54.96 F2000
G1 X54.79 Y55.00 F2000
G1 X54.79 Y55.04 F2000
M5 ; Pen Up
G1 X56.02 Y54.66 F5000
M3 ; Pen Down
G1 X56.02 Y54.66 F2000
M5 ; Pen Up
G1 X60.51 Y54.66 F5000
M3 ; Pen Down
G1 X60.51 Y54.66 F2000
G1 X60.55 Y54.66 F2000
G1 X60.46 Y54.71 F2000
G1 X60.46 Y54.75 F2000
G1 X60.42 Y54.75 F2000
G1 X60.42 Y54.79 F2000
G1 X60.38 Y54.79 F2000
G1 X60.38 Y54.83 F2000
G1 X60.38 Y54.87 F2000
G1 X60.42 Y54.87 F2000
G1 X60.42 Y54.83 F2000
G1 X60.46 Y54.83 F2000
G1 X60.46 Y54.79 F2000
G1 X60.51 Y54.79 F2000
G1 X60.55 Y54.79 F2000
G1 X60.59 Y54.79 F2000
G1 X60.63 Y54.79 F2000
G1 X60.68 Y54.79 F2000
G1 X60.72 Y54.79 F2000
G1 X60.76 Y54.79 F2000
G1 X60.80 Y54.79 F2000
G1 X60.84 Y54.79 F2000
G1 X60.89 Y54.79 F2000
M5 ; Pen Up
G1 X61.35 Y54.66 F5000
M3 ; Pen Down
G1 X61.35 Y54.66 F2000
G1 X61.40 Y54.66 F2000
G1 X61.40 Y54.71 F2000
G1 X61.44 Y54.71 F2000
G1 X61.44 Y54.66 F2000
G1 X61.48 Y54.66 F2000
G1 X61.48 Y54.71 F2000
G1 X61.48 Y54.75 F2000
G1 X61.40 Y54.75 F2000
G1 X61.35 Y54.75 F2000
G1 X61.35 Y54.71 F2000
G1 X61.31 Y54.71 F2000
G1 X61.31 Y54.75 F2000
G1 X61.27 Y54.75 F2000
G1 X61.23 Y54.75 F2000
G1 X61.18 Y54.75 F2000
G1 X61.18 Y54.79 F2000
G1 X61.14 Y54.79 F2000
G1 X61.14 Y54.83 F2000
G1 X61.10 Y54.83 F2000
G1 X61.10 Y54.87 F2000
G1 X61.06 Y54.87 F2000
G1 X61.06 Y54.83 F2000
G1 X61.06 Y54.79 F2000
G1 X61.10 Y54.79 F2000
M5 ; Pen Up
G1 X51.95 Y54.71 F5000
M3 ; Pen Down
G1 X51.95 Y54.71 F2000
G1 X51.95 Y54.75 F2000
G1 X51.95 Y54.79 F2000
G1 X52.00 Y54.79 F2000
M5 ; Pen Up
G1 X53.39 Y54.71 F5000
M3 ; Pen Down
G1 X53.39 Y54.71 F2000
G1 X53.39 Y54.75 F2000
G1 X53.44 Y54.71 F2000
M5 ; Pen Up
G1 X54.16 Y54.71 F5000
M3 ; Pen Down
G1 X54.16 Y54.71 F2000
M5 ; Pen Up
G1 X55.34 Y54.71 F5000
M3 ; Pen Down
G1 X55.34 Y54.71 F2000
G1 X55.34 Y54.75 F2000
G1 X55.30 Y54.75 F2000
G1 X55.26 Y54.75 F2000
G1 X55.21 Y54.75 F2000
G1 X55.30 Y54.79 F2000
G1 X55.34 Y54.79 F2000
G1 X55.34 Y54.83 F2000
G1 X55.38 Y54.83 F2000
G1 X55.38 Y54.87 F2000
G1 X55.38 Y54.92 F2000
G1 X55.38 Y54.96 F2000
G1 X55.38 Y55.00 F2000
G1 X55.43 Y55.00 F2000
G1 X55.43 Y55.04 F2000
G1 X55.38 Y55.04 F2000
G1 X55.38 Y55.09 F2000
G1 X55.43 Y55.09 F2000
G1 X55.43 Y55.13 F2000
G1 X55.47 Y55.13 F2000
G1 X55.47 Y55.17 F2000
G1 X55.51 Y55.17 F2000
G1 X55.55 Y55.17 F2000
G1 X55.59 Y55.17 F2000
G1 X55.59 Y55.21 F2000
G1 X55.55 Y55.21 F2000
G1 X55.51 Y55.21 F2000
G1 X55.47 Y55.21 F2000
G1 X55.47 Y55.26 F2000
G1 X55.47 Y55.30 F2000
G1 X55.43 Y55.30 F2000
G1 X55.38 Y55.30 F2000
G1 X55.38 Y55.34 F2000
G1 X55.34 Y55.34 F2000
G1 X55.34 Y55.30 F2000
G1 X55.34 Y55.26 F2000
G1 X55.38 Y55.26 F2000
G1 X55.43 Y55.26 F2000
G1 X55.43 Y55.21 F2000
G1 X55.43 Y55.17 F2000
G1 X55.38 Y55.17 F2000
G1 X55.38 Y55.13 F2000
G1 X55.34 Y55.13 F2000
G1 X55.34 Y55.17 F2000
G1 X55.30 Y55.17 F2000
G1 X55.26 Y55.17 F2000
G1 X55.26 Y55.13 F2000
G1 X55.26 Y55.09 F2000
G1 X55.21 Y55.09 F2000
G1 X55.17 Y55.09 F2000
G1 X55.17 Y55.04 F2000
G1 X55.21 Y55.04 F2000
G1 X55.21 Y55.00 F2000
G1 X55.17 Y55.00 F2000
G1 X55.13 Y55.00 F2000
G1 X55.13 Y54.96 F2000
G1 X55.09 Y54.96 F2000
G1 X55.13 Y54.92 F2000
G1 X55.17 Y54.96 F2000
M5 ; Pen Up
G1 X57.12 Y54.71 F5000
M3 ; Pen Down
G1 X57.12 Y54.71 F2000
G1 X57.12 Y54.75 F2000
G1 X57.12 Y54.79 F2000
G1 X57.12 Y54.83 F2000
G1 X57.12 Y54.87 F2000
G1 X57.12 Y54.92 F2000
G1 X57.12 Y54.96 F2000
G1 X57.16 Y54.96 F2000
G1 X57.16 Y55.00 F2000
G1 X57.20 Y55.00 F2000
G1 X57.25 Y55.00 F2000
G1 X57.25 Y55.04 F2000
G1 X57.29 Y55.04 F2000
G1 X57.29 Y55.09 F2000
G1 X57.33 Y55.09 F2000
G1 X57.33 Y55.04 F2000
G1 X57.37 Y55.04 F2000
G1 X57.42 Y55.04 F2000
G1 X57.42 Y55.00 F2000
G1 X57.37 Y55.00 F2000
G1 X57.37 Y54.96 F2000
G1 X57.37 Y54.92 F2000
G1 X57.37 Y54.87 F2000
G1 X57.33 Y54.87 F2000
G1 X57.33 Y54.92 F2000
G1 X57.33 Y54.96 F2000
G1 X57.29 Y54.96 F2000
G1 X57.29 Y55.00 F2000
G1 X57.33 Y55.00 F2000
M5 ; Pen Up
G1 X57.16 Y54.71 F5000
M3 ; Pen Down
G1 X57.16 Y54.71 F2000
G1 X57.25 Y54.75 F2000
G1 X57.29 Y54.75 F2000
G1 X57.29 Y54.79 F2000
G1 X57.33 Y54.79 F2000
G1 X57.33 Y54.83 F2000
G1 X57.37 Y54.83 F2000
G1 X57.42 Y54.83 F2000
G1 X57.42 Y54.87 F2000
G1 X57.42 Y54.92 F2000
G1 X57.42 Y54.96 F2000
M5 ; Pen Up
G1 X57.84 Y54.71 F5000
M3 ; Pen Down
G1 X57.84 Y54.71 F2000
G1 X57.88 Y54.71 F2000
G1 X57.88 Y54.75 F2000
G1 X57.88 Y54.79 F2000
G1 X57.88 Y54.83 F2000
G1 X57.88 Y54.87 F2000
G1 X57.88 Y54.92 F2000
G1 X57.92 Y55.00 F2000
G1 X57.92 Y55.04 F2000
G1 X57.88 Y55.04 F2000
G1 X57.88 Y55.09 F2000
G1 X57.84 Y55.09 F2000
G1 X57.80 Y55.09 F2000
G1 X57.80 Y55.13 F2000
G1 X57.80 Y55.17 F2000
G1 X57.80 Y55.21 F2000
G1 X57.75 Y55.21 F2000
G1 X57.71 Y55.21 F2000
G1 X57.67 Y55.21 F2000
G1 X57.67 Y55.26 F2000
G1 X57.67 Y55.30 F2000
G1 X57.67 Y55.34 F2000
G1 X57.67 Y55.38 F2000
G1 X57.67 Y55.43 F2000
G1 X57.71 Y55.43 F2000
G1 X57.71 Y55.47 F2000
G1 X57.67 Y55.47 F2000
G1 X57.63 Y55.47 F2000
G1 X57.58 Y55.47 F2000
G1 X57.54 Y55.47 F2000
G1 X57.54 Y55.43 F2000
G1 X57.58 Y55.43 F2000
G1 X57.58 Y55.38 F2000
G1 X57.54 Y55.38 F2000
G1 X57.54 Y55.34 F2000
G1 X57.54 Y55.30 F2000
G1 X57.58 Y55.30 F2000
G1 X57.63 Y55.30 F2000
G1 X57.63 Y55.26 F2000
G1 X57.58 Y55.26 F2000
G1 X57.54 Y55.26 F2000
G1 X57.54 Y55.21 F2000
G1 X57.54 Y55.17 F2000
G1 X57.54 Y55.13 F2000
G1 X57.54 Y55.09 F2000
G1 X57.54 Y55.04 F2000
G1 X57.58 Y55.04 F2000
G1 X57.63 Y55.04 F2000
G1 X57.67 Y55.04 F2000
G1 X57.71 Y55.04 F2000
G1 X57.71 Y55.09 F2000
G1 X57.75 Y55.09 F2000
G1 X57.75 Y55.13 F2000
G1 X57.71 Y55.13 F2000
G1 X57.71 Y55.17 F2000
G1 X57.75 Y55.17 F2000
M5 ; Pen Up
G1 X57.92 Y54.71 F5000
M3 ; Pen Down
G1 X57.92 Y54.71 F2000
M5 ; Pen Up
G1 X58.60 Y54.71 F5000
M3 ; Pen Down
G1 X58.60 Y54.71 F2000
M5 ; Pen Up
G1 X60.42 Y54.71 F5000
M3 ; Pen Down
G1 X60.42 Y54.71 F2000
M5 ; Pen Up
G1 X61.27 Y54.71 F5000
M3 ; Pen Down
G1 X61.27 Y54.71 F2000
G1 X61.23 Y54.79 F2000
M5 ; Pen Up
G1 X61.56 Y54.71 F5000
M3 ; Pen Down
G1 X61.56 Y54.71 F2000
G1 X61.56 Y54.75 F2000
G1 X61.61 Y54.75 F2000
M5 ; Pen Up
G1 X52.76 Y54.75 F5000
M3 ; Pen Down
G1 X52.76 Y54.75 F2000
G1 X52.72 Y54.79 F2000
G1 X52.72 Y54.83 F2000
G1 X52.72 Y54.87 F2000
G1 X52.67 Y54.87 F2000
G1 X52.67 Y54.83 F2000
G1 X52.67 Y54.79 F2000
G1 X52.76 Y54.83 F2000
G1 X52.76 Y54.87 F2000
G1 X52.80 Y54.87 F2000
G1 X52.80 Y54.96 F2000
G1 X52.80 Y55.00 F2000
G1 X52.80 Y55.04 F2000
G1 X52.80 Y55.09 F2000
G1 X52.76 Y55.09 F2000
G1 X52.72 Y55.09 F2000
G1 X52.72 Y55.04 F2000
G1 X52.72 Y55.00 F2000
G1 X52.76 Y55.00 F2000
G1 X52.76 Y55.04 F2000
G1 X52.67 Y55.04 F2000
G1 X52.63 Y55.04 F2000
G1 X52.63 Y55.00 F2000
G1 X52.67 Y55.00 F2000
G1 X52.67 Y54.96 F2000
G1 X52.72 Y54.96 F2000
G1 X52.76 Y54.96 F2000
G1 X52.84 Y54.96 F2000
G1 X52.84 Y55.00 F2000
G1 X52.88 Y55.00 F2000
G1 X52.88 Y55.04 F2000
G1 X52.88 Y55.09 F2000
G1 X52.88 Y55.13 F2000
G1 X52.93 Y55.13 F2000
G1 X52.97 Y55.13 F2000
G1 X52.97 Y55.09 F2000
G1 X53.01 Y55.09 F2000
G1 X53.01 Y55.04 F2000
G1 X52.97 Y55.04 F2000
G1 X52.93 Y55.04 F2000
G1 X52.93 Y55.09 F2000
G1 X52.93 Y55.00 F2000
G1 X53.01 Y54.96 F2000
G1 X53.01 Y54.92 F2000
G1 X52.97 Y54.92 F2000
G1 X52.97 Y54.87 F2000
M5 ; Pen Up
G1 X54.45 Y54.75 F5000
M3 ; Pen Down
G1 X54.45 Y54.75 F2000
G1 X54.45 Y54.79 F2000
G1 X54.37 Y54.79 F2000
G1 X54.32 Y54.79 F2000
G1 X54.32 Y54.83 F2000
G1 X54.32 Y54.87 F2000
G1 X54.37 Y54.87 F2000
G1 X54.41 Y54.87 F2000
G1 X54.41 Y54.92 F2000
G1 X54.45 Y54.92 F2000
G1 X54.45 Y54.96 F2000
G1 X54.41 Y54.96 F2000
G1 X54.37 Y54.96 F2000
G1 X54.37 Y55.00 F2000
G1 X54.41 Y55.00 F2000
G1 X54.45 Y55.00 F2000
G1 X54.45 Y55.04 F2000
G1 X54.41 Y55.04 F2000
G1 X54.37 Y55.04 F2000
G1 X54.32 Y55.04 F2000
G1 X54.32 Y55.09 F2000
G1 X54.37 Y55.09 F2000
G1 X54.41 Y55.09 F2000
G1 X54.45 Y55.09 F2000
G1 X54.45 Y55.13 F2000
G1 X54.45 Y55.17 F2000
G1 X54.41 Y55.17 F2000
G1 X54.41 Y55.13 F2000
G1 X54.37 Y55.13 F2000
G1 X54.32 Y55.13 F2000
G1 X54.32 Y55.17 F2000
G1 X54.28 Y55.17 F2000
G1 X54.24 Y55.17 F2000
G1 X54.20 Y55.17 F2000
G1 X54.20 Y55.13 F2000
G1 X54.24 Y55.13 F2000
G1 X54.28 Y55.13 F2000
G1 X54.28 Y55.09 F2000
G1 X54.32 Y55.00 F2000
G1 X54.32 Y54.96 F2000
G1 X54.32 Y54.92 F2000
G1 X54.37 Y54.92 F2000
G1 X54.28 Y54.92 F2000
G1 X54.28 Y54.87 F2000
G1 X54.28 Y54.83 F2000
G1 X54.24 Y54.83 F2000
G1 X54.24 Y54.87 F2000
M5 ; Pen Up
G1 X55.38 Y54.75 F5000
M3 ; Pen Down
G1 X55.38 Y54.75 F2000
G1 X55.38 Y54.79 F2000
M5 ; Pen Up
G1 X56.48 Y54.75 F5000
M3 ; Pen Down
G1 X56.48 Y54.75 F2000
M5 ; Pen Up
G1 X56.82 Y54.75 F5000
M3 ; Pen Down
G1 X56.82 Y54.75 F2000
M5 ; Pen Up
G1 X57.33 Y54.75 F5000
M3 ; Pen Down
G1 X57.33 Y54.75 F2000
G1 X57.37 Y54.75 F2000
G1 X57.37 Y54.79 F2000
G1 X57.42 Y54.79 F2000
G1 X57.42 Y54.75 F2000
M5 ; Pen Up
G1 X57.63 Y54.75 F5000
M3 ; Pen Down
G1 X57.63 Y54.75 F2000
M5 ; Pen Up
G1 X57.75 Y54.75 F5000
M3 ; Pen Down
G1 X57.75 Y54.75 F2000
M5 ; Pen Up
G1 X59.28 Y54.75 F5000
M3 ; Pen Down
G1 X59.28 Y54.75 F2000
G1 X59.28 Y54.79 F2000
G1 X59.28 Y54.83 F2000
G1 X59.32 Y54.83 F2000
G1 X59.32 Y54.79 F2000
G1 X59.32 Y54.75 F2000
M5 ; Pen Up
G1 X63.00 Y54.75 F5000
M3 ; Pen Down
G1 X63.00 Y54.75 F2000
G1 X63.00 Y54.79 F2000
G1 X63.00 Y54.83 F2000
G1 X63.00 Y54.87 F2000
G1 X62.96 Y54.87 F2000
G1 X62.92 Y54.87 F2000
M5 ; Pen Up
G1 X55.98 Y54.79 F5000
M3 ; Pen Down
G1 X55.98 Y54.79 F2000
G1 X55.98 Y54.83 F2000
G1 X56.02 Y54.83 F2000
G1 X55.98 Y54.87 F2000
G1 X55.98 Y54.92 F2000
G1 X55.98 Y54.96 F2000
G1 X55.93 Y54.96 F2000
G1 X55.93 Y54.92 F2000
G1 X55.89 Y54.96 F2000
G1 X55.89 Y55.00 F2000
G1 X55.85 Y55.00 F2000
G1 X55.85 Y55.04 F2000
G1 X55.85 Y55.09 F2000
G1 X55.81 Y55.09 F2000
G1 X55.81 Y55.13 F2000
G1 X55.81 Y55.17 F2000
G1 X55.81 Y55.21 F2000
G1 X55.76 Y55.21 F2000
G1 X55.76 Y55.26 F2000
G1 X55.72 Y55.26 F2000
G1 X55.72 Y55.30 F2000
G1 X55.68 Y55.30 F2000
G1 X55.68 Y55.34 F2000
G1 X55.68 Y55.38 F2000
G1 X55.64 Y55.38 F2000
G1 X55.59 Y55.38 F2000
G1 X55.59 Y55.43 F2000
G1 X55.64 Y55.43 F2000
G1 X55.64 Y55.47 F2000
G1 X55.59 Y55.47 F2000
G1 X55.59 Y55.51 F2000
G1 X55.55 Y55.51 F2000
G1 X55.51 Y55.51 F2000
G1 X55.51 Y55.55 F2000
G1 X55.55 Y55.55 F2000
G1 X55.55 Y55.59 F2000
G1 X55.55 Y55.64 F2000
G1 X55.55 Y55.68 F2000
G1 X55.55 Y55.72 F2000
G1 X55.55 Y55.76 F2000
G1 X55.55 Y55.81 F2000
G1 X55.51 Y55.81 F2000
G1 X55.51 Y55.76 F2000
G1 X55.51 Y55.72 F2000
G1 X55.51 Y55.68 F2000
G1 X55.51 Y55.64 F2000
G1 X55.47 Y55.64 F2000
G1 X55.43 Y55.64 F2000
G1 X55.43 Y55.68 F2000
G1 X55.38 Y55.68 F2000
G1 X55.38 Y55.72 F2000
G1 X55.43 Y55.72 F2000
G1 X55.43 Y55.76 F2000
G1 X55.38 Y55.76 F2000
G1 X55.34 Y55.76 F2000
G1 X55.34 Y55.81 F2000
G1 X55.34 Y55.85 F2000
G1 X55.30 Y55.85 F2000
G1 X55.30 Y55.89 F2000
G1 X55.30 Y55.93 F2000
G1 X55.26 Y55.93 F2000
G1 X55.26 Y55.89 F2000
G1 X55.26 Y55.85 F2000
G1 X55.26 Y55.81 F2000
G1 X55.21 Y55.81 F2000
G1 X55.21 Y55.76 F2000
G1 X55.26 Y55.76 F2000
G1 X55.26 Y55.72 F2000
G1 X55.21 Y55.72 F2000
G1 X55.21 Y55.68 F2000
G1 X55.17 Y55.68 F2000
G1 X55.13 Y55.68 F2000
G1 X55.13 Y55.64 F2000
G1 X55.17 Y55.64 F2000
G1 X55.21 Y55.64 F2000
G1 X55.17 Y55.59 F2000
G1 X55.17 Y55.55 F2000
G1 X55.13 Y55.55 F2000
G1 X55.13 Y55.51 F2000
G1 X55.17 Y55.51 F2000
G1 X55.13 Y55.47 F2000
G1 X55.09 Y55.47 F2000
G1 X55.09 Y55.43 F2000
G1 X55.09 Y55.38 F2000
G1 X55.09 Y55.34 F2000
G1 X55.04 Y55.34 F2000
G1 X55.04 Y55.38 F2000
G1 X55.00 Y55.38 F2000
G1 X54.96 Y55.38 F2000
G1 X54.96 Y55.43 F2000
G1 X54.92 Y55.43 F2000
G1 X54.92 Y55.38 F2000
G1 X54.87 Y55.38 F2000
G1 X54.87 Y55.43 F2000
G1 X54.83 Y55.43 F2000
G1 X54.83 Y55.47 F2000
G1 X54.79 Y55.47 F2000
G1 X54.79 Y55.43 F2000
G1 X54.79 Y55.38 F2000
G1 X54.75 Y55.38 F2000
G1 X54.75 Y55.34 F2000
G1 X54.75 Y55.30 F2000
G1 X54.79 Y55.30 F2000
G1 X54.79 Y55.26 F2000
G1 X54.83 Y55.26 F2000
G1 X54.83 Y55.30 F2000
G1 X54.83 Y55.34 F2000
G1 X54.83 Y55.38 F2000
G1 X54.79 Y55.34 F2000
M5 ; Pen Up
G1 X57.54 Y54.79 F5000
M3 ; Pen Down
G1 X57.54 Y54.79 F2000
G1 X57.54 Y54.83 F2000
G1 X57.58 Y54.83 F2000
G1 X57.58 Y54.87 F2000
G1 X57.54 Y54.87 F2000
G1 X57.54 Y54.92 F2000
G1 X57.58 Y54.92 F2000
G1 X57.58 Y54.96 F2000
G1 X57.54 Y54.96 F2000
G1 X57.54 Y55.00 F2000
G1 X57.58 Y55.00 F2000
G1 X57.63 Y55.00 F2000
G1 X57.63 Y54.96 F2000
G1 X57.67 Y54.96 F2000
G1 X57.67 Y55.00 F2000
M5 ; Pen Up
G1 X58.18 Y54.79 F5000
M3 ; Pen Down
G1 X58.18 Y54.79 F2000
G1 X58.18 Y54.83 F2000
G1 X58.18 Y54.87 F2000
G1 X58.22 Y54.87 F2000
G1 X58.22 Y54.92 F2000
G1 X58.22 Y54.96 F2000
G1 X58.22 Y55.00 F2000
G1 X58.22 Y55.04 F2000
G1 X58.22 Y55.09 F2000
G1 X58.26 Y55.09 F2000
G1 X58.26 Y55.13 F2000
G1 X58.22 Y55.13 F2000
G1 X58.18 Y55.13 F2000
G1 X58.18 Y55.09 F2000
G1 X58.18 Y55.17 F2000
G1 X58.22 Y55.17 F2000
G1 X58.26 Y55.17 F2000
G1 X58.26 Y55.21 F2000
M5 ; Pen Up
G1 X58.77 Y54.79 F5000
M3 ; Pen Down
G1 X58.77 Y54.79 F2000
G1 X58.81 Y54.79 F2000
G1 X58.81 Y54.83 F2000
G1 X58.81 Y54.87 F2000
G1 X58.77 Y54.87 F2000
G1 X58.73 Y54.87 F2000
G1 X58.73 Y54.92 F2000
G1 X58.73 Y54.96 F2000
G1 X58.73 Y55.00 F2000
G1 X58.69 Y54.92 F2000
G1 X58.77 Y54.92 F2000
G1 X58.77 Y54.83 F2000
M5 ; Pen Up
G1 X58.85 Y54.79 F5000
M3 ; Pen Down
G1 X58.85 Y54.79 F2000
G1 X58.85 Y54.83 F2000
G1 X58.90 Y54.83 F2000
G1 X58.94 Y54.87 F2000
G1 X58.98 Y54.87 F2000
G1 X58.98 Y54.92 F2000
G1 X59.02 Y54.92 F2000
G1 X59.02 Y54.96 F2000
G1 X59.07 Y54.96 F2000
G1 X59.07 Y55.00 F2000
G1 X59.02 Y55.00 F2000
G1 X59.02 Y55.04 F2000
G1 X59.02 Y55.09 F2000
G1 X59.02 Y55.13 F2000
G1 X58.98 Y55.13 F2000
G1 X58.98 Y55.17 F2000
G1 X59.02 Y55.17 F2000
G1 X59.02 Y55.21 F2000
G1 X58.98 Y55.21 F2000
G1 X58.98 Y55.26 F2000
G1 X58.98 Y55.30 F2000
G1 X58.98 Y55.34 F2000
G1 X58.98 Y55.38 F2000
G1 X58.98 Y55.43 F2000
G1 X58.94 Y55.43 F2000
G1 X58.94 Y55.47 F2000
G1 X58.94 Y55.51 F2000
G1 X58.94 Y55.55 F2000
G1 X58.94 Y55.59 F2000
G1 X58.94 Y55.64 F2000
G1 X58.94 Y55.72 F2000
G1 X58.94 Y55.76 F2000
G1 X58.94 Y55.81 F2000
G1 X58.94 Y55.85 F2000
G1 X58.90 Y55.81 F2000
G1 X58.85 Y55.81 F2000
G1 X58.85 Y55.76 F2000
G1 X58.90 Y55.76 F2000
G1 X58.85 Y55.72 F2000
M5 ; Pen Up
G1 X59.57 Y54.79 F5000
M3 ; Pen Down
G1 X59.57 Y54.79 F2000
G1 X59.62 Y54.79 F2000
G1 X59.62 Y54.83 F2000
G1 X59.57 Y54.83 F2000
G1 X59.66 Y54.83 F2000
G1 X59.70 Y54.83 F2000
G1 X59.70 Y54.79 F2000
G1 X59.66 Y54.79 F2000
M5 ; Pen Up
G1 X60.13 Y54.79 F5000
M3 ; Pen Down
G1 X60.13 Y54.79 F2000
G1 X60.17 Y54.83 F2000
G1 X60.17 Y54.87 F2000
M5 ; Pen Up
G1 X53.56 Y54.83 F5000
M3 ; Pen Down
G1 X53.56 Y54.83 F2000
G1 X53.56 Y54.87 F2000
G1 X53.60 Y54.87 F2000
G1 X53.60 Y54.92 F2000
G1 X53.56 Y54.92 F2000
G1 X53.56 Y54.96 F2000
G1 X53.60 Y55.00 F2000
G1 X53.60 Y55.04 F2000
G1 X53.56 Y55.04 F2000
G1 X53.56 Y55.09 F2000
G1 X53.56 Y55.13 F2000
G1 X53.60 Y55.13 F2000
G1 X53.65 Y55.13 F2000
G1 X53.65 Y55.09 F2000
G1 X53.65 Y55.04 F2000
G1 X53.65 Y55.00 F2000
G1 X53.69 Y55.00 F2000
G1 X53.69 Y55.04 F2000
G1 X53.73 Y55.04 F2000
G1 X53.73 Y55.09 F2000
G1 X53.77 Y55.09 F2000
G1 X53.82 Y55.09 F2000
G1 X53.86 Y55.09 F2000
G1 X53.86 Y55.04 F2000
G1 X53.86 Y55.00 F2000
G1 X53.82 Y55.00 F2000
G1 X53.82 Y54.96 F2000
G1 X53.77 Y54.96 F2000
G1 X53.73 Y54.96 F2000
G1 X53.73 Y55.00 F2000
G1 X53.77 Y55.00 F2000
G1 X53.77 Y55.04 F2000
G1 X53.82 Y55.04 F2000
M5 ; Pen Up
G1 X54.37 Y54.83 F5000
M3 ; Pen Down
G1 X54.37 Y54.83 F2000
M5 ; Pen Up
G1 X55.76 Y54.83 F5000
M3 ; Pen Down
G1 X55.76 Y54.83 F2000
M5 ; Pen Up
G1 X56.53 Y54.83 F5000
M3 ; Pen Down
G1 X56.53 Y54.83 F2000
G1 X56.61 Y54.83 F2000
G1 X56.61 Y54.92 F2000
G1 X56.65 Y54.96 F2000
G1 X56.70 Y54.96 F2000
G1 X56.70 Y55.00 F2000
G1 X56.74 Y55.00 F2000
G1 X56.74 Y55.04 F2000
G1 X56.78 Y55.04 F2000
G1 X56.78 Y55.09 F2000
G1 X56.78 Y55.13 F2000
G1 X56.82 Y55.13 F2000
G1 X56.82 Y55.09 F2000
G1 X56.86 Y55.13 F2000
G1 X56.86 Y55.17 F2000
G1 X56.91 Y55.17 F2000
G1 X56.91 Y55.21 F2000
G1 X56.95 Y55.21 F2000
G1 X56.99 Y55.21 F2000
G1 X56.99 Y55.17 F2000
G1 X56.99 Y55.13 F2000
G1 X56.95 Y55.13 F2000
G1 X56.95 Y55.17 F2000
G1 X56.95 Y55.09 F2000
G1 X56.99 Y55.09 F2000
G1 X56.99 Y55.04 F2000
G1 X56.95 Y55.04 F2000
G1 X56.95 Y55.00 F2000
G1 X56.95 Y54.96 F2000
G1 X56.99 Y54.96 F2000
G1 X56.95 Y54.92 F2000
M5 ; Pen Up
G1 X54.45 Y54.87 F5000
M3 ; Pen Down
G1 X54.45 Y54.87 F2000
M5 ; Pen Up
G1 X55.34 Y54.87 F5000
M3 ; Pen Down
G1 X55.34 Y54.87 F2000
G1 X55.43 Y54.96 F2000
M5 ; Pen Up
G1 X55.59 Y54.87 F5000
M3 ; Pen Down
G1 X55.59 Y54.87 F2000
G1 X55.59 Y54.96 F2000
G1 X55.59 Y55.00 F2000
G1 X55.55 Y55.00 F2000
G1 X55.55 Y55.04 F2000
G1 X55.59 Y55.04 F2000
G1 X55.59 Y55.09 F2000
G1 X55.55 Y55.09 F2000
G1 X55.55 Y55.13 F2000
G1 X55.51 Y55.13 F2000
G1 X55.51 Y55.09 F2000
M5 ; Pen Up
G1 X58.43 Y54.87 F5000
M3 ; Pen Down
G1 X58.43 Y54.87 F2000
G1 X58.43 Y54.92 F2000
G1 X58.39 Y54.96 F2000
G1 X58.30 Y54.96 F2000
G1 X58.26 Y54.96 F2000
M5 ; Pen Up
G1 X58.47 Y54.87 F5000
M3 ; Pen Down
G1 X58.47 Y54.87 F2000
M5 ; Pen Up
G1 X58.60 Y54.87 F5000
M3 ; Pen Down
G1 X58.60 Y54.87 F2000
M5 ; Pen Up
G1 X59.70 Y54.87 F5000
M3 ; Pen Down
G1 X59.70 Y54.87 F2000
G1 X59.70 Y54.92 F2000
M5 ; Pen Up
G1 X60.46 Y54.87 F5000
M3 ; Pen Down
G1 X60.46 Y54.87 F2000
G1 X60.46 Y54.96 F2000
G1 X60.46 Y55.00 F2000
G1 X60.46 Y55.04 F2000
G1 X60.42 Y55.04 F2000
G1 X60.42 Y55.09 F2000
G1 X60.46 Y55.09 F2000
G1 X60.46 Y55.13 F2000
G1 X60.42 Y55.13 F2000
G1 X60.42 Y55.17 F2000
G1 X60.46 Y55.17 F2000
G1 X60.46 Y55.21 F2000
G1 X60.46 Y55.26 F2000
G1 X60.42 Y55.26 F2000
G1 X60.42 Y55.30 F2000
G1 X60.42 Y55.34 F2000
G1 X60.42 Y55.38 F2000
G1 X60.38 Y55.38 F2000
G1 X60.34 Y55.38 F2000
G1 X60.34 Y55.43 F2000
G1 X60.34 Y55.47 F2000
G1 X60.38 Y55.47 F2000
G1 X60.38 Y55.51 F2000
G1 X60.42 Y55.51 F2000
G1 X60.46 Y55.51 F2000
G1 X60.46 Y55.47 F2000
G1 X60.46 Y55.43 F2000
G1 X60.46 Y55.38 F2000
G1 X60.46 Y55.34 F2000
G1 X60.46 Y55.30 F2000
G1 X60.51 Y55.30 F2000
G1 X60.55 Y55.30 F2000
G1 X60.59 Y55.30 F2000
G1 X60.59 Y55.34 F2000
G1 X60.55 Y55.34 F2000
G1 X60.51 Y55.34 F2000
M5 ; Pen Up
G1 X60.97 Y54.87 F5000
M3 ; Pen Down
G1 X60.97 Y54.87 F2000
G1 X60.97 Y54.92 F2000
M5 ; Pen Up
G1 X61.78 Y54.87 F5000
M3 ; Pen Down
G1 X61.78 Y54.87 F2000
M5 ; Pen Up
G1 X62.03 Y54.87 F5000
M3 ; Pen Down
G1 X62.03 Y54.87 F2000
G1 X62.03 Y54.92 F2000
G1 X61.99 Y54.92 F2000
G1 X61.95 Y54.92 F2000
G1 X61.90 Y54.92 F2000
G1 X61.90 Y54.96 F2000
G1 X61.90 Y55.00 F2000
G1 X61.86 Y55.00 F2000
G1 X61.86 Y54.96 F2000
G1 X61.95 Y54.96 F2000
G1 X61.99 Y54.96 F2000
G1 X61.99 Y55.00 F2000
G1 X61.99 Y55.04 F2000
G1 X61.95 Y55.04 F2000
G1 X61.95 Y55.00 F2000
G1 X61.90 Y55.04 F2000
G1 X61.95 Y55.09 F2000
G1 X61.99 Y55.09 F2000
G1 X61.99 Y55.13 F2000
G1 X62.03 Y55.13 F2000
G1 X62.07 Y55.13 F2000
G1 X62.07 Y55.17 F2000
G1 X62.03 Y55.17 F2000
G1 X61.99 Y55.17 F2000
G1 X61.95 Y55.13 F2000
M5 ; Pen Up
G1 X51.95 Y54.92 F5000
M3 ; Pen Down
G1 X51.95 Y54.92 F2000
G1 X51.95 Y54.96 F2000
G1 X52.00 Y54.96 F2000
G1 X52.04 Y54.96 F2000
G1 X52.04 Y55.00 F2000
G1 X52.04 Y55.04 F2000
G1 X52.04 Y55.09 F2000
G1 X52.00 Y55.09 F2000
G1 X52.00 Y55.13 F2000
G1 X52.00 Y55.17 F2000
G1 X51.95 Y55.17 F2000
G1 X51.95 Y55.13 F2000
G1 X51.95 Y55.09 F2000
G1 X51.95 Y55.04 F2000
G1 X52.00 Y55.04 F2000
G1 X52.00 Y55.00 F2000
G1 X51.95 Y55.00 F2000
M5 ; Pen Up
G1 X53.65 Y54.92 F5000
M3 ; Pen Down
G1 X53.65 Y54.92 F2000
G1 X53.69 Y54.96 F2000
M5 ; Pen Up
G1 X56.44 Y54.92 F5000
M3 ; Pen Down
G1 X56.44 Y54.92 F2000
G1 X56.48 Y54.92 F2000
M5 ; Pen Up
G1 X57.16 Y54.92 F5000
M3 ; Pen Down
G1 X57.16 Y54.92 F2000
G1 X57.20 Y54.96 F2000
M5 ; Pen Up
G1 X59.07 Y54.92 F5000
M3 ; Pen Down
G1 X59.07 Y54.92 F2000
G1 X59.11 Y54.92 F2000
G1 X59.11 Y54.96 F2000
M5 ; Pen Up
G1 X60.04 Y54.92 F5000
M3 ; Pen Down
G1 X60.04 Y54.92 F2000
G1 X60.08 Y54.92 F2000
G1 X60.08 Y54.96 F2000
G1 X60.13 Y54.96 F2000
G1 X60.13 Y55.00 F2000
G1 X60.17 Y55.00 F2000
G1 X60.17 Y55.04 F2000
G1 X60.17 Y55.09 F2000
G1 X60.13 Y55.09 F2000
G1 X60.13 Y55.04 F2000
G1 X60.08 Y55.04 F2000
G1 X60.08 Y55.00 F2000
G1 X60.04 Y55.00 F2000
G1 X60.04 Y55.04 F2000
G1 X60.04 Y55.09 F2000
G1 X60.00 Y55.09 F2000
G1 X60.00 Y55.13 F2000
G1 X60.00 Y55.17 F2000
G1 X60.00 Y55.21 F2000
G1 X59.96 Y55.21 F2000
G1 X59.96 Y55.26 F2000
G1 X59.91 Y55.26 F2000
G1 X59.91 Y55.21 F2000
G1 X59.91 Y55.17 F2000
G1 X59.96 Y55.17 F2000
G1 X59.96 Y55.13 F2000
G1 X59.91 Y55.13 F2000
G1 X59.87 Y55.13 F2000
G1 X59.87 Y55.17 F2000
G1 X59.87 Y55.21 F2000
G1 X59.87 Y55.26 F2000
G1 X59.83 Y55.26 F2000
G1 X59.83 Y55.30 F2000
G1 X59.83 Y55.34 F2000
G1 X59.79 Y55.34 F2000
G1 X59.79 Y55.30 F2000
G1 X59.79 Y55.26 F2000
G1 X59.74 Y55.30 F2000
G1 X59.70 Y55.30 F2000
G1 X59.70 Y55.34 F2000
G1 X59.70 Y55.38 F2000
G1 X59.74 Y55.38 F2000
G1 X59.74 Y55.43 F2000
G1 X59.70 Y55.43 F2000
G1 X59.66 Y55.43 F2000
G1 X59.66 Y55.47 F2000
G1 X59.66 Y55.51 F2000
G1 X59.70 Y55.51 F2000
G1 X59.70 Y55.47 F2000
G1 X59.74 Y55.47 F2000
G1 X59.79 Y55.47 F2000
G1 X59.83 Y55.47 F2000
G1 X59.83 Y55.43 F2000
G1 X59.79 Y55.43 F2000
G1 X59.79 Y55.38 F2000
M5 ; Pen Up
G1 X61.06 Y54.92 F5000
M3 ; Pen Down
G1 X61.06 Y54.92 F2000
M5 ; Pen Up
G1 X53.86 Y54.96 F5000
M3 ; Pen Down
G1 X53.86 Y54.96 F2000
G1 X53.90 Y55.00 F2000
G1 X53.94 Y55.00 F2000
G1 X53.94 Y55.04 F2000
G1 X53.99 Y55.04 F2000
G1 X53.99 Y55.09 F2000
G1 X54.03 Y55.09 F2000
G1 X54.07 Y55.13 F2000
G1 X54.07 Y55.17 F2000
G1 X54.07 Y55.21 F2000
G1 X54.07 Y55.26 F2000
G1 X54.03 Y55.26 F2000
G1 X54.03 Y55.30 F2000
G1 X54.07 Y55.30 F2000
G1 X54.07 Y55.34 F2000
G1 X54.11 Y55.34 F2000
G1 X54.11 Y55.30 F2000
G1 X54.11 Y55.26 F2000
G1 X54.03 Y55.21 F2000
G1 X54.03 Y55.17 F2000
G1 X53.99 Y55.17 F2000
G1 X53.99 Y55.21 F2000
G1 X53.94 Y55.21 F2000
G1 X53.94 Y55.17 F2000
G1 X53.94 Y55.26 F2000
G1 X53.94 Y55.30 F2000
G1 X53.90 Y55.30 F2000
G1 X53.90 Y55.34 F2000
G1 X53.94 Y55.34 F2000
G1 X53.99 Y55.34 F2000
G1 X54.03 Y55.34 F2000
G1 X54.03 Y55.38 F2000
G1 X54.03 Y55.43 F2000
G1 X53.99 Y55.43 F2000
G1 X53.99 Y55.38 F2000
G1 X53.94 Y55.38 F2000
G1 X53.94 Y55.43 F2000
G1 X53.90 Y55.43 F2000
G1 X53.90 Y55.38 F2000
G1 X53.90 Y55.47 F2000
G1 X53.90 Y55.51 F2000
G1 X53.90 Y55.55 F2000
G1 X53.90 Y55.59 F2000
G1 X53.94 Y55.55 F2000
G1 X53.94 Y55.51 F2000
G1 X53.94 Y55.47 F2000
G1 X53.99 Y55.47 F2000
G1 X54.03 Y55.47 F2000
G1 X54.03 Y55.51 F2000
G1 X53.99 Y55.51 F2000
G1 X53.99 Y55.55 F2000
G1 X54.03 Y55.55 F2000
G1 X54.07 Y55.51 F2000
G1 X54.07 Y55.47 F2000
G1 X54.07 Y55.43 F2000
G1 X54.11 Y55.43 F2000
G1 X54.11 Y55.38 F2000
G1 X54.07 Y55.38 F2000
M5 ; Pen Up
G1 X56.40 Y54.96 F5000
M3 ; Pen Down
G1 X56.40 Y54.96 F2000
G1 X56.40 Y55.04 F2000
G1 X56.36 Y55.04 F2000
G1 X56.36 Y55.09 F2000
G1 X56.31 Y55.09 F2000
G1 X56.31 Y55.13 F2000
G1 X56.27 Y55.13 F2000
G1 X56.27 Y55.17 F2000
G1 X56.23 Y55.17 F2000
G1 X56.23 Y55.13 F2000
G1 X56.19 Y55.17 F2000
G1 X56.15 Y55.17 F2000
G1 X56.15 Y55.21 F2000
G1 X56.19 Y55.21 F2000
G1 X56.23 Y55.21 F2000
G1 X56.27 Y55.21 F2000
G1 X56.27 Y55.26 F2000
G1 X56.23 Y55.26 F2000
G1 X56.23 Y55.30 F2000
G1 X56.19 Y55.30 F2000
G1 X56.19 Y55.34 F2000
G1 X56.19 Y55.38 F2000
G1 X56.19 Y55.43 F2000
G1 X56.19 Y55.47 F2000
G1 X56.15 Y55.47 F2000
G1 X56.15 Y55.51 F2000
G1 X56.19 Y55.51 F2000
G1 X56.19 Y55.55 F2000
G1 X56.15 Y55.55 F2000
G1 X56.15 Y55.59 F2000
G1 X56.10 Y55.59 F2000
G1 X56.10 Y55.64 F2000
G1 X56.06 Y55.64 F2000
G1 X56.02 Y55.64 F2000
G1 X56.02 Y55.68 F2000
G1 X56.02 Y55.72 F2000
G1 X56.06 Y55.72 F2000
G1 X56.06 Y55.68 F2000
G1 X56.10 Y55.68 F2000
G1 X56.06 Y55.59 F2000
G1 X56.10 Y55.55 F2000
G1 X56.10 Y55.51 F2000
G1 X56.10 Y55.47 F2000
G1 X56.15 Y55.43 F2000
G1 X56.15 Y55.38 F2000
G1 X56.23 Y55.34 F2000
M5 ; Pen Up
G1 X58.01 Y54.96 F5000
M3 ; Pen Down
G1 X58.01 Y54.96 F2000
G1 X58.01 Y55.00 F2000
M5 ; Pen Up
G1 X58.52 Y54.96 F5000
M3 ; Pen Down
G1 X58.52 Y54.96 F2000
M5 ; Pen Up
G1 X60.04 Y54.96 F5000
M3 ; Pen Down
G1 X60.04 Y54.96 F2000
M5 ; Pen Up
G1 X60.17 Y54.96 F5000
M3 ; Pen Down
G1 X60.17 Y54.96 F2000
G1 X60.21 Y54.96 F2000
G1 X60.21 Y55.00 F2000
G1 X60.21 Y55.04 F2000
G1 X60.21 Y55.09 F2000
G1 X60.21 Y55.13 F2000
G1 X60.21 Y55.17 F2000
G1 X60.21 Y55.21 F2000
G1 X60.21 Y55.26 F2000
G1 X60.21 Y55.30 F2000
G1 X60.17 Y55.30 F2000
G1 X60.17 Y55.34 F2000
G1 X60.17 Y55.38 F2000
G1 X60.21 Y55.38 F2000
G1 X60.21 Y55.34 F2000
G1 X60.21 Y55.43 F2000
G1 X60.21 Y55.47 F2000
G1 X60.17 Y55.47 F2000
G1 X60.13 Y55.47 F2000
G1 X60.08 Y55.47 F2000
G1 X60.08 Y55.43 F2000
G1 X60.13 Y55.43 F2000
G1 X60.17 Y55.43 F2000
G1 X60.13 Y55.38 F2000
G1 X60.08 Y55.38 F2000
G1 X60.08 Y55.34 F2000
G1 X60.08 Y55.30 F2000
G1 X60.04 Y55.30 F2000
G1 X60.00 Y55.30 F2000
G1 X60.00 Y55.26 F2000
M5 ; Pen Up
G1 X62.45 Y54.96 F5000
M3 ; Pen Down
G1 X62.45 Y54.96 F2000
G1 X62.50 Y54.96 F2000
G1 X62.54 Y54.96 F2000
M5 ; Pen Up
G1 X62.84 Y54.96 F5000
M3 ; Pen Down
G1 X62.84 Y54.96 F2000
G1 X62.84 Y55.00 F2000
G1 X62.88 Y55.00 F2000
G1 X62.92 Y55.00 F2000
G1 X62.92 Y54.96 F2000
G1 X62.88 Y54.96 F2000
G1 X62.88 Y55.04 F2000
M5 ; Pen Up
G1 X62.96 Y54.96 F5000
M3 ; Pen Down
G1 X62.96 Y54.96 F2000
M5 ; Pen Up
G1 X52.46 Y55.00 F5000
M3 ; Pen Down
G1 X52.46 Y55.00 F2000
G1 X52.46 Y55.04 F2000
G1 X52.50 Y55.09 F2000
G1 X52.55 Y55.09 F2000
G1 X52.55 Y55.04 F2000
G1 X52.59 Y55.04 F2000
G1 X52.59 Y55.09 F2000
G1 X52.63 Y55.13 F2000
G1 X52.63 Y55.17 F2000
G1 X52.63 Y55.21 F2000
G1 X52.63 Y55.26 F2000
G1 X52.59 Y55.26 F2000
G1 X52.59 Y55.21 F2000
G1 X52.55 Y55.21 F2000
G1 X52.55 Y55.17 F2000
G1 X52.50 Y55.17 F2000
G1 X52.50 Y55.13 F2000
G1 X52.50 Y55.21 F2000
G1 X52.50 Y55.26 F2000
G1 X52.46 Y55.26 F2000
G1 X52.46 Y55.30 F2000
G1 X52.46 Y55.34 F2000
G1 X52.50 Y55.34 F2000
G1 X52.50 Y55.38 F2000
G1 X52.46 Y55.38 F2000
G1 X52.46 Y55.43 F2000
G1 X52.50 Y55.43 F2000
G1 X52.50 Y55.47 F2000
G1 X52.55 Y55.47 F2000
G1 X52.55 Y55.51 F2000
G1 X52.55 Y55.55 F2000
G1 X52.59 Y55.55 F2000
G1 X52.63 Y55.55 F2000
G1 X52.63 Y55.51 F2000
G1 X52.59 Y55.51 F2000
G1 X52.59 Y55.47 F2000
G1 X52.59 Y55.43 F2000
G1 X52.63 Y55.43 F2000
G1 X52.63 Y55.38 F2000
G1 X52.59 Y55.38 F2000
G1 X52.55 Y55.38 F2000
G1 X52.55 Y55.43 F2000
M5 ; Pen Up
G1 X53.05 Y55.00 F5000
M3 ; Pen Down
G1 X53.05 Y55.00 F2000
G1 X53.10 Y55.04 F2000
G1 X53.14 Y55.04 F2000
G1 X53.18 Y55.04 F2000
G1 X53.14 Y55.09 F2000
G1 X53.22 Y55.13 F2000
G1 X53.22 Y55.17 F2000
G1 X53.18 Y55.17 F2000
G1 X53.10 Y55.21 F2000
G1 X53.05 Y55.21 F2000
G1 X53.01 Y55.21 F2000
G1 X53.01 Y55.26 F2000
G1 X53.01 Y55.30 F2000
G1 X53.05 Y55.30 F2000
G1 X53.10 Y55.30 F2000
G1 X53.10 Y55.34 F2000
G1 X53.10 Y55.38 F2000
G1 X53.10 Y55.43 F2000
G1 X53.10 Y55.47 F2000
G1 X53.14 Y55.47 F2000
G1 X53.14 Y55.51 F2000
G1 X53.10 Y55.51 F2000
G1 X53.10 Y55.55 F2000
G1 X53.10 Y55.59 F2000
G1 X53.10 Y55.64 F2000
G1 X53.05 Y55.64 F2000
G1 X53.05 Y55.68 F2000
G1 X53.10 Y55.68 F2000
G1 X53.10 Y55.72 F2000
G1 X53.05 Y55.76 F2000
G1 X53.01 Y55.76 F2000
G1 X53.01 Y55.72 F2000
G1 X52.97 Y55.72 F2000
G1 X52.97 Y55.76 F2000
G1 X52.93 Y55.76 F2000
G1 X52.93 Y55.72 F2000
G1 X52.93 Y55.68 F2000
G1 X52.88 Y55.68 F2000
G1 X52.84 Y55.68 F2000
G1 X52.80 Y55.68 F2000
G1 X52.80 Y55.72 F2000
G1 X52.80 Y55.76 F2000
G1 X52.84 Y55.76 F2000
G1 X52.84 Y55.72 F2000
G1 X52.88 Y55.72 F2000
G1 X52.88 Y55.76 F2000
M5 ; Pen Up
G1 X53.52 Y55.00 F5000
M3 ; Pen Down
G1 X53.52 Y55.00 F2000
G1 X53.48 Y55.04 F2000
G1 X53.52 Y55.09 F2000
G1 X53.52 Y55.13 F2000
G1 X53.52 Y55.21 F2000
G1 X53.56 Y55.21 F2000
G1 X53.56 Y55.26 F2000
G1 X53.56 Y55.30 F2000
G1 X53.52 Y55.30 F2000
G1 X53.48 Y55.30 F2000
G1 X53.48 Y55.34 F2000
G1 X53.44 Y55.34 F2000
G1 X53.44 Y55.38 F2000
G1 X53.48 Y55.38 F2000
G1 X53.48 Y55.43 F2000
G1 X53.48 Y55.47 F2000
G1 X53.48 Y55.51 F2000
G1 X53.44 Y55.51 F2000
G1 X53.44 Y55.55 F2000
G1 X53.48 Y55.55 F2000
G1 X53.48 Y55.59 F2000
G1 X53.52 Y55.59 F2000
G1 X53.52 Y55.64 F2000
G1 X53.48 Y55.64 F2000
G1 X53.48 Y55.68 F2000
G1 X53.48 Y55.72 F2000
G1 X53.52 Y55.68 F2000
G1 X53.56 Y55.72 F2000
G1 X53.56 Y55.76 F2000
G1 X53.60 Y55.76 F2000
G1 X53.60 Y55.72 F2000
G1 X53.60 Y55.68 F2000
G1 X53.65 Y55.68 F2000
G1 X53.69 Y55.68 F2000
G1 X53.69 Y55.64 F2000
G1 X53.73 Y55.64 F2000
G1 X53.73 Y55.68 F2000
G1 X53.73 Y55.72 F2000
G1 X53.77 Y55.72 F2000
G1 X53.82 Y55.72 F2000
G1 X53.86 Y55.72 F2000
G1 X53.86 Y55.68 F2000
G1 X53.82 Y55.68 F2000
G1 X53.82 Y55.64 F2000
G1 X53.77 Y55.64 F2000
G1 X53.77 Y55.68 F2000
G1 X53.77 Y55.76 F2000
G1 X53.73 Y55.76 F2000
G1 X53.69 Y55.76 F2000
G1 X53.65 Y55.76 F2000
G1 X53.65 Y55.72 F2000
G1 X53.69 Y55.72 F2000
M5 ; Pen Up
G1 X54.11 Y55.00 F5000
M3 ; Pen Down
G1 X54.11 Y55.00 F2000
G1 X54.11 Y55.04 F2000
M5 ; Pen Up
G1 X54.92 Y55.00 F5000
M3 ; Pen Down
G1 X54.92 Y55.00 F2000
G1 X54.96 Y55.00 F2000
G1 X54.96 Y55.04 F2000
G1 X54.92 Y55.04 F2000
G1 X54.92 Y55.09 F2000
G1 X54.87 Y55.09 F2000
G1 X54.87 Y55.04 F2000
M5 ; Pen Up
G1 X55.93 Y55.00 F5000
M3 ; Pen Down
G1 X55.93 Y55.00 F2000
G1 X55.93 Y55.04 F2000
G1 X55.93 Y55.09 F2000
G1 X55.93 Y55.13 F2000
G1 X55.93 Y55.17 F2000
G1 X55.98 Y55.17 F2000
G1 X55.98 Y55.13 F2000
G1 X55.98 Y55.09 F2000
G1 X55.98 Y55.04 F2000
G1 X55.98 Y55.00 F2000
M5 ; Pen Up
G1 X56.65 Y55.00 F5000
M3 ; Pen Down
G1 X56.65 Y55.00 F2000
G1 X56.70 Y55.09 F2000
G1 X56.70 Y55.13 F2000
G1 X56.65 Y55.13 F2000
G1 X56.65 Y55.17 F2000
G1 X56.61 Y55.17 F2000
G1 X56.57 Y55.17 F2000
G1 X56.57 Y55.21 F2000
G1 X56.53 Y55.21 F2000
G1 X56.53 Y55.26 F2000
G1 X56.48 Y55.26 F2000
G1 X56.44 Y55.26 F2000
G1 X56.44 Y55.30 F2000
G1 X56.44 Y55.34 F2000
G1 X56.44 Y55.38 F2000
G1 X56.40 Y55.38 F2000
G1 X56.40 Y55.43 F2000
G1 X56.44 Y55.43 F2000
G1 X56.44 Y55.47 F2000
G1 X56.48 Y55.47 F2000
G1 X56.48 Y55.43 F2000
G1 X56.48 Y55.51 F2000
G1 X56.48 Y55.55 F2000
G1 X56.44 Y55.55 F2000
G1 X56.44 Y55.59 F2000
G1 X56.44 Y55.64 F2000
G1 X56.44 Y55.68 F2000
G1 X56.48 Y55.68 F2000
G1 X56.53 Y55.68 F2000
G1 X56.57 Y55.68 F2000
G1 X56.57 Y55.72 F2000
G1 X56.53 Y55.72 F2000
G1 X56.53 Y55.76 F2000
G1 X56.53 Y55.81 F2000
G1 X56.48 Y55.81 F2000
G1 X56.48 Y55.76 F2000
G1 X56.48 Y55.72 F2000
G1 X56.48 Y55.64 F2000
G1 X56.48 Y55.59 F2000
G1 X56.53 Y55.64 F2000
G1 X56.57 Y55.64 F2000
G1 X56.61 Y55.64 F2000
G1 X56.61 Y55.59 F2000
G1 X56.61 Y55.55 F2000
G1 X56.65 Y55.55 F2000
G1 X56.65 Y55.59 F2000
G1 X56.70 Y55.55 F2000
G1 X56.70 Y55.51 F2000
G1 X56.65 Y55.51 F2000
G1 X56.70 Y55.47 F2000
G1 X56.74 Y55.47 F2000
G1 X56.74 Y55.43 F2000
G1 X56.78 Y55.43 F2000
G1 X56.82 Y55.43 F2000
G1 X56.86 Y55.43 F2000
G1 X56.86 Y55.38 F2000
G1 X56.82 Y55.38 F2000
G1 X56.86 Y55.34 F2000
G1 X56.91 Y55.34 F2000
G1 X56.91 Y55.38 F2000
G1 X56.91 Y55.43 F2000
G1 X56.91 Y55.47 F2000
G1 X56.86 Y55.47 F2000
G1 X56.86 Y55.51 F2000
G1 X56.86 Y55.55 F2000
G1 X56.86 Y55.59 F2000
G1 X56.86 Y55.64 F2000
G1 X56.82 Y55.64 F2000
G1 X56.82 Y55.68 F2000
G1 X56.82 Y55.72 F2000
G1 X56.86 Y55.72 F2000
G1 X56.86 Y55.76 F2000
G1 X56.91 Y55.76 F2000
G1 X56.91 Y55.81 F2000
G1 X56.95 Y55.81 F2000
G1 X56.99 Y55.81 F2000
G1 X57.03 Y55.81 F2000
G1 X57.03 Y55.76 F2000
G1 X57.03 Y55.72 F2000
G1 X57.03 Y55.68 F2000
G1 X57.08 Y55.68 F2000
G1 X57.08 Y55.72 F2000
G1 X57.08 Y55.76 F2000
G1 X57.08 Y55.81 F2000
G1 X57.12 Y55.81 F2000
G1 X57.12 Y55.85 F2000
G1 X57.12 Y55.89 F2000
G1 X57.08 Y55.89 F2000
G1 X57.08 Y55.93 F2000
G1 X57.12 Y55.93 F2000
G1 X57.16 Y55.93 F2000
G1 X57.16 Y55.98 F2000
G1 X57.20 Y55.98 F2000
G1 X57.20 Y56.02 F2000
G1 X57.20 Y56.06 F2000
G1 X57.25 Y56.06 F2000
G1 X57.29 Y56.06 F2000
G1 X57.33 Y56.06 F2000
