; Generated with pen nib size: 0.5mm
M5 ; Pen Up
G1 X0 Y0 F2000
G1 X7.56 Y8.96
M3 ; Pen Down
G1 X46.81 Y8.96
M5 ; Pen Up
G1 X49.38 Y8.96
M3 ; Pen Down
G1 X50.27 Y8.96
M5 ; Pen Up
G1 X50.71 Y8.96
M3 ; Pen Down
G1 X86.18 Y8.96
M5 ; Pen Up
G1 X86.82 Y8.96
M3 ; Pen Down
G1 X88.71 Y8.96
M5 ; Pen Up
G1 X91.11 Y8.96
M3 ; Pen Down
G1 X91.11 Y8.96
M5 ; Pen Up
G1 X91.13 Y8.96
M3 ; Pen Down
G1 X126.89 Y8.96
M5 ; Pen Up
G1 X126.95 Y8.96
M3 ; Pen Down
G1 X126.99 Y8.96
M5 ; Pen Up
G1 X127.13 Y8.96
M3 ; Pen Down
G1 X129.20 Y8.96
M5 ; Pen Up
G1 X129.25 Y8.96
M3 ; Pen Down
G1 X129.25 Y8.96
M5 ; Pen Up
G1 X129.81 Y8.96
M3 ; Pen Down
G1 X130.73 Y8.96
M5 ; Pen Up
G1 X133.14 Y8.96
M3 ; Pen Down
G1 X134.28 Y8.96
M5 ; Pen Up
G1 X134.37 Y8.96
M3 ; Pen Down
G1 X134.38 Y8.96
M5 ; Pen Up
G1 X135.01 Y8.96
M3 ; Pen Down
G1 X135.45 Y8.96
M5 ; Pen Up
G1 X172.91 Y9.46
M3 ; Pen Down
G1 X132.60 Y9.46
M5 ; Pen Up
G1 X131.15 Y9.46
M3 ; Pen Down
G1 X90.68 Y9.46
M5 ; Pen Up
G1 X89.28 Y9.46
M3 ; Pen Down
G1 X48.90 Y9.46
M5 ; Pen Up
G1 X47.35 Y9.46
M3 ; Pen Down
G1 X7.03 Y9.46
M5 ; Pen Up
G1 X6.97 Y9.96
M3 ; Pen Down
G1 X47.44 Y9.96
M5 ; Pen Up
G1 X48.82 Y9.96
M3 ; Pen Down
G1 X89.33 Y9.96
M5 ; Pen Up
G1 X90.65 Y9.96
M3 ; Pen Down
G1 X131.18 Y9.96
M5 ; Pen Up
G1 X132.59 Y9.96
M3 ; Pen Down
G1 X173.08 Y9.96
M5 ; Pen Up
G1 X172.99 Y10.46
M3 ; Pen Down
G1 X132.56 Y10.46
M5 ; Pen Up
G1 X131.16 Y10.46
M3 ; Pen Down
G1 X90.64 Y10.46
M5 ; Pen Up
G1 X89.34 Y10.46
M3 ; Pen Down
G1 X48.85 Y10.46
M5 ; Pen Up
G1 X47.41 Y10.46
M3 ; Pen Down
G1 X6.99 Y10.46
M5 ; Pen Up
G1 X6.99 Y10.96
M3 ; Pen Down
G1 X47.41 Y10.96
M5 ; Pen Up
G1 X48.85 Y10.96
M3 ; Pen Down
G1 X51.55 Y10.96
M5 ; Pen Up
G1 X51.97 Y10.96
M3 ; Pen Down
G1 X55.03 Y10.96
M5 ; Pen Up
G1 X55.09 Y10.96
M3 ; Pen Down
G1 X75.07 Y10.96
M5 ; Pen Up
G1 X75.35 Y10.96
M3 ; Pen Down
G1 X89.34 Y10.96
M5 ; Pen Up
G1 X90.63 Y10.96
M3 ; Pen Down
G1 X131.15 Y10.96
M5 ; Pen Up
G1 X132.60 Y10.96
M3 ; Pen Down
G1 X167.42 Y10.96
M5 ; Pen Up
G1 X167.70 Y10.96
M3 ; Pen Down
G1 X169.38 Y10.96
M5 ; Pen Up
G1 X169.57 Y10.96
M3 ; Pen Down
G1 X172.99 Y10.96
M5 ; Pen Up
G1 X172.99 Y11.46
M3 ; Pen Down
G1 X169.92 Y11.46
M5 ; Pen Up
G1 X161.83 Y11.46
M3 ; Pen Down
G1 X159.63 Y11.46
M5 ; Pen Up
G1 X153.89 Y11.46
M3 ; Pen Down
G1 X151.40 Y11.46
M5 ; Pen Up
G1 X147.11 Y11.46
M3 ; Pen Down
G1 X144.55 Y11.46
M5 ; Pen Up
G1 X135.07 Y11.46
M3 ; Pen Down
G1 X132.61 Y11.46
M5 ; Pen Up
G1 X131.12 Y11.46
M3 ; Pen Down
G1 X125.88 Y11.46
M5 ; Pen Up
G1 X124.34 Y11.46
M3 ; Pen Down
G1 X118.31 Y11.46
M5 ; Pen Up
G1 X116.93 Y11.46
M3 ; Pen Down
G1 X113.59 Y11.46
M5 ; Pen Up
G1 X111.56 Y11.46
M3 ; Pen Down
G1 X108.70 Y11.46
M5 ; Pen Up
G1 X106.68 Y11.46
M3 ; Pen Down
G1 X103.83 Y11.46
M5 ; Pen Up
G1 X101.60 Y11.46
M3 ; Pen Down
G1 X98.66 Y11.46
M5 ; Pen Up
G1 X97.09 Y11.46
M3 ; Pen Down
G1 X90.64 Y11.46
M5 ; Pen Up
G1 X89.33 Y11.46
M3 ; Pen Down
G1 X87.23 Y11.46
M5 ; Pen Up
G1 X85.28 Y11.46
M3 ; Pen Down
G1 X84.18 Y11.46
M5 ; Pen Up
G1 X81.93 Y11.46
M3 ; Pen Down
G1 X80.86 Y11.46
M5 ; Pen Up
G1 X78.07 Y11.46
M3 ; Pen Down
G1 X76.99 Y11.46
M5 ; Pen Up
G1 X74.67 Y11.46
M3 ; Pen Down
G1 X72.36 Y11.46
M5 ; Pen Up
G1 X67.91 Y11.46
M3 ; Pen Down
G1 X66.60 Y11.46
M5 ; Pen Up
G1 X62.32 Y11.46
M3 ; Pen Down
G1 X61.21 Y11.46
M5 ; Pen Up
G1 X57.34 Y11.46
M3 ; Pen Down
G1 X55.85 Y11.46
M5 ; Pen Up
G1 X54.47 Y11.46
M3 ; Pen Down
G1 X53.48 Y11.46
M5 ; Pen Up
G1 X51.06 Y11.46
M3 ; Pen Down
G1 X48.85 Y11.46
M5 ; Pen Up
G1 X47.41 Y11.46
M3 ; Pen Down
G1 X6.99 Y11.46
M5 ; Pen Up
G1 X6.99 Y11.95
M3 ; Pen Down
G1 X20.50 Y11.95
M5 ; Pen Up
G1 X22.55 Y11.95
M3 ; Pen Down
G1 X25.87 Y11.95
M5 ; Pen Up
G1 X26.49 Y11.95
M3 ; Pen Down
G1 X28.01 Y11.95
M5 ; Pen Up
G1 X28.78 Y11.95
M3 ; Pen Down
G1 X31.76 Y11.95
M5 ; Pen Up
G1 X33.89 Y11.95
M3 ; Pen Down
G1 X47.41 Y11.95
M5 ; Pen Up
G1 X48.85 Y11.95
M3 ; Pen Down
G1 X51.36 Y11.95
M5 ; Pen Up
G1 X53.54 Y11.95
M3 ; Pen Down
G1 X54.40 Y11.95
M5 ; Pen Up
G1 X56.26 Y11.95
M3 ; Pen Down
G1 X57.57 Y11.95
M5 ; Pen Up
G1 X61.28 Y11.95
M3 ; Pen Down
G1 X62.24 Y11.95
M5 ; Pen Up
G1 X66.62 Y11.95
M3 ; Pen Down
G1 X67.84 Y11.95
M5 ; Pen Up
G1 X72.27 Y11.95
M3 ; Pen Down
G1 X74.74 Y11.95
M5 ; Pen Up
G1 X77.11 Y11.95
M3 ; Pen Down
G1 X78.03 Y11.95
M5 ; Pen Up
G1 X80.68 Y11.95
M3 ; Pen Down
G1 X81.74 Y11.95
M5 ; Pen Up
G1 X84.24 Y11.95
M3 ; Pen Down
G1 X85.20 Y11.95
M5 ; Pen Up
G1 X87.30 Y11.95
M3 ; Pen Down
G1 X89.32 Y11.95
M5 ; Pen Up
G1 X90.66 Y11.95
M3 ; Pen Down
G1 X94.43 Y11.95
M5 ; Pen Up
G1 X95.89 Y11.95
M3 ; Pen Down
G1 X97.05 Y11.95
M5 ; Pen Up
G1 X98.63 Y11.95
M3 ; Pen Down
G1 X101.55 Y11.95
M5 ; Pen Up
G1 X103.91 Y11.95
M3 ; Pen Down
G1 X106.42 Y11.95
M5 ; Pen Up
G1 X108.92 Y11.95
M3 ; Pen Down
G1 X111.35 Y11.95
M5 ; Pen Up
G1 X113.87 Y11.95
M3 ; Pen Down
G1 X116.46 Y11.95
M5 ; Pen Up
G1 X118.67 Y11.95
M3 ; Pen Down
G1 X121.66 Y11.95
M5 ; Pen Up
G1 X123.19 Y11.95
M3 ; Pen Down
G1 X124.32 Y11.95
M5 ; Pen Up
G1 X125.96 Y11.95
M3 ; Pen Down
G1 X131.11 Y11.95
M5 ; Pen Up
G1 X132.58 Y11.95
M3 ; Pen Down
G1 X135.03 Y11.95
M5 ; Pen Up
G1 X144.38 Y11.95
M3 ; Pen Down
G1 X146.74 Y11.95
M5 ; Pen Up
G1 X151.39 Y11.95
M3 ; Pen Down
G1 X153.61 Y11.95
M5 ; Pen Up
G1 X159.71 Y11.95
M3 ; Pen Down
G1 X162.37 Y11.95
M5 ; Pen Up
G1 X162.88 Y11.95
M3 ; Pen Down
G1 X163.95 Y11.95
M5 ; Pen Up
G1 X166.60 Y11.95
M3 ; Pen Down
G1 X168.10 Y11.95
M5 ; Pen Up
G1 X169.66 Y11.95
M3 ; Pen Down
G1 X172.99 Y11.95
M5 ; Pen Up
G1 X172.99 Y12.45
M3 ; Pen Down
G1 X159.52 Y12.45
M5 ; Pen Up
G1 X153.50 Y12.45
M3 ; Pen Down
G1 X151.16 Y12.45
M5 ; Pen Up
G1 X146.30 Y12.45
M3 ; Pen Down
G1 X141.98 Y12.45
M5 ; Pen Up
G1 X137.63 Y12.45
M3 ; Pen Down
G1 X137.06 Y12.45
M5 ; Pen Up
G1 X136.25 Y12.45
M3 ; Pen Down
G1 X135.68 Y12.45
M5 ; Pen Up
G1 X135.32 Y12.45
M3 ; Pen Down
G1 X132.57 Y12.45
M5 ; Pen Up
G1 X131.13 Y12.45
M3 ; Pen Down
G1 X128.18 Y12.45
M5 ; Pen Up
G1 X126.49 Y12.45
M3 ; Pen Down
G1 X123.59 Y12.45
M5 ; Pen Up
G1 X121.24 Y12.45
M3 ; Pen Down
G1 X118.77 Y12.45
M5 ; Pen Up
G1 X116.34 Y12.45
M3 ; Pen Down
G1 X113.95 Y12.45
M5 ; Pen Up
G1 X111.26 Y12.45
M3 ; Pen Down
G1 X108.90 Y12.45
M5 ; Pen Up
G1 X106.45 Y12.45
M3 ; Pen Down
G1 X103.76 Y12.45
M5 ; Pen Up
G1 X101.95 Y12.45
M3 ; Pen Down
G1 X100.73 Y12.45
M5 ; Pen Up
G1 X99.27 Y12.45
M3 ; Pen Down
G1 X96.31 Y12.45
M5 ; Pen Up
G1 X93.92 Y12.45
M3 ; Pen Down
G1 X90.67 Y12.45
M5 ; Pen Up
G1 X89.32 Y12.45
M3 ; Pen Down
G1 X87.28 Y12.45
M5 ; Pen Up
G1 X85.34 Y12.45
M3 ; Pen Down
G1 X84.22 Y12.45
M5 ; Pen Up
G1 X81.52 Y12.45
M3 ; Pen Down
G1 X80.45 Y12.45
M5 ; Pen Up
G1 X78.12 Y12.45
M3 ; Pen Down
G1 X77.07 Y12.45
M5 ; Pen Up
G1 X74.95 Y12.45
M3 ; Pen Down
G1 X73.72 Y12.45
M5 ; Pen Up
G1 X73.46 Y12.45
M3 ; Pen Down
G1 X72.06 Y12.45
M5 ; Pen Up
G1 X67.88 Y12.45
M3 ; Pen Down
G1 X66.33 Y12.45
M5 ; Pen Up
G1 X62.26 Y12.45
M3 ; Pen Down
G1 X61.16 Y12.45
M5 ; Pen Up
G1 X58.11 Y12.45
M3 ; Pen Down
G1 X56.48 Y12.45
M5 ; Pen Up
G1 X54.39 Y12.45
M3 ; Pen Down
G1 X53.35 Y12.45
M5 ; Pen Up
G1 X52.29 Y12.45
M3 ; Pen Down
G1 X48.85 Y12.45
M5 ; Pen Up
G1 X47.41 Y12.45
M3 ; Pen Down
G1 X34.67 Y12.45
M5 ; Pen Up
G1 X30.97 Y12.45
M3 ; Pen Down
G1 X29.42 Y12.45
M5 ; Pen Up
G1 X28.22 Y12.45
M3 ; Pen Down
G1 X27.81 Y12.45
M5 ; Pen Up
G1 X27.33 Y12.45
M3 ; Pen Down
G1 X26.72 Y12.45
M5 ; Pen Up
G1 X26.70 Y12.45
M3 ; Pen Down
G1 X26.70 Y12.45
M5 ; Pen Up
G1 X24.96 Y12.45
M3 ; Pen Down
G1 X23.45 Y12.45
M5 ; Pen Up
G1 X19.79 Y12.45
M3 ; Pen Down
G1 X6.99 Y12.45
M5 ; Pen Up
G1 X6.99 Y12.95
M3 ; Pen Down
G1 X12.29 Y12.95
M5 ; Pen Up
G1 X13.89 Y12.95
M3 ; Pen Down
G1 X15.36 Y12.95
M5 ; Pen Up
G1 X16.11 Y12.95
M3 ; Pen Down
G1 X16.33 Y12.95
M5 ; Pen Up
G1 X17.50 Y12.95
M3 ; Pen Down
G1 X19.13 Y12.95
M5 ; Pen Up
G1 X19.94 Y12.95
M3 ; Pen Down
G1 X22.00 Y12.95
M5 ; Pen Up
G1 X23.93 Y12.95
M3 ; Pen Down
G1 X24.81 Y12.95
M5 ; Pen Up
G1 X25.87 Y12.95
M3 ; Pen Down
G1 X26.66 Y12.95
M5 ; Pen Up
G1 X27.76 Y12.95
M3 ; Pen Down
G1 X28.55 Y12.95
M5 ; Pen Up
G1 X29.59 Y12.95
M3 ; Pen Down
G1 X30.43 Y12.95
M5 ; Pen Up
G1 X32.64 Y12.95
M3 ; Pen Down
G1 X34.08 Y12.95
M5 ; Pen Up
G1 X35.26 Y12.95
M3 ; Pen Down
G1 X36.97 Y12.95
M5 ; Pen Up
G1 X37.50 Y12.95
M3 ; Pen Down
G1 X37.91 Y12.95
M5 ; Pen Up
G1 X39.04 Y12.95
M3 ; Pen Down
G1 X40.37 Y12.95
M5 ; Pen Up
G1 X42.08 Y12.95
M3 ; Pen Down
G1 X47.41 Y12.95
M5 ; Pen Up
G1 X48.85 Y12.95
M3 ; Pen Down
G1 X54.40 Y12.95
M5 ; Pen Up
G1 X56.85 Y12.95
M3 ; Pen Down
G1 X58.57 Y12.95
M5 ; Pen Up
G1 X61.04 Y12.95
M3 ; Pen Down
G1 X62.26 Y12.95
M5 ; Pen Up
G1 X65.78 Y12.95
M3 ; Pen Down
G1 X67.89 Y12.95
M5 ; Pen Up
G1 X71.88 Y12.95
M3 ; Pen Down
G1 X73.07 Y12.95
M5 ; Pen Up
G1 X74.13 Y12.95
M3 ; Pen Down
G1 X75.27 Y12.95
M5 ; Pen Up
G1 X76.91 Y12.95
M3 ; Pen Down
G1 X78.41 Y12.95
M5 ; Pen Up
G1 X80.22 Y12.95
M3 ; Pen Down
G1 X81.23 Y12.95
M5 ; Pen Up
G1 X84.23 Y12.95
M3 ; Pen Down
G1 X85.45 Y12.95
M5 ; Pen Up
G1 X87.28 Y12.95
M3 ; Pen Down
G1 X89.33 Y12.95
M5 ; Pen Up
G1 X90.67 Y12.95
M3 ; Pen Down
G1 X93.86 Y12.95
M5 ; Pen Up
G1 X96.36 Y12.95
M3 ; Pen Down
G1 X98.83 Y12.95
M5 ; Pen Up
G1 X101.32 Y12.95
M3 ; Pen Down
G1 X104.08 Y12.95
M5 ; Pen Up
G1 X105.76 Y12.95
M3 ; Pen Down
G1 X106.73 Y12.95
M5 ; Pen Up
G1 X108.42 Y12.95
M3 ; Pen Down
G1 X111.43 Y12.95
M5 ; Pen Up
G1 X113.83 Y12.95
M3 ; Pen Down
G1 X116.23 Y12.95
M5 ; Pen Up
G1 X118.81 Y12.95
M3 ; Pen Down
G1 X121.13 Y12.95
M5 ; Pen Up
G1 X123.71 Y12.95
M3 ; Pen Down
G1 X126.17 Y12.95
M5 ; Pen Up
G1 X128.66 Y12.95
M3 ; Pen Down
G1 X131.12 Y12.95
M5 ; Pen Up
G1 X132.60 Y12.95
M3 ; Pen Down
G1 X135.29 Y12.95
M5 ; Pen Up
G1 X135.71 Y12.95
M3 ; Pen Down
G1 X137.13 Y12.95
M5 ; Pen Up
G1 X139.01 Y12.95
M3 ; Pen Down
G1 X140.99 Y12.95
M5 ; Pen Up
G1 X142.19 Y12.95
M3 ; Pen Down
G1 X145.77 Y12.95
M5 ; Pen Up
G1 X150.60 Y12.95
M3 ; Pen Down
G1 X153.40 Y12.95
M5 ; Pen Up
G1 X159.19 Y12.95
M3 ; Pen Down
G1 X160.85 Y12.95
M5 ; Pen Up
G1 X161.54 Y12.95
M3 ; Pen Down
G1 X162.89 Y12.95
M5 ; Pen Up
G1 X170.04 Y12.95
M3 ; Pen Down
G1 X172.99 Y12.95
M5 ; Pen Up
G1 X172.99 Y13.45
M3 ; Pen Down
G1 X170.10 Y13.45
M5 ; Pen Up
G1 X163.12 Y13.45
M3 ; Pen Down
G1 X161.90 Y13.45
M5 ; Pen Up
G1 X160.55 Y13.45
M3 ; Pen Down
G1 X159.02 Y13.45
M5 ; Pen Up
G1 X153.29 Y13.45
M3 ; Pen Down
G1 X149.60 Y13.45
M5 ; Pen Up
G1 X145.39 Y13.45
M3 ; Pen Down
G1 X142.46 Y13.45
M5 ; Pen Up
G1 X135.10 Y13.45
M3 ; Pen Down
G1 X132.64 Y13.45
M5 ; Pen Up
G1 X131.14 Y13.45
M3 ; Pen Down
G1 X128.66 Y13.45
M5 ; Pen Up
G1 X126.13 Y13.45
M3 ; Pen Down
G1 X123.74 Y13.45
M5 ; Pen Up
G1 X121.06 Y13.45
M3 ; Pen Down
G1 X118.72 Y13.45
M5 ; Pen Up
G1 X116.32 Y13.45
M3 ; Pen Down
G1 X113.18 Y13.45
M5 ; Pen Up
G1 X111.89 Y13.45
M3 ; Pen Down
G1 X110.79 Y13.45
M5 ; Pen Up
G1 X109.06 Y13.45
M3 ; Pen Down
G1 X106.25 Y13.45
M5 ; Pen Up
G1 X103.79 Y13.45
M3 ; Pen Down
G1 X101.34 Y13.45
M5 ; Pen Up
G1 X98.85 Y13.45
M3 ; Pen Down
G1 X96.45 Y13.45
M5 ; Pen Up
G1 X93.83 Y13.45
M3 ; Pen Down
G1 X90.66 Y13.45
M5 ; Pen Up
G1 X89.35 Y13.45
M3 ; Pen Down
G1 X87.31 Y13.45
M5 ; Pen Up
G1 X85.73 Y13.45
M3 ; Pen Down
G1 X84.31 Y13.45
M5 ; Pen Up
G1 X81.10 Y13.45
M3 ; Pen Down
G1 X79.99 Y13.45
M5 ; Pen Up
G1 X79.13 Y13.45
M3 ; Pen Down
G1 X76.77 Y13.45
M5 ; Pen Up
G1 X75.42 Y13.45
M3 ; Pen Down
G1 X74.27 Y13.45
M5 ; Pen Up
G1 X73.03 Y13.45
M3 ; Pen Down
G1 X71.64 Y13.45
M5 ; Pen Up
G1 X67.93 Y13.45
M3 ; Pen Down
G1 X65.23 Y13.45
M5 ; Pen Up
G1 X62.27 Y13.45
M3 ; Pen Down
G1 X61.06 Y13.45
M5 ; Pen Up
G1 X59.13 Y13.45
M3 ; Pen Down
G1 X56.95 Y13.45
M5 ; Pen Up
G1 X54.47 Y13.45
M3 ; Pen Down
G1 X52.17 Y13.45
M5 ; Pen Up
G1 X50.99 Y13.45
M3 ; Pen Down
G1 X48.85 Y13.45
M5 ; Pen Up
G1 X47.41 Y13.45
M3 ; Pen Down
G1 X41.09 Y13.45
M5 ; Pen Up
G1 X39.88 Y13.45
M3 ; Pen Down
G1 X39.16 Y13.45
M5 ; Pen Up
G1 X36.79 Y13.45
M3 ; Pen Down
G1 X35.45 Y13.45
M5 ; Pen Up
G1 X34.82 Y13.45
M3 ; Pen Down
G1 X31.91 Y13.45
M5 ; Pen Up
G1 X30.20 Y13.45
M3 ; Pen Down
G1 X27.85 Y13.45
M5 ; Pen Up
G1 X26.59 Y13.45
M3 ; Pen Down
G1 X24.24 Y13.45
M5 ; Pen Up
G1 X22.38 Y13.45
M3 ; Pen Down
G1 X19.64 Y13.45
M5 ; Pen Up
G1 X19.04 Y13.45
M3 ; Pen Down
G1 X17.67 Y13.45
M5 ; Pen Up
G1 X15.26 Y13.45
M3 ; Pen Down
G1 X14.53 Y13.45
M5 ; Pen Up
G1 X13.37 Y13.45
M3 ; Pen Down
G1 X7.00 Y13.45
M5 ; Pen Up
G1 X7.00 Y13.95
M3 ; Pen Down
G1 X11.59 Y13.95
M5 ; Pen Up
G1 X12.78 Y13.95
M3 ; Pen Down
G1 X13.94 Y13.95
M5 ; Pen Up
G1 X18.00 Y13.95
M3 ; Pen Down
G1 X18.24 Y13.95
M5 ; Pen Up
G1 X18.26 Y13.95
M3 ; Pen Down
G1 X18.26 Y13.95
M5 ; Pen Up
G1 X19.16 Y13.95
M3 ; Pen Down
G1 X22.82 Y13.95
M5 ; Pen Up
G1 X24.65 Y13.95
M3 ; Pen Down
G1 X26.29 Y13.95
M5 ; Pen Up
G1 X28.12 Y13.95
M3 ; Pen Down
G1 X29.84 Y13.95
M5 ; Pen Up
G1 X31.61 Y13.95
M3 ; Pen Down
G1 X35.00 Y13.95
M5 ; Pen Up
G1 X35.47 Y13.95
M3 ; Pen Down
G1 X36.81 Y13.95
M5 ; Pen Up
G1 X40.55 Y13.95
M3 ; Pen Down
G1 X41.54 Y13.95
M5 ; Pen Up
G1 X42.47 Y13.95
M3 ; Pen Down
G1 X47.41 Y13.95
M5 ; Pen Up
G1 X48.85 Y13.95
M3 ; Pen Down
G1 X50.91 Y13.95
M5 ; Pen Up
G1 X52.97 Y13.95
M3 ; Pen Down
G1 X55.05 Y13.95
M5 ; Pen Up
G1 X57.14 Y13.95
M3 ; Pen Down
G1 X59.72 Y13.95
M5 ; Pen Up
G1 X61.07 Y13.95
M3 ; Pen Down
G1 X62.27 Y13.95
M5 ; Pen Up
G1 X64.86 Y13.95
M3 ; Pen Down
G1 X66.44 Y13.95
M5 ; Pen Up
G1 X66.97 Y13.95
M3 ; Pen Down
G1 X68.17 Y13.95
M5 ; Pen Up
G1 X71.52 Y13.95
M3 ; Pen Down
G1 X72.92 Y13.95
M5 ; Pen Up
G1 X74.51 Y13.95
M3 ; Pen Down
G1 X75.52 Y13.95
M5 ; Pen Up
G1 X76.66 Y13.95
M3 ; Pen Down
G1 X77.78 Y13.95
M5 ; Pen Up
G1 X78.25 Y13.95
M3 ; Pen Down
G1 X80.87 Y13.95
M5 ; Pen Up
G1 X84.29 Y13.95
M3 ; Pen Down
G1 X86.19 Y13.95
M5 ; Pen Up
G1 X87.27 Y13.95
M3 ; Pen Down
G1 X89.34 Y13.95
M5 ; Pen Up
G1 X90.65 Y13.95
M3 ; Pen Down
G1 X93.88 Y13.95
M5 ; Pen Up
G1 X96.32 Y13.95
M3 ; Pen Down
G1 X98.76 Y13.95
M5 ; Pen Up
G1 X101.38 Y13.95
M3 ; Pen Down
G1 X103.74 Y13.95
M5 ; Pen Up
G1 X106.36 Y13.95
M3 ; Pen Down
G1 X108.70 Y13.95
M5 ; Pen Up
G1 X111.02 Y13.95
M3 ; Pen Down
G1 X114.11 Y13.95
M5 ; Pen Up
G1 X115.71 Y13.95
M3 ; Pen Down
G1 X116.78 Y13.95
M5 ; Pen Up
G1 X118.29 Y13.95
M3 ; Pen Down
G1 X121.33 Y13.95
M5 ; Pen Up
G1 X123.55 Y13.95
M3 ; Pen Down
G1 X126.08 Y13.95
M5 ; Pen Up
G1 X128.72 Y13.95
M3 ; Pen Down
G1 X131.15 Y13.95
M5 ; Pen Up
G1 X132.57 Y13.95
M3 ; Pen Down
G1 X144.97 Y13.95
M5 ; Pen Up
G1 X148.45 Y13.95
M3 ; Pen Down
G1 X153.06 Y13.95
M5 ; Pen Up
G1 X158.77 Y13.95
M3 ; Pen Down
G1 X160.36 Y13.95
M5 ; Pen Up
G1 X162.19 Y13.95
M3 ; Pen Down
G1 X163.89 Y13.95
M5 ; Pen Up
G1 X164.56 Y13.95
M3 ; Pen Down
G1 X172.99 Y13.95
M5 ; Pen Up
G1 X172.99 Y14.44
M3 ; Pen Down
G1 X162.51 Y14.44
M5 ; Pen Up
G1 X160.14 Y14.44
M3 ; Pen Down
G1 X158.50 Y14.44
M5 ; Pen Up
G1 X152.91 Y14.44
M3 ; Pen Down
G1 X147.33 Y14.44
M5 ; Pen Up
G1 X144.52 Y14.44
M3 ; Pen Down
G1 X132.54 Y14.44
M5 ; Pen Up
G1 X131.15 Y14.44
M3 ; Pen Down
G1 X128.60 Y14.44
M5 ; Pen Up
G1 X126.16 Y14.44
M3 ; Pen Down
G1 X123.10 Y14.44
M5 ; Pen Up
G1 X121.79 Y14.44
M3 ; Pen Down
G1 X120.42 Y14.44
M5 ; Pen Up
G1 X119.24 Y14.44
M3 ; Pen Down
G1 X115.99 Y14.44
M5 ; Pen Up
G1 X113.62 Y14.44
M3 ; Pen Down
G1 X111.35 Y14.44
M5 ; Pen Up
G1 X108.49 Y14.44
M3 ; Pen Down
G1 X106.34 Y14.44
M5 ; Pen Up
G1 X103.75 Y14.44
M3 ; Pen Down
G1 X101.31 Y14.44
M5 ; Pen Up
G1 X98.78 Y14.44
M3 ; Pen Down
G1 X96.05 Y14.44
M5 ; Pen Up
G1 X94.29 Y14.44
M3 ; Pen Down
G1 X90.64 Y14.44
M5 ; Pen Up
G1 X89.31 Y14.44
M3 ; Pen Down
G1 X84.24 Y14.44
M5 ; Pen Up
G1 X80.72 Y14.44
M3 ; Pen Down
G1 X78.73 Y14.44
M5 ; Pen Up
G1 X77.44 Y14.44
M3 ; Pen Down
G1 X76.52 Y14.44
M5 ; Pen Up
G1 X75.90 Y14.44
M3 ; Pen Down
G1 X74.74 Y14.44
M5 ; Pen Up
G1 X72.73 Y14.44
M3 ; Pen Down
G1 X71.36 Y14.44
M5 ; Pen Up
G1 X68.73 Y14.44
M3 ; Pen Down
G1 X67.04 Y14.44
M5 ; Pen Up
G1 X65.92 Y14.44
M3 ; Pen Down
G1 X64.55 Y14.44
M5 ; Pen Up
G1 X62.28 Y14.44
M3 ; Pen Down
G1 X60.68 Y14.44
M5 ; Pen Up
G1 X60.47 Y14.44
M3 ; Pen Down
G1 X57.19 Y14.44
M5 ; Pen Up
G1 X55.81 Y14.44
M3 ; Pen Down
G1 X53.48 Y14.44
M5 ; Pen Up
G1 X50.96 Y14.44
M3 ; Pen Down
G1 X48.85 Y14.44
M5 ; Pen Up
G1 X47.41 Y14.44
M3 ; Pen Down
G1 X42.56 Y14.44
M5 ; Pen Up
G1 X41.27 Y14.44
M3 ; Pen Down
G1 X40.16 Y14.44
M5 ; Pen Up
G1 X39.17 Y14.44
M3 ; Pen Down
G1 X38.50 Y14.44
M5 ; Pen Up
G1 X38.12 Y14.44
M3 ; Pen Down
G1 X37.23 Y14.44
M5 ; Pen Up
G1 X35.73 Y14.44
M3 ; Pen Down
G1 X31.40 Y14.44
M5 ; Pen Up
G1 X29.73 Y14.44
M3 ; Pen Down
G1 X28.42 Y14.44
M5 ; Pen Up
G1 X25.99 Y14.44
M3 ; Pen Down
G1 X24.73 Y14.44
M5 ; Pen Up
G1 X23.04 Y14.44
M3 ; Pen Down
G1 X19.03 Y14.44
M5 ; Pen Up
G1 X17.17 Y14.44
M3 ; Pen Down
G1 X15.34 Y14.44
M5 ; Pen Up
G1 X14.09 Y14.44
M3 ; Pen Down
G1 X13.19 Y14.44
M5 ; Pen Up
G1 X11.61 Y14.44
M3 ; Pen Down
G1 X7.00 Y14.44
M5 ; Pen Up
G1 X7.00 Y14.94
M3 ; Pen Down
G1 X11.66 Y14.94
M5 ; Pen Up
G1 X13.28 Y14.94
M3 ; Pen Down
G1 X14.17 Y14.94
M5 ; Pen Up
G1 X15.14 Y14.94
M3 ; Pen Down
G1 X17.24 Y14.94
M5 ; Pen Up
G1 X18.96 Y14.94
M3 ; Pen Down
G1 X20.46 Y14.94
M5 ; Pen Up
G1 X21.84 Y14.94
M3 ; Pen Down
G1 X23.06 Y14.94
M5 ; Pen Up
G1 X24.80 Y14.94
M3 ; Pen Down
G1 X25.84 Y14.94
M5 ; Pen Up
G1 X28.58 Y14.94
M3 ; Pen Down
G1 X29.48 Y14.94
M5 ; Pen Up
G1 X31.28 Y14.94
M3 ; Pen Down
G1 X32.53 Y14.94
M5 ; Pen Up
G1 X33.94 Y14.94
M3 ; Pen Down
G1 X35.60 Y14.94
M5 ; Pen Up
G1 X37.26 Y14.94
M3 ; Pen Down
G1 X39.28 Y14.94
M5 ; Pen Up
G1 X40.06 Y14.94
M3 ; Pen Down
G1 X41.06 Y14.94
M5 ; Pen Up
G1 X42.85 Y14.94
M3 ; Pen Down
G1 X47.41 Y14.94
M5 ; Pen Up
G1 X48.85 Y14.94
M3 ; Pen Down
G1 X51.27 Y14.94
M5 ; Pen Up
G1 X53.48 Y14.94
M3 ; Pen Down
G1 X58.47 Y14.94
M5 ; Pen Up
G1 X59.11 Y14.94
M3 ; Pen Down
G1 X62.37 Y14.94
M5 ; Pen Up
G1 X64.11 Y14.94
M3 ; Pen Down
G1 X65.50 Y14.94
M5 ; Pen Up
G1 X66.95 Y14.94
M3 ; Pen Down
G1 X69.26 Y14.94
M5 ; Pen Up
G1 X71.09 Y14.94
M3 ; Pen Down
G1 X72.52 Y14.94
M5 ; Pen Up
G1 X74.89 Y14.94
M3 ; Pen Down
G1 X77.30 Y14.94
M5 ; Pen Up
G1 X79.18 Y14.94
M3 ; Pen Down
G1 X81.10 Y14.94
M5 ; Pen Up
G1 X84.22 Y14.94
M3 ; Pen Down
G1 X85.62 Y14.94
M5 ; Pen Up
G1 X85.67 Y14.94
M3 ; Pen Down
G1 X89.26 Y14.94
M5 ; Pen Up
G1 X90.65 Y14.94
M3 ; Pen Down
G1 X92.56 Y14.94
M5 ; Pen Up
G1 X93.53 Y14.94
M3 ; Pen Down
G1 X96.76 Y14.94
M5 ; Pen Up
G1 X97.93 Y14.94
M3 ; Pen Down
G1 X99.17 Y14.94
M5 ; Pen Up
G1 X100.84 Y14.94
M3 ; Pen Down
G1 X103.66 Y14.94
M5 ; Pen Up
G1 X106.30 Y14.94
M3 ; Pen Down
G1 X108.55 Y14.94
M5 ; Pen Up
G1 X111.14 Y14.94
M3 ; Pen Down
G1 X113.49 Y14.94
M5 ; Pen Up
G1 X116.09 Y14.94
M3 ; Pen Down
G1 X118.53 Y14.94
M5 ; Pen Up
G1 X121.04 Y14.94
M3 ; Pen Down
G1 X123.87 Y14.94
M5 ; Pen Up
G1 X125.44 Y14.94
M3 ; Pen Down
G1 X126.60 Y14.94
M5 ; Pen Up
G1 X127.96 Y14.94
M3 ; Pen Down
G1 X131.14 Y14.94
M5 ; Pen Up
G1 X132.59 Y14.94
M3 ; Pen Down
G1 X135.05 Y14.94
M5 ; Pen Up
G1 X141.85 Y14.94
M3 ; Pen Down
G1 X144.06 Y14.94
M5 ; Pen Up
G1 X146.17 Y14.94
M3 ; Pen Down
G1 X153.07 Y14.94
M5 ; Pen Up
G1 X158.26 Y14.94
M3 ; Pen Down
G1 X159.79 Y14.94
M5 ; Pen Up
G1 X162.97 Y14.94
M3 ; Pen Down
G1 X164.73 Y14.94
M5 ; Pen Up
G1 X170.12 Y14.94
M3 ; Pen Down
G1 X172.99 Y14.94
M5 ; Pen Up
G1 X173.00 Y15.44
M3 ; Pen Down
G1 X170.07 Y15.44
M5 ; Pen Up
G1 X164.91 Y15.44
M3 ; Pen Down
G1 X163.37 Y15.44
M5 ; Pen Up
G1 X159.65 Y15.44
M3 ; Pen Down
G1 X158.05 Y15.44
M5 ; Pen Up
G1 X153.93 Y15.44
M3 ; Pen Down
G1 X149.65 Y15.44
M5 ; Pen Up
G1 X149.49 Y15.44
M3 ; Pen Down
G1 X144.99 Y15.44
M5 ; Pen Up
G1 X143.46 Y15.44
M3 ; Pen Down
G1 X141.32 Y15.44
M5 ; Pen Up
G1 X135.07 Y15.44
M3 ; Pen Down
G1 X132.65 Y15.44
M5 ; Pen Up
G1 X131.17 Y15.44
M3 ; Pen Down
G1 X126.03 Y15.44
M5 ; Pen Up
G1 X123.49 Y15.44
M3 ; Pen Down
G1 X121.04 Y15.44
M5 ; Pen Up
G1 X118.50 Y15.44
M3 ; Pen Down
G1 X116.10 Y15.44
M5 ; Pen Up
G1 X113.48 Y15.44
M3 ; Pen Down
G1 X111.02 Y15.44
M5 ; Pen Up
G1 X108.67 Y15.44
M3 ; Pen Down
G1 X105.78 Y15.44
M5 ; Pen Up
G1 X104.13 Y15.44
M3 ; Pen Down
G1 X102.96 Y15.44
M5 ; Pen Up
G1 X101.55 Y15.44
M3 ; Pen Down
G1 X98.51 Y15.44
M5 ; Pen Up
G1 X96.20 Y15.44
M3 ; Pen Down
G1 X93.77 Y15.44
M5 ; Pen Up
G1 X92.56 Y15.44
M3 ; Pen Down
G1 X90.64 Y15.44
M5 ; Pen Up
G1 X89.30 Y15.44
M3 ; Pen Down
G1 X86.36 Y15.44
M5 ; Pen Up
G1 X85.01 Y15.44
M3 ; Pen Down
G1 X84.11 Y15.44
M5 ; Pen Up
G1 X81.68 Y15.44
M3 ; Pen Down
G1 X79.00 Y15.44
M5 ; Pen Up
G1 X76.95 Y15.44
M3 ; Pen Down
G1 X75.02 Y15.44
M5 ; Pen Up
G1 X72.29 Y15.44
M3 ; Pen Down
G1 X71.05 Y15.44
M5 ; Pen Up
G1 X69.98 Y15.44
M3 ; Pen Down
G1 X66.99 Y15.44
M5 ; Pen Up
G1 X65.22 Y15.44
M3 ; Pen Down
G1 X63.76 Y15.44
M5 ; Pen Up
G1 X62.38 Y15.44
M3 ; Pen Down
G1 X60.19 Y15.44
M5 ; Pen Up
G1 X58.67 Y15.44
M3 ; Pen Down
G1 X55.48 Y15.44
M5 ; Pen Up
G1 X54.42 Y15.44
M3 ; Pen Down
G1 X53.43 Y15.44
M5 ; Pen Up
G1 X51.98 Y15.44
M3 ; Pen Down
G1 X48.85 Y15.44
M5 ; Pen Up
G1 X47.41 Y15.44
M3 ; Pen Down
G1 X42.11 Y15.44
M5 ; Pen Up
G1 X41.32 Y15.44
M3 ; Pen Down
G1 X40.40 Y15.44
M5 ; Pen Up
G1 X39.28 Y15.44
M3 ; Pen Down
G1 X37.34 Y15.44
M5 ; Pen Up
G1 X36.09 Y15.44
M3 ; Pen Down
G1 X35.31 Y15.44
M5 ; Pen Up
G1 X35.18 Y15.44
M3 ; Pen Down
G1 X34.07 Y15.44
M5 ; Pen Up
G1 X32.36 Y15.44
M3 ; Pen Down
G1 X31.26 Y15.44
M5 ; Pen Up
G1 X29.21 Y15.44
M3 ; Pen Down
G1 X28.39 Y15.44
M5 ; Pen Up
G1 X26.07 Y15.44
M3 ; Pen Down
G1 X25.21 Y15.44
M5 ; Pen Up
G1 X23.08 Y15.44
M3 ; Pen Down
G1 X22.04 Y15.44
M5 ; Pen Up
G1 X20.33 Y15.44
M3 ; Pen Down
G1 X18.86 Y15.44
M5 ; Pen Up
G1 X17.00 Y15.44
M3 ; Pen Down
G1 X15.17 Y15.44
M5 ; Pen Up
G1 X13.96 Y15.44
M3 ; Pen Down
G1 X13.09 Y15.44
M5 ; Pen Up
G1 X11.66 Y15.44
M3 ; Pen Down
G1 X6.99 Y15.44
M5 ; Pen Up
G1 X6.99 Y15.94
M3 ; Pen Down
G1 X13.84 Y15.94
M5 ; Pen Up
G1 X15.11 Y15.94
M3 ; Pen Down
G1 X16.65 Y15.94
M5 ; Pen Up
G1 X18.15 Y15.94
M3 ; Pen Down
G1 X19.04 Y15.94
M5 ; Pen Up
G1 X19.49 Y15.94
M3 ; Pen Down
G1 X20.60 Y15.94
M5 ; Pen Up
G1 X22.04 Y15.94
M3 ; Pen Down
G1 X23.04 Y15.94
M5 ; Pen Up
G1 X25.48 Y15.94
M3 ; Pen Down
G1 X26.07 Y15.94
M5 ; Pen Up
G1 X31.24 Y15.94
M3 ; Pen Down
G1 X32.41 Y15.94
M5 ; Pen Up
G1 X33.77 Y15.94
M3 ; Pen Down
G1 X34.87 Y15.94
M5 ; Pen Up
G1 X35.37 Y15.94
M3 ; Pen Down
G1 X36.28 Y15.94
M5 ; Pen Up
G1 X37.63 Y15.94
M3 ; Pen Down
G1 X39.30 Y15.94
M5 ; Pen Up
G1 X40.57 Y15.94
M3 ; Pen Down
G1 X47.41 Y15.94
M5 ; Pen Up
G1 X48.85 Y15.94
M3 ; Pen Down
G1 X52.46 Y15.94
M5 ; Pen Up
G1 X53.35 Y15.94
M3 ; Pen Down
G1 X54.39 Y15.94
M5 ; Pen Up
G1 X56.31 Y15.94
M3 ; Pen Down
G1 X58.86 Y15.94
M5 ; Pen Up
G1 X61.16 Y15.94
M3 ; Pen Down
G1 X62.33 Y15.94
M5 ; Pen Up
G1 X63.46 Y15.94
M3 ; Pen Down
G1 X64.85 Y15.94
M5 ; Pen Up
G1 X66.95 Y15.94
M3 ; Pen Down
G1 X68.19 Y15.94
M5 ; Pen Up
G1 X69.21 Y15.94
M3 ; Pen Down
G1 X70.42 Y15.94
M5 ; Pen Up
G1 X70.91 Y15.94
M3 ; Pen Down
G1 X72.21 Y15.94
M5 ; Pen Up
G1 X75.07 Y15.94
M3 ; Pen Down
G1 X76.82 Y15.94
M5 ; Pen Up
G1 X78.66 Y15.94
M3 ; Pen Down
G1 X79.87 Y15.94
M5 ; Pen Up
G1 X80.55 Y15.94
M3 ; Pen Down
G1 X82.27 Y15.94
M5 ; Pen Up
G1 X84.07 Y15.94
M3 ; Pen Down
G1 X85.08 Y15.94
M5 ; Pen Up
G1 X86.85 Y15.94
M3 ; Pen Down
G1 X89.32 Y15.94
M5 ; Pen Up
G1 X90.65 Y15.94
M3 ; Pen Down
G1 X92.61 Y15.94
M5 ; Pen Up
G1 X93.81 Y15.94
M3 ; Pen Down
G1 X96.09 Y15.94
M5 ; Pen Up
G1 X98.65 Y15.94
M3 ; Pen Down
G1 X101.17 Y15.94
M5 ; Pen Up
G1 X103.43 Y15.94
M3 ; Pen Down
G1 X114.26 Y15.94
M5 ; Pen Up
G1 X116.05 Y15.94
M3 ; Pen Down
G1 X118.46 Y15.94
M5 ; Pen Up
G1 X121.04 Y15.94
M3 ; Pen Down
G1 X123.38 Y15.94
M5 ; Pen Up
G1 X126.04 Y15.94
M3 ; Pen Down
G1 X128.20 Y15.94
M5 ; Pen Up
G1 X128.96 Y15.94
M3 ; Pen Down
G1 X131.17 Y15.94
M5 ; Pen Up
G1 X132.57 Y15.94
M3 ; Pen Down
G1 X135.40 Y15.94
M5 ; Pen Up
G1 X136.28 Y15.94
M3 ; Pen Down
G1 X137.71 Y15.94
M5 ; Pen Up
G1 X137.93 Y15.94
M3 ; Pen Down
G1 X138.71 Y15.94
M5 ; Pen Up
G1 X139.28 Y15.94
M3 ; Pen Down
G1 X139.96 Y15.94
M5 ; Pen Up
G1 X140.75 Y15.94
M3 ; Pen Down
G1 X143.31 Y15.94
M5 ; Pen Up
G1 X144.22 Y15.94
M3 ; Pen Down
G1 X147.21 Y15.94
M5 ; Pen Up
G1 X149.94 Y15.94
M3 ; Pen Down
G1 X154.57 Y15.94
M5 ; Pen Up
G1 X157.77 Y15.94
M3 ; Pen Down
G1 X159.39 Y15.94
M5 ; Pen Up
G1 X163.62 Y15.94
M3 ; Pen Down
G1 X166.10 Y15.94
M5 ; Pen Up
G1 X166.12 Y15.94
M3 ; Pen Down
G1 X166.12 Y15.94
M5 ; Pen Up
G1 X166.62 Y15.94
M3 ; Pen Down
G1 X166.63 Y15.94
M5 ; Pen Up
G1 X166.65 Y15.94
M3 ; Pen Down
G1 X169.17 Y15.94
M5 ; Pen Up
G1 X169.70 Y15.94
M3 ; Pen Down
G1 X173.00 Y15.94
M5 ; Pen Up
G1 X173.00 Y16.44
M3 ; Pen Down
G1 X169.73 Y16.44
M5 ; Pen Up
G1 X168.24 Y16.44
M3 ; Pen Down
G1 X168.08 Y16.44
M5 ; Pen Up
G1 X166.51 Y16.44
M3 ; Pen Down
G1 X164.04 Y16.44
M5 ; Pen Up
G1 X159.14 Y16.44
M3 ; Pen Down
G1 X157.55 Y16.44
M5 ; Pen Up
G1 X155.22 Y16.44
M3 ; Pen Down
G1 X152.83 Y16.44
M5 ; Pen Up
G1 X151.88 Y16.44
M3 ; Pen Down
G1 X149.79 Y16.44
M5 ; Pen Up
G1 X146.11 Y16.44
M3 ; Pen Down
G1 X132.56 Y16.44
M5 ; Pen Up
G1 X131.15 Y16.44
M3 ; Pen Down
G1 X128.98 Y16.44
M5 ; Pen Up
G1 X128.09 Y16.44
M3 ; Pen Down
G1 X125.99 Y16.44
M5 ; Pen Up
G1 X123.34 Y16.44
M3 ; Pen Down
G1 X120.98 Y16.44
M5 ; Pen Up
G1 X118.54 Y16.44
M3 ; Pen Down
G1 X103.65 Y16.44
M5 ; Pen Up
G1 X100.97 Y16.44
M3 ; Pen Down
G1 X98.68 Y16.44
M5 ; Pen Up
G1 X96.06 Y16.44
M3 ; Pen Down
G1 X93.71 Y16.44
M5 ; Pen Up
G1 X92.64 Y16.44
M3 ; Pen Down
G1 X90.67 Y16.44
M5 ; Pen Up
G1 X89.32 Y16.44
M3 ; Pen Down
G1 X87.15 Y16.44
M5 ; Pen Up
G1 X85.06 Y16.44
M3 ; Pen Down
G1 X83.91 Y16.44
M5 ; Pen Up
G1 X82.94 Y16.44
M3 ; Pen Down
G1 X81.14 Y16.44
M5 ; Pen Up
G1 X79.62 Y16.44
M3 ; Pen Down
G1 X78.44 Y16.44
M5 ; Pen Up
G1 X76.90 Y16.44
M3 ; Pen Down
G1 X74.96 Y16.44
M5 ; Pen Up
G1 X72.03 Y16.44
M3 ; Pen Down
G1 X69.67 Y16.44
M5 ; Pen Up
G1 X68.12 Y16.44
M3 ; Pen Down
G1 X66.99 Y16.44
M5 ; Pen Up
G1 X64.61 Y16.44
M3 ; Pen Down
G1 X61.43 Y16.44
M5 ; Pen Up
G1 X58.96 Y16.44
M3 ; Pen Down
G1 X57.17 Y16.44
M5 ; Pen Up
G1 X54.39 Y16.44
M3 ; Pen Down
G1 X48.85 Y16.44
M5 ; Pen Up
G1 X47.41 Y16.44
M3 ; Pen Down
G1 X40.76 Y16.44
M5 ; Pen Up
G1 X39.40 Y16.44
M3 ; Pen Down
G1 X38.06 Y16.44
M5 ; Pen Up
G1 X36.38 Y16.44
M3 ; Pen Down
G1 X35.16 Y16.44
M5 ; Pen Up
G1 X34.59 Y16.44
M3 ; Pen Down
G1 X34.57 Y16.44
M5 ; Pen Up
G1 X34.55 Y16.44
M3 ; Pen Down
G1 X33.71 Y16.44
M5 ; Pen Up
G1 X32.66 Y16.44
M3 ; Pen Down
G1 X31.24 Y16.44
M5 ; Pen Up
G1 X23.06 Y16.44
M3 ; Pen Down
G1 X21.76 Y16.44
M5 ; Pen Up
G1 X20.83 Y16.44
M3 ; Pen Down
G1 X19.99 Y16.44
M5 ; Pen Up
G1 X19.38 Y16.44
M3 ; Pen Down
G1 X17.96 Y16.44
M5 ; Pen Up
G1 X16.33 Y16.44
M3 ; Pen Down
G1 X14.91 Y16.44
M5 ; Pen Up
G1 X13.56 Y16.44
M3 ; Pen Down
G1 X6.99 Y16.44
M5 ; Pen Up
G1 X6.99 Y16.93
M3 ; Pen Down
G1 X13.24 Y16.93
M5 ; Pen Up
G1 X14.87 Y16.93
M3 ; Pen Down
G1 X15.30 Y16.93
M5 ; Pen Up
G1 X17.80 Y16.93
M3 ; Pen Down
G1 X19.79 Y16.93
M5 ; Pen Up
G1 X20.34 Y16.93
M3 ; Pen Down
G1 X23.09 Y16.93
M5 ; Pen Up
G1 X31.26 Y16.93
M3 ; Pen Down
G1 X33.33 Y16.93
M5 ; Pen Up
G1 X34.45 Y16.93
M3 ; Pen Down
G1 X36.58 Y16.93
M5 ; Pen Up
G1 X38.86 Y16.93
M3 ; Pen Down
G1 X39.43 Y16.93
M5 ; Pen Up
G1 X41.19 Y16.93
M3 ; Pen Down
G1 X47.41 Y16.93
M5 ; Pen Up
G1 X48.85 Y16.93
M3 ; Pen Down
G1 X50.93 Y16.93
M5 ; Pen Up
G1 X52.09 Y16.93
M3 ; Pen Down
G1 X54.38 Y16.93
M5 ; Pen Up
G1 X57.73 Y16.93
M3 ; Pen Down
G1 X59.06 Y16.93
M5 ; Pen Up
G1 X61.55 Y16.93
M3 ; Pen Down
G1 X64.25 Y16.93
M5 ; Pen Up
G1 X67.02 Y16.93
M3 ; Pen Down
G1 X68.15 Y16.93
M5 ; Pen Up
G1 X70.04 Y16.93
M3 ; Pen Down
G1 X71.82 Y16.93
M5 ; Pen Up
G1 X74.82 Y16.93
M3 ; Pen Down
G1 X77.20 Y16.93
M5 ; Pen Up
G1 X78.12 Y16.93
M3 ; Pen Down
G1 X79.31 Y16.93
M5 ; Pen Up
G1 X81.68 Y16.93
M3 ; Pen Down
G1 X84.97 Y16.93
M5 ; Pen Up
G1 X87.25 Y16.93
M3 ; Pen Down
G1 X89.34 Y16.93
M5 ; Pen Up
G1 X90.67 Y16.93
M3 ; Pen Down
G1 X92.73 Y16.93
M5 ; Pen Up
G1 X93.46 Y16.93
M3 ; Pen Down
G1 X96.17 Y16.93
M5 ; Pen Up
G1 X98.61 Y16.93
M3 ; Pen Down
G1 X101.01 Y16.93
M5 ; Pen Up
G1 X103.60 Y16.93
M3 ; Pen Down
G1 X107.87 Y16.93
M5 ; Pen Up
G1 X108.26 Y16.93
M3 ; Pen Down
G1 X113.27 Y16.93
M5 ; Pen Up
G1 X113.95 Y16.93
M3 ; Pen Down
G1 X117.24 Y16.93
M5 ; Pen Up
G1 X117.70 Y16.93
M3 ; Pen Down
G1 X118.87 Y16.93
M5 ; Pen Up
G1 X120.53 Y16.93
M3 ; Pen Down
G1 X123.46 Y16.93
M5 ; Pen Up
G1 X125.89 Y16.93
M3 ; Pen Down
G1 X128.20 Y16.93
M5 ; Pen Up
G1 X128.94 Y16.93
M3 ; Pen Down
G1 X131.14 Y16.93
M5 ; Pen Up
G1 X132.61 Y16.93
M3 ; Pen Down
G1 X135.20 Y16.93
M5 ; Pen Up
G1 X139.99 Y16.93
M3 ; Pen Down
G1 X145.21 Y16.93
M5 ; Pen Up
G1 X149.65 Y16.93
M3 ; Pen Down
G1 X151.71 Y16.93
M5 ; Pen Up
G1 X153.38 Y16.93
M3 ; Pen Down
G1 X155.84 Y16.93
M5 ; Pen Up
G1 X157.27 Y16.93
M3 ; Pen Down
G1 X158.91 Y16.93
M5 ; Pen Up
G1 X164.35 Y16.93
M3 ; Pen Down
G1 X166.18 Y16.93
M5 ; Pen Up
G1 X170.00 Y16.93
M3 ; Pen Down
G1 X172.99 Y16.93
M5 ; Pen Up
G1 X172.99 Y17.43
M3 ; Pen Down
G1 X169.64 Y17.43
M5 ; Pen Up
G1 X166.69 Y17.43
M3 ; Pen Down
G1 X164.71 Y17.43
M5 ; Pen Up
G1 X158.56 Y17.43
M3 ; Pen Down
G1 X153.87 Y17.43
M5 ; Pen Up
G1 X151.63 Y17.43
M3 ; Pen Down
G1 X149.49 Y17.43
M5 ; Pen Up
G1 X144.40 Y17.43
M3 ; Pen Down
G1 X139.94 Y17.43
M5 ; Pen Up
G1 X135.14 Y17.43
M3 ; Pen Down
G1 X132.63 Y17.43
M5 ; Pen Up
G1 X131.17 Y17.43
M3 ; Pen Down
G1 X128.96 Y17.43
M5 ; Pen Up
G1 X128.61 Y17.43
M3 ; Pen Down
G1 X125.47 Y17.43
M5 ; Pen Up
G1 X123.83 Y17.43
M3 ; Pen Down
G1 X122.83 Y17.43
M5 ; Pen Up
G1 X121.19 Y17.43
M3 ; Pen Down
G1 X118.14 Y17.43
M5 ; Pen Up
G1 X117.33 Y17.43
M3 ; Pen Down
G1 X114.32 Y17.43
M5 ; Pen Up
G1 X113.10 Y17.43
M3 ; Pen Down
G1 X111.58 Y17.43
M5 ; Pen Up
G1 X110.04 Y17.43
M3 ; Pen Down
G1 X108.51 Y17.43
M5 ; Pen Up
G1 X107.24 Y17.43
M3 ; Pen Down
G1 X103.59 Y17.43
M5 ; Pen Up
G1 X101.14 Y17.43
M3 ; Pen Down
G1 X98.33 Y17.43
M5 ; Pen Up
G1 X96.56 Y17.43
M3 ; Pen Down
G1 X95.53 Y17.43
M5 ; Pen Up
G1 X94.02 Y17.43
M3 ; Pen Down
G1 X90.66 Y17.43
M5 ; Pen Up
G1 X89.35 Y17.43
M3 ; Pen Down
G1 X87.26 Y17.43
M5 ; Pen Up
G1 X84.97 Y17.43
M3 ; Pen Down
G1 X81.80 Y17.43
M5 ; Pen Up
G1 X79.06 Y17.43
M3 ; Pen Down
G1 X74.68 Y17.43
M5 ; Pen Up
G1 X71.72 Y17.43
M3 ; Pen Down
G1 X70.46 Y17.43
M5 ; Pen Up
G1 X68.11 Y17.43
M3 ; Pen Down
G1 X66.88 Y17.43
M5 ; Pen Up
G1 X63.80 Y17.43
M3 ; Pen Down
G1 X61.76 Y17.43
M5 ; Pen Up
G1 X59.12 Y17.43
M3 ; Pen Down
G1 X57.96 Y17.43
M5 ; Pen Up
G1 X54.45 Y17.43
M3 ; Pen Down
G1 X52.72 Y17.43
M5 ; Pen Up
G1 X50.89 Y17.43
M3 ; Pen Down
G1 X48.85 Y17.43
M5 ; Pen Up
G1 X47.41 Y17.43
M3 ; Pen Down
G1 X41.46 Y17.43
M5 ; Pen Up
G1 X36.84 Y17.43
M3 ; Pen Down
G1 X31.25 Y17.43
M5 ; Pen Up
G1 X29.36 Y17.43
M3 ; Pen Down
G1 X28.44 Y17.43
M5 ; Pen Up
G1 X25.92 Y17.43
M3 ; Pen Down
G1 X24.97 Y17.43
M5 ; Pen Up
G1 X23.01 Y17.43
M3 ; Pen Down
G1 X17.57 Y17.43
M5 ; Pen Up
G1 X12.79 Y17.43
M3 ; Pen Down
G1 X6.99 Y17.43
M5 ; Pen Up
G1 X6.99 Y17.93
M3 ; Pen Down
G1 X12.54 Y17.93
M5 ; Pen Up
G1 X21.23 Y17.93
M3 ; Pen Down
G1 X23.15 Y17.93
M5 ; Pen Up
G1 X24.66 Y17.93
M3 ; Pen Down
G1 X25.53 Y17.93
M5 ; Pen Up
G1 X25.96 Y17.93
M3 ; Pen Down
G1 X26.41 Y17.93
M5 ; Pen Up
G1 X28.04 Y17.93
M3 ; Pen Down
G1 X29.70 Y17.93
M5 ; Pen Up
G1 X31.15 Y17.93
M3 ; Pen Down
G1 X32.88 Y17.93
M5 ; Pen Up
G1 X41.86 Y17.93
M3 ; Pen Down
G1 X47.41 Y17.93
M5 ; Pen Up
G1 X48.85 Y17.93
M3 ; Pen Down
G1 X50.90 Y17.93
M5 ; Pen Up
G1 X53.17 Y17.93
M3 ; Pen Down
G1 X54.72 Y17.93
M5 ; Pen Up
G1 X58.02 Y17.93
M3 ; Pen Down
G1 X59.21 Y17.93
M5 ; Pen Up
G1 X61.93 Y17.93
M3 ; Pen Down
G1 X63.43 Y17.93
M5 ; Pen Up
G1 X66.58 Y17.93
M3 ; Pen Down
G1 X68.00 Y17.93
M5 ; Pen Up
G1 X70.89 Y17.93
M3 ; Pen Down
G1 X71.91 Y17.93
M5 ; Pen Up
G1 X74.37 Y17.93
M3 ; Pen Down
G1 X76.10 Y17.93
M5 ; Pen Up
G1 X76.55 Y17.93
M3 ; Pen Down
G1 X78.65 Y17.93
M5 ; Pen Up
G1 X81.77 Y17.93
M3 ; Pen Down
G1 X85.28 Y17.93
M5 ; Pen Up
G1 X87.32 Y17.93
M3 ; Pen Down
G1 X89.35 Y17.93
M5 ; Pen Up
G1 X90.66 Y17.93
M3 ; Pen Down
G1 X93.53 Y17.93
M5 ; Pen Up
G1 X95.82 Y17.93
M3 ; Pen Down
G1 X98.89 Y17.93
M5 ; Pen Up
G1 X100.32 Y17.93
M3 ; Pen Down
G1 X101.47 Y17.93
M5 ; Pen Up
G1 X103.16 Y17.93
M3 ; Pen Down
G1 X107.74 Y17.93
M5 ; Pen Up
G1 X108.09 Y17.93
M3 ; Pen Down
G1 X109.49 Y17.93
M5 ; Pen Up
G1 X112.22 Y17.93
M3 ; Pen Down
G1 X113.57 Y17.93
M5 ; Pen Up
G1 X114.03 Y17.93
M3 ; Pen Down
G1 X120.85 Y17.93
M5 ; Pen Up
G1 X123.12 Y17.93
M3 ; Pen Down
G1 X126.08 Y17.93
M5 ; Pen Up
G1 X127.69 Y17.93
M3 ; Pen Down
G1 X131.15 Y17.93
M5 ; Pen Up
G1 X132.61 Y17.93
M3 ; Pen Down
G1 X143.79 Y17.93
M5 ; Pen Up
G1 X149.34 Y17.93
M3 ; Pen Down
G1 X151.56 Y17.93
M5 ; Pen Up
G1 X154.48 Y17.93
M3 ; Pen Down
G1 X158.46 Y17.93
M5 ; Pen Up
G1 X164.71 Y17.93
M3 ; Pen Down
G1 X167.81 Y17.93
M5 ; Pen Up
G1 X168.54 Y17.93
M3 ; Pen Down
G1 X169.07 Y17.93
M5 ; Pen Up
G1 X169.81 Y17.93
M3 ; Pen Down
G1 X172.99 Y17.93
M5 ; Pen Up
G1 X173.00 Y18.43
M3 ; Pen Down
G1 X170.03 Y18.43
M5 ; Pen Up
G1 X167.38 Y18.43
M3 ; Pen Down
G1 X164.29 Y18.43
M5 ; Pen Up
G1 X158.22 Y18.43
M3 ; Pen Down
G1 X154.76 Y18.43
M5 ; Pen Up
G1 X151.54 Y18.43
M3 ; Pen Down
G1 X149.11 Y18.43
M5 ; Pen Up
G1 X143.30 Y18.43
M3 ; Pen Down
G1 X138.95 Y18.43
M5 ; Pen Up
G1 X135.39 Y18.43
M3 ; Pen Down
G1 X132.57 Y18.43
M5 ; Pen Up
G1 X131.12 Y18.43
M3 ; Pen Down
G1 X128.13 Y18.43
M5 ; Pen Up
G1 X125.70 Y18.43
M3 ; Pen Down
G1 X123.29 Y18.43
M5 ; Pen Up
G1 X120.82 Y18.43
M3 ; Pen Down
G1 X112.55 Y18.43
M5 ; Pen Up
G1 X109.20 Y18.43
M3 ; Pen Down
G1 X106.46 Y18.43
M5 ; Pen Up
G1 X106.10 Y18.43
M3 ; Pen Down
G1 X100.76 Y18.43
M5 ; Pen Up
G1 X98.51 Y18.43
M3 ; Pen Down
G1 X95.99 Y18.43
M5 ; Pen Up
G1 X93.41 Y18.43
M3 ; Pen Down
G1 X90.65 Y18.43
M5 ; Pen Up
G1 X89.32 Y18.43
M3 ; Pen Down
G1 X87.27 Y18.43
M5 ; Pen Up
G1 X86.04 Y18.43
M3 ; Pen Down
G1 X83.96 Y18.43
M5 ; Pen Up
G1 X82.82 Y18.43
M3 ; Pen Down
G1 X81.75 Y18.43
M5 ; Pen Up
G1 X78.62 Y18.43
M3 ; Pen Down
G1 X76.87 Y18.43
M5 ; Pen Up
G1 X75.91 Y18.43
M3 ; Pen Down
G1 X73.99 Y18.43
M5 ; Pen Up
G1 X72.29 Y18.43
M3 ; Pen Down
G1 X71.05 Y18.43
M5 ; Pen Up
G1 X67.95 Y18.43
M3 ; Pen Down
G1 X66.13 Y18.43
M5 ; Pen Up
G1 X63.37 Y18.43
M3 ; Pen Down
G1 X61.75 Y18.43
M5 ; Pen Up
G1 X59.36 Y18.43
M3 ; Pen Down
G1 X58.09 Y18.43
M5 ; Pen Up
G1 X55.27 Y18.43
M3 ; Pen Down
G1 X53.74 Y18.43
M5 ; Pen Up
G1 X51.00 Y18.43
M3 ; Pen Down
G1 X48.85 Y18.43
M5 ; Pen Up
G1 X47.41 Y18.43
M3 ; Pen Down
G1 X42.18 Y18.43
M5 ; Pen Up
G1 X31.86 Y18.43
M3 ; Pen Down
G1 X31.05 Y18.43
M5 ; Pen Up
G1 X29.66 Y18.43
M3 ; Pen Down
G1 X29.05 Y18.43
M5 ; Pen Up
G1 X28.52 Y18.43
M3 ; Pen Down
G1 X27.99 Y18.43
M5 ; Pen Up
G1 X26.45 Y18.43
M3 ; Pen Down
G1 X26.10 Y18.43
M5 ; Pen Up
G1 X25.38 Y18.43
M3 ; Pen Down
G1 X24.72 Y18.43
M5 ; Pen Up
G1 X23.36 Y18.43
M3 ; Pen Down
G1 X22.37 Y18.43
M5 ; Pen Up
G1 X12.26 Y18.43
M3 ; Pen Down
G1 X6.99 Y18.43
M5 ; Pen Up
G1 X6.99 Y18.93
M3 ; Pen Down
G1 X12.05 Y18.93
M5 ; Pen Up
G1 X17.49 Y18.93
M3 ; Pen Down
G1 X21.51 Y18.93
M5 ; Pen Up
G1 X22.94 Y18.93
M3 ; Pen Down
G1 X23.37 Y18.93
M5 ; Pen Up
G1 X26.05 Y18.93
M3 ; Pen Down
G1 X26.34 Y18.93
M5 ; Pen Up
G1 X28.08 Y18.93
M3 ; Pen Down
G1 X28.39 Y18.93
M5 ; Pen Up
G1 X32.87 Y18.93
M3 ; Pen Down
G1 X36.73 Y18.93
M5 ; Pen Up
G1 X42.35 Y18.93
M3 ; Pen Down
G1 X47.41 Y18.93
M5 ; Pen Up
G1 X48.85 Y18.93
M3 ; Pen Down
G1 X51.34 Y18.93
M5 ; Pen Up
G1 X54.21 Y18.93
M3 ; Pen Down
G1 X55.77 Y18.93
M5 ; Pen Up
G1 X58.15 Y18.93
M3 ; Pen Down
G1 X59.44 Y18.93
M5 ; Pen Up
G1 X61.40 Y18.93
M3 ; Pen Down
G1 X63.43 Y18.93
M5 ; Pen Up
G1 X65.78 Y18.93
M3 ; Pen Down
G1 X67.92 Y18.93
M5 ; Pen Up
G1 X71.40 Y18.93
M3 ; Pen Down
G1 X72.46 Y18.93
M5 ; Pen Up
G1 X73.58 Y18.93
M3 ; Pen Down
G1 X75.84 Y18.93
M5 ; Pen Up
G1 X77.29 Y18.93
M3 ; Pen Down
G1 X78.86 Y18.93
M5 ; Pen Up
G1 X81.72 Y18.93
M3 ; Pen Down
G1 X82.69 Y18.93
M5 ; Pen Up
G1 X84.53 Y18.93
M3 ; Pen Down
G1 X89.30 Y18.93
M5 ; Pen Up
G1 X90.65 Y18.93
M3 ; Pen Down
G1 X93.36 Y18.93
M5 ; Pen Up
G1 X96.06 Y18.93
M3 ; Pen Down
G1 X98.32 Y18.93
M5 ; Pen Up
G1 X100.87 Y18.93
M3 ; Pen Down
G1 X105.45 Y18.93
M5 ; Pen Up
G1 X107.27 Y18.93
M3 ; Pen Down
G1 X109.09 Y18.93
M5 ; Pen Up
G1 X112.69 Y18.93
M3 ; Pen Down
G1 X114.41 Y18.93
M5 ; Pen Up
G1 X116.29 Y18.93
M3 ; Pen Down
G1 X120.70 Y18.93
M5 ; Pen Up
G1 X123.38 Y18.93
M3 ; Pen Down
G1 X125.62 Y18.93
M5 ; Pen Up
G1 X128.26 Y18.93
M3 ; Pen Down
G1 X131.09 Y18.93
M5 ; Pen Up
G1 X132.57 Y18.93
M3 ; Pen Down
G1 X135.19 Y18.93
M5 ; Pen Up
G1 X139.07 Y18.93
M3 ; Pen Down
G1 X142.76 Y18.93
M5 ; Pen Up
G1 X148.91 Y18.93
M3 ; Pen Down
G1 X151.53 Y18.93
M5 ; Pen Up
G1 X155.19 Y18.93
M3 ; Pen Down
G1 X157.98 Y18.93
M5 ; Pen Up
G1 X163.94 Y18.93
M3 ; Pen Down
G1 X165.61 Y18.93
M5 ; Pen Up
G1 X165.74 Y18.93
M3 ; Pen Down
G1 X167.44 Y18.93
M5 ; Pen Up
G1 X170.09 Y18.93
M3 ; Pen Down
G1 X173.00 Y18.93
M5 ; Pen Up
G1 X173.00 Y19.42
M3 ; Pen Down
G1 X169.97 Y19.42
M5 ; Pen Up
G1 X167.96 Y19.42
M3 ; Pen Down
G1 X166.08 Y19.42
M5 ; Pen Up
G1 X164.96 Y19.42
M3 ; Pen Down
G1 X163.53 Y19.42
M5 ; Pen Up
G1 X158.06 Y19.42
M3 ; Pen Down
G1 X155.47 Y19.42
M5 ; Pen Up
G1 X151.51 Y19.42
M3 ; Pen Down
G1 X148.66 Y19.42
M5 ; Pen Up
G1 X142.27 Y19.42
M3 ; Pen Down
G1 X132.63 Y19.42
M5 ; Pen Up
G1 X131.09 Y19.42
M3 ; Pen Down
G1 X128.22 Y19.42
M5 ; Pen Up
G1 X125.67 Y19.42
M3 ; Pen Down
G1 X123.33 Y19.42
M5 ; Pen Up
G1 X120.60 Y19.42
M3 ; Pen Down
G1 X118.51 Y19.42
M5 ; Pen Up
G1 X117.57 Y19.42
M3 ; Pen Down
G1 X116.60 Y19.42
M5 ; Pen Up
G1 X113.95 Y19.42
M3 ; Pen Down
G1 X112.70 Y19.42
M5 ; Pen Up
G1 X109.05 Y19.42
M3 ; Pen Down
G1 X107.77 Y19.42
M5 ; Pen Up
G1 X105.11 Y19.42
M3 ; Pen Down
G1 X103.87 Y19.42
M5 ; Pen Up
G1 X103.22 Y19.42
M3 ; Pen Down
G1 X100.86 Y19.42
M5 ; Pen Up
G1 X98.31 Y19.42
M3 ; Pen Down
G1 X95.94 Y19.42
M5 ; Pen Up
G1 X93.44 Y19.42
M3 ; Pen Down
G1 X90.66 Y19.42
M5 ; Pen Up
G1 X89.32 Y19.42
M3 ; Pen Down
G1 X85.05 Y19.42
M5 ; Pen Up
G1 X82.69 Y19.42
M3 ; Pen Down
G1 X81.69 Y19.42
M5 ; Pen Up
G1 X79.25 Y19.42
M3 ; Pen Down
G1 X77.70 Y19.42
M5 ; Pen Up
G1 X75.76 Y19.42
M3 ; Pen Down
G1 X71.63 Y19.42
M5 ; Pen Up
G1 X67.89 Y19.42
M3 ; Pen Down
G1 X65.31 Y19.42
M5 ; Pen Up
G1 X63.57 Y19.42
M3 ; Pen Down
G1 X61.04 Y19.42
M5 ; Pen Up
G1 X59.49 Y19.42
M3 ; Pen Down
G1 X58.19 Y19.42
M5 ; Pen Up
G1 X56.23 Y19.42
M3 ; Pen Down
G1 X54.71 Y19.42
M5 ; Pen Up
G1 X52.48 Y19.42
M3 ; Pen Down
G1 X48.85 Y19.42
M5 ; Pen Up
G1 X47.41 Y19.42
M3 ; Pen Down
G1 X42.42 Y19.42
M5 ; Pen Up
G1 X39.81 Y19.42
M3 ; Pen Down
G1 X39.31 Y19.42
M5 ; Pen Up
G1 X37.65 Y19.42
M3 ; Pen Down
G1 X31.76 Y19.42
M5 ; Pen Up
G1 X30.86 Y19.42
M3 ; Pen Down
G1 X30.41 Y19.42
M5 ; Pen Up
G1 X28.47 Y19.42
M3 ; Pen Down
G1 X28.20 Y19.42
M5 ; Pen Up
G1 X26.28 Y19.42
M3 ; Pen Down
G1 X25.42 Y19.42
M5 ; Pen Up
G1 X23.93 Y19.42
M3 ; Pen Down
G1 X23.71 Y19.42
M5 ; Pen Up
G1 X22.46 Y19.42
M3 ; Pen Down
G1 X16.75 Y19.42
M5 ; Pen Up
G1 X15.14 Y19.42
M3 ; Pen Down
G1 X14.55 Y19.42
M5 ; Pen Up
G1 X11.93 Y19.42
M3 ; Pen Down
G1 X6.99 Y19.42
M5 ; Pen Up
G1 X6.99 Y19.92
M3 ; Pen Down
G1 X12.11 Y19.92
M5 ; Pen Up
G1 X14.70 Y19.92
M3 ; Pen Down
G1 X15.01 Y19.92
M5 ; Pen Up
G1 X16.02 Y19.92
M3 ; Pen Down
G1 X23.18 Y19.92
M5 ; Pen Up
G1 X24.08 Y19.92
M3 ; Pen Down
G1 X25.99 Y19.92
M5 ; Pen Up
G1 X28.43 Y19.92
M3 ; Pen Down
G1 X30.38 Y19.92
M5 ; Pen Up
G1 X31.15 Y19.92
M3 ; Pen Down
G1 X38.24 Y19.92
M5 ; Pen Up
G1 X39.44 Y19.92
M3 ; Pen Down
G1 X39.76 Y19.92
M5 ; Pen Up
G1 X42.32 Y19.92
M3 ; Pen Down
G1 X47.41 Y19.92
M5 ; Pen Up
G1 X48.85 Y19.92
M3 ; Pen Down
G1 X54.53 Y19.92
M5 ; Pen Up
G1 X55.04 Y19.92
M3 ; Pen Down
G1 X56.61 Y19.92
M5 ; Pen Up
G1 X58.22 Y19.92
M3 ; Pen Down
G1 X59.56 Y19.92
M5 ; Pen Up
G1 X60.70 Y19.92
M3 ; Pen Down
G1 X63.89 Y19.92
M5 ; Pen Up
G1 X65.03 Y19.92
M3 ; Pen Down
G1 X67.85 Y19.92
M5 ; Pen Up
G1 X71.80 Y19.92
M3 ; Pen Down
G1 X75.63 Y19.92
M5 ; Pen Up
G1 X78.29 Y19.92
M3 ; Pen Down
G1 X79.88 Y19.92
M5 ; Pen Up
G1 X81.72 Y19.92
M3 ; Pen Down
G1 X82.91 Y19.92
M5 ; Pen Up
G1 X85.92 Y19.92
M3 ; Pen Down
G1 X89.37 Y19.92
M5 ; Pen Up
G1 X90.70 Y19.92
M3 ; Pen Down
G1 X93.82 Y19.92
M5 ; Pen Up
G1 X95.66 Y19.92
M3 ; Pen Down
G1 X98.29 Y19.92
M5 ; Pen Up
G1 X100.98 Y19.92
M3 ; Pen Down
G1 X105.08 Y19.92
M5 ; Pen Up
G1 X107.98 Y19.92
M3 ; Pen Down
G1 X109.08 Y19.92
M5 ; Pen Up
G1 X112.57 Y19.92
M3 ; Pen Down
G1 X113.63 Y19.92
M5 ; Pen Up
G1 X116.67 Y19.92
M3 ; Pen Down
G1 X121.18 Y19.92
M5 ; Pen Up
G1 X122.73 Y19.92
M3 ; Pen Down
G1 X125.62 Y19.92
M5 ; Pen Up
G1 X128.25 Y19.92
M3 ; Pen Down
G1 X131.16 Y19.92
M5 ; Pen Up
G1 X132.59 Y19.92
M3 ; Pen Down
G1 X141.78 Y19.92
M5 ; Pen Up
G1 X148.50 Y19.92
M3 ; Pen Down
G1 X151.54 Y19.92
M5 ; Pen Up
G1 X155.94 Y19.92
M3 ; Pen Down
G1 X158.44 Y19.92
M5 ; Pen Up
G1 X162.99 Y19.92
M3 ; Pen Down
G1 X164.63 Y19.92
M5 ; Pen Up
G1 X166.53 Y19.92
M3 ; Pen Down
G1 X172.99 Y19.92
M5 ; Pen Up
G1 X172.99 Y20.42
M3 ; Pen Down
G1 X169.95 Y20.42
M5 ; Pen Up
G1 X168.82 Y20.42
M3 ; Pen Down
G1 X166.75 Y20.42
M5 ; Pen Up
G1 X164.16 Y20.42
M3 ; Pen Down
G1 X162.66 Y20.42
M5 ; Pen Up
G1 X158.63 Y20.42
M3 ; Pen Down
G1 X156.36 Y20.42
M5 ; Pen Up
G1 X151.56 Y20.42
M3 ; Pen Down
G1 X148.29 Y20.42
M5 ; Pen Up
G1 X141.35 Y20.42
M3 ; Pen Down
G1 X138.27 Y20.42
M5 ; Pen Up
G1 X135.12 Y20.42
M3 ; Pen Down
G1 X132.55 Y20.42
M5 ; Pen Up
G1 X131.16 Y20.42
M3 ; Pen Down
G1 X127.67 Y20.42
M5 ; Pen Up
G1 X126.22 Y20.42
M3 ; Pen Down
G1 X125.04 Y20.42
M5 ; Pen Up
G1 X123.55 Y20.42
M3 ; Pen Down
G1 X116.59 Y20.42
M5 ; Pen Up
G1 X113.58 Y20.42
M3 ; Pen Down
G1 X112.54 Y20.42
M5 ; Pen Up
G1 X109.14 Y20.42
M3 ; Pen Down
G1 X108.12 Y20.42
M5 ; Pen Up
G1 X105.18 Y20.42
M3 ; Pen Down
G1 X100.39 Y20.42
M5 ; Pen Up
G1 X98.78 Y20.42
M3 ; Pen Down
G1 X97.48 Y20.42
M5 ; Pen Up
G1 X96.47 Y20.42
M3 ; Pen Down
G1 X90.70 Y20.42
M5 ; Pen Up
G1 X89.33 Y20.42
M3 ; Pen Down
G1 X86.72 Y20.42
M5 ; Pen Up
G1 X82.99 Y20.42
M3 ; Pen Down
G1 X81.78 Y20.42
M5 ; Pen Up
G1 X80.45 Y20.42
M3 ; Pen Down
G1 X78.31 Y20.42
M5 ; Pen Up
G1 X75.54 Y20.42
M3 ; Pen Down
G1 X71.96 Y20.42
M5 ; Pen Up
G1 X67.80 Y20.42
M3 ; Pen Down
G1 X66.48 Y20.42
M5 ; Pen Up
G1 X66.08 Y20.42
M3 ; Pen Down
G1 X64.63 Y20.42
M5 ; Pen Up
G1 X64.08 Y20.42
M3 ; Pen Down
G1 X62.82 Y20.42
M5 ; Pen Up
G1 X61.95 Y20.42
M3 ; Pen Down
G1 X60.34 Y20.42
M5 ; Pen Up
G1 X59.57 Y20.42
M3 ; Pen Down
G1 X58.20 Y20.42
M5 ; Pen Up
G1 X57.02 Y20.42
M3 ; Pen Down
G1 X48.86 Y20.42
M5 ; Pen Up
G1 X47.41 Y20.42
M3 ; Pen Down
G1 X42.02 Y20.42
M5 ; Pen Up
G1 X38.66 Y20.42
M3 ; Pen Down
G1 X30.57 Y20.42
M5 ; Pen Up
G1 X29.88 Y20.42
M3 ; Pen Down
G1 X29.04 Y20.42
M5 ; Pen Up
G1 X25.43 Y20.42
M3 ; Pen Down
G1 X24.48 Y20.42
M5 ; Pen Up
G1 X23.62 Y20.42
M3 ; Pen Down
G1 X15.61 Y20.42
M5 ; Pen Up
G1 X12.26 Y20.42
M3 ; Pen Down
G1 X6.99 Y20.42
M5 ; Pen Up
G1 X6.99 Y20.92
M3 ; Pen Down
G1 X12.80 Y20.92
M5 ; Pen Up
G1 X15.26 Y20.92
M3 ; Pen Down
G1 X16.12 Y20.92
M5 ; Pen Up
G1 X18.62 Y20.92
M3 ; Pen Down
G1 X23.82 Y20.92
M5 ; Pen Up
G1 X26.04 Y20.92
M3 ; Pen Down
G1 X26.62 Y20.92
M5 ; Pen Up
G1 X27.93 Y20.92
M3 ; Pen Down
G1 X28.41 Y20.92
M5 ; Pen Up
G1 X30.51 Y20.92
M3 ; Pen Down
G1 X35.67 Y20.92
M5 ; Pen Up
G1 X37.86 Y20.92
M3 ; Pen Down
G1 X39.09 Y20.92
M5 ; Pen Up
G1 X41.61 Y20.92
M3 ; Pen Down
G1 X47.41 Y20.92
M5 ; Pen Up
G1 X48.86 Y20.92
M3 ; Pen Down
G1 X52.59 Y20.92
M5 ; Pen Up
G1 X54.56 Y20.92
M3 ; Pen Down
G1 X57.29 Y20.92
M5 ; Pen Up
G1 X58.15 Y20.92
M3 ; Pen Down
G1 X59.72 Y20.92
M5 ; Pen Up
G1 X60.08 Y20.92
M3 ; Pen Down
G1 X61.81 Y20.92
M5 ; Pen Up
G1 X63.06 Y20.92
M3 ; Pen Down
G1 X65.82 Y20.92
M5 ; Pen Up
G1 X66.62 Y20.92
M3 ; Pen Down
G1 X67.80 Y20.92
M5 ; Pen Up
G1 X71.71 Y20.92
M3 ; Pen Down
G1 X73.34 Y20.92
M5 ; Pen Up
G1 X74.16 Y20.92
M3 ; Pen Down
G1 X75.49 Y20.92
M5 ; Pen Up
G1 X77.37 Y20.92
M3 ; Pen Down
G1 X80.90 Y20.92
M5 ; Pen Up
G1 X81.74 Y20.92
M3 ; Pen Down
G1 X83.06 Y20.92
M5 ; Pen Up
G1 X87.24 Y20.92
M3 ; Pen Down
G1 X89.33 Y20.92
M5 ; Pen Up
G1 X90.64 Y20.92
M3 ; Pen Down
G1 X92.69 Y20.92
M5 ; Pen Up
G1 X93.29 Y20.92
M3 ; Pen Down
G1 X95.83 Y20.92
M5 ; Pen Up
G1 X98.07 Y20.92
M3 ; Pen Down
G1 X102.55 Y20.92
M5 ; Pen Up
G1 X103.58 Y20.92
M3 ; Pen Down
G1 X105.29 Y20.92
M5 ; Pen Up
G1 X108.20 Y20.92
M3 ; Pen Down
G1 X109.21 Y20.92
M5 ; Pen Up
G1 X112.45 Y20.92
M3 ; Pen Down
G1 X113.52 Y20.92
M5 ; Pen Up
G1 X116.46 Y20.92
M3 ; Pen Down
G1 X118.21 Y20.92
M5 ; Pen Up
G1 X119.20 Y20.92
M3 ; Pen Down
G1 X123.07 Y20.92
M5 ; Pen Up
G1 X125.43 Y20.92
M3 ; Pen Down
G1 X128.31 Y20.92
M5 ; Pen Up
G1 X128.73 Y20.92
M3 ; Pen Down
G1 X131.15 Y20.92
M5 ; Pen Up
G1 X132.60 Y20.92
M3 ; Pen Down
G1 X135.05 Y20.92
M5 ; Pen Up
G1 X138.24 Y20.92
M3 ; Pen Down
G1 X140.94 Y20.92
M5 ; Pen Up
G1 X148.12 Y20.92
M3 ; Pen Down
G1 X151.59 Y20.92
M5 ; Pen Up
G1 X156.60 Y20.92
M3 ; Pen Down
G1 X158.99 Y20.92
M5 ; Pen Up
G1 X162.23 Y20.92
M3 ; Pen Down
G1 X163.78 Y20.92
M5 ; Pen Up
G1 X167.10 Y20.92
M3 ; Pen Down
G1 X168.93 Y20.92
M5 ; Pen Up
G1 X170.13 Y20.92
M3 ; Pen Down
G1 X172.99 Y20.92
M5 ; Pen Up
G1 X172.99 Y21.42
M3 ; Pen Down
G1 X170.05 Y21.42
M5 ; Pen Up
G1 X169.34 Y21.42
M3 ; Pen Down
G1 X167.41 Y21.42
M5 ; Pen Up
G1 X163.42 Y21.42
M3 ; Pen Down
G1 X161.82 Y21.42
M5 ; Pen Up
G1 X159.18 Y21.42
M3 ; Pen Down
G1 X156.93 Y21.42
M5 ; Pen Up
G1 X151.63 Y21.42
M3 ; Pen Down
G1 X147.91 Y21.42
M5 ; Pen Up
G1 X140.61 Y21.42
M3 ; Pen Down
G1 X137.71 Y21.42
M5 ; Pen Up
G1 X135.20 Y21.42
M3 ; Pen Down
G1 X132.64 Y21.42
M5 ; Pen Up
G1 X131.16 Y21.42
M3 ; Pen Down
G1 X129.02 Y21.42
M5 ; Pen Up
G1 X128.01 Y21.42
M3 ; Pen Down
G1 X125.55 Y21.42
M5 ; Pen Up
G1 X122.94 Y21.42
M3 ; Pen Down
G1 X119.61 Y21.42
M5 ; Pen Up
G1 X117.49 Y21.42
M3 ; Pen Down
G1 X116.16 Y21.42
M5 ; Pen Up
G1 X113.43 Y21.42
M3 ; Pen Down
G1 X112.32 Y21.42
M5 ; Pen Up
G1 X109.32 Y21.42
M3 ; Pen Down
G1 X108.27 Y21.42
M5 ; Pen Up
G1 X105.44 Y21.42
M3 ; Pen Down
G1 X104.16 Y21.42
M5 ; Pen Up
G1 X102.13 Y21.42
M3 ; Pen Down
G1 X98.26 Y21.42
M5 ; Pen Up
G1 X95.69 Y21.42
M3 ; Pen Down
G1 X93.36 Y21.42
M5 ; Pen Up
G1 X92.64 Y21.42
M3 ; Pen Down
G1 X90.63 Y21.42
M5 ; Pen Up
G1 X89.34 Y21.42
M3 ; Pen Down
G1 X87.32 Y21.42
M5 ; Pen Up
G1 X83.12 Y21.42
M3 ; Pen Down
G1 X79.62 Y21.42
M5 ; Pen Up
G1 X78.72 Y21.42
M3 ; Pen Down
G1 X76.72 Y21.42
M5 ; Pen Up
G1 X75.47 Y21.42
M3 ; Pen Down
G1 X74.13 Y21.42
M5 ; Pen Up
G1 X72.96 Y21.42
M3 ; Pen Down
G1 X70.85 Y21.42
M5 ; Pen Up
G1 X67.78 Y21.42
M3 ; Pen Down
G1 X66.58 Y21.42
M5 ; Pen Up
G1 X65.57 Y21.42
M3 ; Pen Down
G1 X63.25 Y21.42
M5 ; Pen Up
G1 X61.89 Y21.42
M3 ; Pen Down
G1 X55.76 Y21.42
M5 ; Pen Up
G1 X52.73 Y21.42
M3 ; Pen Down
G1 X51.81 Y21.42
M5 ; Pen Up
G1 X50.91 Y21.42
M3 ; Pen Down
G1 X48.86 Y21.42
M5 ; Pen Up
G1 X47.41 Y21.42
M3 ; Pen Down
G1 X40.39 Y21.42
M5 ; Pen Up
G1 X39.26 Y21.42
M3 ; Pen Down
G1 X38.38 Y21.42
M5 ; Pen Up
G1 X38.08 Y21.42
M3 ; Pen Down
G1 X36.87 Y21.42
M5 ; Pen Up
G1 X35.31 Y21.42
M3 ; Pen Down
G1 X30.75 Y21.42
M5 ; Pen Up
G1 X28.92 Y21.42
M3 ; Pen Down
G1 X27.89 Y21.42
M5 ; Pen Up
G1 X26.63 Y21.42
M3 ; Pen Down
G1 X25.57 Y21.42
M5 ; Pen Up
G1 X23.71 Y21.42
M3 ; Pen Down
G1 X19.11 Y21.42
M5 ; Pen Up
G1 X17.65 Y21.42
M3 ; Pen Down
G1 X16.56 Y21.42
M5 ; Pen Up
G1 X16.01 Y21.42
M3 ; Pen Down
G1 X15.18 Y21.42
M5 ; Pen Up
G1 X13.96 Y21.42
M3 ; Pen Down
G1 X6.99 Y21.42
M5 ; Pen Up
G1 X6.99 Y21.91
M3 ; Pen Down
G1 X13.89 Y21.91
M5 ; Pen Up
G1 X15.33 Y21.91
M3 ; Pen Down
G1 X17.85 Y21.91
M5 ; Pen Up
G1 X19.44 Y21.91
M3 ; Pen Down
G1 X21.11 Y21.91
M5 ; Pen Up
G1 X25.28 Y21.91
M3 ; Pen Down
G1 X26.25 Y21.91
M5 ; Pen Up
G1 X28.09 Y21.91
M3 ; Pen Down
G1 X29.24 Y21.91
M5 ; Pen Up
G1 X33.47 Y21.91
M3 ; Pen Down
G1 X35.01 Y21.91
M5 ; Pen Up
G1 X36.47 Y21.91
M3 ; Pen Down
G1 X39.07 Y21.91
M5 ; Pen Up
G1 X40.53 Y21.91
M3 ; Pen Down
G1 X47.41 Y21.91
M5 ; Pen Up
G1 X48.86 Y21.91
M3 ; Pen Down
G1 X50.95 Y21.91
M5 ; Pen Up
G1 X52.07 Y21.91
M3 ; Pen Down
G1 X53.19 Y21.91
M5 ; Pen Up
G1 X56.06 Y21.91
M3 ; Pen Down
G1 X62.06 Y21.91
M5 ; Pen Up
G1 X63.41 Y21.91
M3 ; Pen Down
G1 X65.31 Y21.91
M5 ; Pen Up
G1 X66.48 Y21.91
M3 ; Pen Down
G1 X67.68 Y21.91
M5 ; Pen Up
G1 X69.89 Y21.91
M3 ; Pen Down
G1 X72.65 Y21.91
M5 ; Pen Up
G1 X73.97 Y21.91
M3 ; Pen Down
G1 X75.52 Y21.91
M5 ; Pen Up
G1 X76.01 Y21.91
M3 ; Pen Down
G1 X77.76 Y21.91
M5 ; Pen Up
G1 X80.24 Y21.91
M3 ; Pen Down
G1 X83.17 Y21.91
M5 ; Pen Up
G1 X87.24 Y21.91
M3 ; Pen Down
G1 X89.33 Y21.91
M5 ; Pen Up
G1 X90.68 Y21.91
M3 ; Pen Down
G1 X92.59 Y21.91
M5 ; Pen Up
G1 X93.19 Y21.91
M3 ; Pen Down
G1 X95.69 Y21.91
M5 ; Pen Up
G1 X98.29 Y21.91
M3 ; Pen Down
G1 X101.98 Y21.91
M5 ; Pen Up
G1 X104.45 Y21.91
M3 ; Pen Down
G1 X105.73 Y21.91
M5 ; Pen Up
G1 X108.36 Y21.91
M3 ; Pen Down
G1 X109.48 Y21.91
M5 ; Pen Up
G1 X112.23 Y21.91
M3 ; Pen Down
G1 X113.33 Y21.91
M5 ; Pen Up
G1 X115.97 Y21.91
M3 ; Pen Down
G1 X117.14 Y21.91
M5 ; Pen Up
G1 X119.71 Y21.91
M3 ; Pen Down
G1 X123.00 Y21.91
M5 ; Pen Up
G1 X125.54 Y21.91
M3 ; Pen Down
G1 X127.84 Y21.91
M5 ; Pen Up
G1 X128.94 Y21.91
M3 ; Pen Down
G1 X131.15 Y21.91
M5 ; Pen Up
G1 X132.60 Y21.91
M3 ; Pen Down
G1 X140.21 Y21.91
M5 ; Pen Up
G1 X147.71 Y21.91
M3 ; Pen Down
G1 X151.67 Y21.91
M5 ; Pen Up
G1 X157.21 Y21.91
M3 ; Pen Down
G1 X159.48 Y21.91
M5 ; Pen Up
G1 X161.43 Y21.91
M3 ; Pen Down
G1 X163.02 Y21.91
M5 ; Pen Up
G1 X167.78 Y21.91
M3 ; Pen Down
G1 X173.00 Y21.91
M5 ; Pen Up
G1 X172.99 Y22.41
M3 ; Pen Down
G1 X168.08 Y22.41
M5 ; Pen Up
G1 X162.54 Y22.41
M3 ; Pen Down
G1 X161.00 Y22.41
M5 ; Pen Up
G1 X159.78 Y22.41
M3 ; Pen Down
G1 X157.56 Y22.41
M5 ; Pen Up
G1 X151.72 Y22.41
M3 ; Pen Down
G1 X150.32 Y22.41
M5 ; Pen Up
G1 X149.64 Y22.41
M3 ; Pen Down
G1 X147.57 Y22.41
M5 ; Pen Up
G1 X139.91 Y22.41
M3 ; Pen Down
G1 X137.28 Y22.41
M5 ; Pen Up
G1 X135.33 Y22.41
M3 ; Pen Down
G1 X132.61 Y22.41
M5 ; Pen Up
G1 X131.15 Y22.41
M3 ; Pen Down
G1 X128.96 Y22.41
M5 ; Pen Up
G1 X127.84 Y22.41
M3 ; Pen Down
G1 X125.46 Y22.41
M5 ; Pen Up
G1 X123.02 Y22.41
M3 ; Pen Down
G1 X121.53 Y22.41
M5 ; Pen Up
G1 X120.58 Y22.41
M3 ; Pen Down
G1 X119.61 Y22.41
M5 ; Pen Up
G1 X116.86 Y22.41
M3 ; Pen Down
G1 X115.78 Y22.41
M5 ; Pen Up
G1 X113.18 Y22.41
M3 ; Pen Down
G1 X112.17 Y22.41
M5 ; Pen Up
G1 X109.58 Y22.41
M3 ; Pen Down
G1 X108.44 Y22.41
M5 ; Pen Up
G1 X105.97 Y22.41
M3 ; Pen Down
G1 X104.74 Y22.41
M5 ; Pen Up
G1 X102.03 Y22.41
M3 ; Pen Down
G1 X101.24 Y22.41
M5 ; Pen Up
G1 X100.28 Y22.41
M3 ; Pen Down
G1 X98.25 Y22.41
M5 ; Pen Up
G1 X95.73 Y22.41
M3 ; Pen Down
G1 X90.66 Y22.41
M5 ; Pen Up
G1 X89.34 Y22.41
M3 ; Pen Down
G1 X86.62 Y22.41
M5 ; Pen Up
G1 X83.29 Y22.41
M3 ; Pen Down
G1 X80.79 Y22.41
M5 ; Pen Up
G1 X76.89 Y22.41
M3 ; Pen Down
G1 X73.75 Y22.41
M5 ; Pen Up
G1 X72.30 Y22.41
M3 ; Pen Down
G1 X68.96 Y22.41
M5 ; Pen Up
G1 X67.64 Y22.41
M3 ; Pen Down
G1 X66.44 Y22.41
M5 ; Pen Up
G1 X65.14 Y22.41
M3 ; Pen Down
G1 X63.44 Y22.41
M5 ; Pen Up
G1 X62.18 Y22.41
M3 ; Pen Down
G1 X55.82 Y22.41
M5 ; Pen Up
G1 X53.39 Y22.41
M3 ; Pen Down
G1 X52.39 Y22.41
M5 ; Pen Up
G1 X51.02 Y22.41
M3 ; Pen Down
G1 X48.86 Y22.41
M5 ; Pen Up
G1 X47.41 Y22.41
M3 ; Pen Down
G1 X40.64 Y22.41
M5 ; Pen Up
G1 X39.38 Y22.41
M3 ; Pen Down
G1 X36.84 Y22.41
M5 ; Pen Up
G1 X30.79 Y22.41
M3 ; Pen Down
G1 X29.72 Y22.41
M5 ; Pen Up
G1 X24.70 Y22.41
M3 ; Pen Down
G1 X22.56 Y22.41
M5 ; Pen Up
G1 X19.55 Y22.41
M3 ; Pen Down
G1 X19.37 Y22.41
M5 ; Pen Up
G1 X17.51 Y22.41
M3 ; Pen Down
G1 X15.03 Y22.41
M5 ; Pen Up
G1 X13.68 Y22.41
M3 ; Pen Down
G1 X6.99 Y22.41
M5 ; Pen Up
G1 X6.99 Y22.91
M3 ; Pen Down
G1 X13.48 Y22.91
M5 ; Pen Up
G1 X14.81 Y22.91
M3 ; Pen Down
G1 X17.72 Y22.91
M5 ; Pen Up
G1 X21.43 Y22.91
M3 ; Pen Down
G1 X23.66 Y22.91
M5 ; Pen Up
G1 X30.88 Y22.91
M3 ; Pen Down
G1 X33.00 Y22.91
M5 ; Pen Up
G1 X36.73 Y22.91
M3 ; Pen Down
G1 X39.55 Y22.91
M5 ; Pen Up
G1 X40.86 Y22.91
M3 ; Pen Down
G1 X47.41 Y22.91
M5 ; Pen Up
G1 X48.86 Y22.91
M3 ; Pen Down
G1 X51.00 Y22.91
M5 ; Pen Up
G1 X52.56 Y22.91
M3 ; Pen Down
G1 X53.75 Y22.91
M5 ; Pen Up
G1 X55.38 Y22.91
M3 ; Pen Down
G1 X60.32 Y22.91
M5 ; Pen Up
G1 X60.88 Y22.91
M3 ; Pen Down
G1 X62.26 Y22.91
M5 ; Pen Up
G1 X63.27 Y22.91
M3 ; Pen Down
G1 X64.79 Y22.91
M5 ; Pen Up
G1 X66.45 Y22.91
M3 ; Pen Down
G1 X70.45 Y22.91
M5 ; Pen Up
G1 X70.62 Y22.91
M3 ; Pen Down
G1 X72.08 Y22.91
M5 ; Pen Up
G1 X73.73 Y22.91
M3 ; Pen Down
G1 X76.47 Y22.91
M5 ; Pen Up
G1 X81.41 Y22.91
M3 ; Pen Down
G1 X83.42 Y22.91
M5 ; Pen Up
G1 X85.79 Y22.91
M3 ; Pen Down
G1 X89.34 Y22.91
M5 ; Pen Up
G1 X90.66 Y22.91
M3 ; Pen Down
G1 X93.77 Y22.91
M5 ; Pen Up
G1 X94.89 Y22.91
M3 ; Pen Down
G1 X96.01 Y22.91
M5 ; Pen Up
G1 X97.83 Y22.91
M3 ; Pen Down
G1 X100.31 Y22.91
M5 ; Pen Up
G1 X100.83 Y22.91
M3 ; Pen Down
G1 X102.14 Y22.91
M5 ; Pen Up
G1 X105.05 Y22.91
M3 ; Pen Down
G1 X106.11 Y22.91
M5 ; Pen Up
G1 X108.51 Y22.91
M3 ; Pen Down
G1 X109.63 Y22.91
M5 ; Pen Up
G1 X112.13 Y22.91
M3 ; Pen Down
G1 X113.03 Y22.91
M5 ; Pen Up
G1 X115.46 Y22.91
M3 ; Pen Down
G1 X116.66 Y22.91
M5 ; Pen Up
G1 X119.42 Y22.91
M3 ; Pen Down
G1 X120.78 Y22.91
M5 ; Pen Up
G1 X121.33 Y22.91
M3 ; Pen Down
G1 X123.35 Y22.91
M5 ; Pen Up
G1 X125.02 Y22.91
M3 ; Pen Down
G1 X127.98 Y22.91
M5 ; Pen Up
G1 X129.06 Y22.91
M3 ; Pen Down
G1 X131.15 Y22.91
M5 ; Pen Up
G1 X132.60 Y22.91
M3 ; Pen Down
G1 X135.05 Y22.91
M5 ; Pen Up
G1 X137.21 Y22.91
M3 ; Pen Down
G1 X139.52 Y22.91
M5 ; Pen Up
G1 X147.32 Y22.91
M3 ; Pen Down
G1 X149.59 Y22.91
M5 ; Pen Up
G1 X150.47 Y22.91
M3 ; Pen Down
G1 X151.80 Y22.91
M5 ; Pen Up
G1 X157.79 Y22.91
M3 ; Pen Down
G1 X160.23 Y22.91
M5 ; Pen Up
G1 X160.73 Y22.91
M3 ; Pen Down
G1 X162.22 Y22.91
M5 ; Pen Up
G1 X168.37 Y22.91
M3 ; Pen Down
G1 X172.99 Y22.91
M5 ; Pen Up
G1 X172.99 Y23.41
M3 ; Pen Down
G1 X168.66 Y23.41
M5 ; Pen Up
G1 X161.82 Y23.41
M3 ; Pen Down
G1 X158.00 Y23.41
M5 ; Pen Up
G1 X151.89 Y23.41
M3 ; Pen Down
G1 X150.62 Y23.41
M5 ; Pen Up
G1 X149.53 Y23.41
M3 ; Pen Down
G1 X147.08 Y23.41
M5 ; Pen Up
G1 X139.35 Y23.41
M3 ; Pen Down
G1 X136.87 Y23.41
M5 ; Pen Up
G1 X135.11 Y23.41
M3 ; Pen Down
G1 X132.60 Y23.41
M5 ; Pen Up
G1 X131.13 Y23.41
M3 ; Pen Down
G1 X128.83 Y23.41
M5 ; Pen Up
G1 X128.17 Y23.41
M3 ; Pen Down
G1 X127.13 Y23.41
M5 ; Pen Up
G1 X125.81 Y23.41
M3 ; Pen Down
G1 X119.19 Y23.41
M5 ; Pen Up
G1 X116.46 Y23.41
M3 ; Pen Down
G1 X115.30 Y23.41
M5 ; Pen Up
G1 X112.96 Y23.41
M3 ; Pen Down
G1 X112.10 Y23.41
M5 ; Pen Up
G1 X109.68 Y23.41
M3 ; Pen Down
G1 X108.59 Y23.41
M5 ; Pen Up
G1 X106.36 Y23.41
M3 ; Pen Down
G1 X105.21 Y23.41
M5 ; Pen Up
G1 X102.43 Y23.41
M3 ; Pen Down
G1 X95.21 Y23.41
M5 ; Pen Up
G1 X93.20 Y23.41
M3 ; Pen Down
G1 X90.64 Y23.41
M5 ; Pen Up
G1 X89.35 Y23.41
M3 ; Pen Down
G1 X85.05 Y23.41
M5 ; Pen Up
G1 X83.51 Y23.41
M3 ; Pen Down
G1 X81.67 Y23.41
M5 ; Pen Up
G1 X75.81 Y23.41
M3 ; Pen Down
G1 X73.70 Y23.41
M5 ; Pen Up
G1 X71.80 Y23.41
M3 ; Pen Down
G1 X70.62 Y23.41
M5 ; Pen Up
G1 X69.40 Y23.41
M3 ; Pen Down
G1 X66.38 Y23.41
M5 ; Pen Up
G1 X64.48 Y23.41
M3 ; Pen Down
G1 X61.15 Y23.41
M5 ; Pen Up
G1 X60.14 Y23.41
M3 ; Pen Down
G1 X57.39 Y23.41
M5 ; Pen Up
G1 X56.40 Y23.41
M3 ; Pen Down
G1 X55.09 Y23.41
M5 ; Pen Up
G1 X53.93 Y23.41
M3 ; Pen Down
G1 X52.79 Y23.41
M5 ; Pen Up
G1 X50.98 Y23.41
M3 ; Pen Down
G1 X48.86 Y23.41
M5 ; Pen Up
G1 X47.41 Y23.41
M3 ; Pen Down
G1 X41.03 Y23.41
M5 ; Pen Up
G1 X39.76 Y23.41
M3 ; Pen Down
G1 X36.09 Y23.41
M5 ; Pen Up
G1 X33.84 Y23.41
M3 ; Pen Down
G1 X30.49 Y23.41
M5 ; Pen Up
G1 X28.35 Y23.41
M3 ; Pen Down
G1 X28.04 Y23.41
M5 ; Pen Up
G1 X26.42 Y23.41
M3 ; Pen Down
G1 X26.21 Y23.41
M5 ; Pen Up
G1 X23.92 Y23.41
M3 ; Pen Down
G1 X20.54 Y23.41
M5 ; Pen Up
G1 X18.34 Y23.41
M3 ; Pen Down
G1 X14.64 Y23.41
M5 ; Pen Up
G1 X13.39 Y23.41
M3 ; Pen Down
G1 X6.99 Y23.41
M5 ; Pen Up
G1 X6.99 Y23.91
M3 ; Pen Down
G1 X13.34 Y23.91
M5 ; Pen Up
G1 X14.54 Y23.91
M3 ; Pen Down
G1 X18.45 Y23.91
M5 ; Pen Up
G1 X20.11 Y23.91
M3 ; Pen Down
G1 X21.75 Y23.91
M5 ; Pen Up
G1 X23.03 Y23.91
M3 ; Pen Down
G1 X24.79 Y23.91
M5 ; Pen Up
G1 X25.57 Y23.91
M3 ; Pen Down
G1 X26.53 Y23.91
M5 ; Pen Up
G1 X27.82 Y23.91
M3 ; Pen Down
G1 X28.70 Y23.91
M5 ; Pen Up
G1 X29.58 Y23.91
M3 ; Pen Down
G1 X31.36 Y23.91
M5 ; Pen Up
G1 X32.85 Y23.91
M3 ; Pen Down
G1 X34.37 Y23.91
M5 ; Pen Up
G1 X36.02 Y23.91
M3 ; Pen Down
G1 X39.88 Y23.91
M5 ; Pen Up
G1 X41.07 Y23.91
M3 ; Pen Down
G1 X47.41 Y23.91
M5 ; Pen Up
G1 X48.86 Y23.91
M3 ; Pen Down
G1 X50.96 Y23.91
M5 ; Pen Up
G1 X52.79 Y23.91
M3 ; Pen Down
G1 X54.20 Y23.91
M5 ; Pen Up
G1 X54.76 Y23.91
M3 ; Pen Down
G1 X56.12 Y23.91
M5 ; Pen Up
G1 X57.65 Y23.91
M3 ; Pen Down
G1 X59.91 Y23.91
M5 ; Pen Up
G1 X61.34 Y23.91
M3 ; Pen Down
G1 X64.13 Y23.91
M5 ; Pen Up
G1 X66.10 Y23.91
M3 ; Pen Down
G1 X68.72 Y23.91
M5 ; Pen Up
G1 X70.43 Y23.91
M3 ; Pen Down
G1 X71.61 Y23.91
M5 ; Pen Up
G1 X73.59 Y23.91
M3 ; Pen Down
G1 X75.17 Y23.91
M5 ; Pen Up
G1 X81.38 Y23.91
M3 ; Pen Down
G1 X83.63 Y23.91
M5 ; Pen Up
G1 X84.66 Y23.91
M3 ; Pen Down
G1 X86.14 Y23.91
M5 ; Pen Up
G1 X87.30 Y23.91
M3 ; Pen Down
G1 X89.37 Y23.91
M5 ; Pen Up
G1 X90.63 Y23.91
M3 ; Pen Down
G1 X92.89 Y23.91
M5 ; Pen Up
G1 X95.62 Y23.91
M3 ; Pen Down
G1 X102.85 Y23.91
M5 ; Pen Up
G1 X105.46 Y23.91
M3 ; Pen Down
G1 X106.56 Y23.91
M5 ; Pen Up
G1 X108.73 Y23.91
M3 ; Pen Down
G1 X109.71 Y23.91
M5 ; Pen Up
G1 X112.06 Y23.91
M3 ; Pen Down
G1 X112.92 Y23.91
M5 ; Pen Up
G1 X115.13 Y23.91
M3 ; Pen Down
G1 X116.17 Y23.91
M5 ; Pen Up
G1 X118.73 Y23.91
M3 ; Pen Down
G1 X125.36 Y23.91
M5 ; Pen Up
G1 X127.68 Y23.91
M3 ; Pen Down
G1 X131.12 Y23.91
M5 ; Pen Up
G1 X132.60 Y23.91
M3 ; Pen Down
G1 X138.94 Y23.91
M5 ; Pen Up
G1 X146.46 Y23.91
M3 ; Pen Down
G1 X149.41 Y23.91
M5 ; Pen Up
G1 X150.71 Y23.91
M3 ; Pen Down
G1 X152.00 Y23.91
M5 ; Pen Up
G1 X158.26 Y23.91
M3 ; Pen Down
G1 X161.50 Y23.91
M5 ; Pen Up
G1 X169.01 Y23.91
M3 ; Pen Down
G1 X173.00 Y23.91
M5 ; Pen Up
G1 X172.99 Y24.40
M3 ; Pen Down
G1 X169.21 Y24.40
M5 ; Pen Up
G1 X161.04 Y24.40
M3 ; Pen Down
G1 X158.48 Y24.40
M5 ; Pen Up
G1 X152.10 Y24.40
M3 ; Pen Down
G1 X150.77 Y24.40
M5 ; Pen Up
G1 X149.14 Y24.40
M3 ; Pen Down
G1 X145.35 Y24.40
M5 ; Pen Up
G1 X138.73 Y24.40
M3 ; Pen Down
G1 X132.61 Y24.40
M5 ; Pen Up
G1 X131.14 Y24.40
M3 ; Pen Down
G1 X127.85 Y24.40
M5 ; Pen Up
G1 X125.39 Y24.40
M3 ; Pen Down
G1 X124.07 Y24.40
M5 ; Pen Up
G1 X123.81 Y24.40
M3 ; Pen Down
G1 X121.57 Y24.40
M5 ; Pen Up
G1 X119.89 Y24.40
M3 ; Pen Down
G1 X118.47 Y24.40
M5 ; Pen Up
G1 X115.96 Y24.40
M3 ; Pen Down
G1 X114.78 Y24.40
M5 ; Pen Up
G1 X112.85 Y24.40
M3 ; Pen Down
G1 X112.02 Y24.40
M5 ; Pen Up
G1 X109.74 Y24.40
M3 ; Pen Down
G1 X108.84 Y24.40
M5 ; Pen Up
G1 X106.82 Y24.40
M3 ; Pen Down
G1 X105.75 Y24.40
M5 ; Pen Up
G1 X103.27 Y24.40
M3 ; Pen Down
G1 X101.64 Y24.40
M5 ; Pen Up
G1 X100.10 Y24.40
M3 ; Pen Down
G1 X95.58 Y24.40
M5 ; Pen Up
G1 X93.05 Y24.40
M3 ; Pen Down
G1 X90.69 Y24.40
M5 ; Pen Up
G1 X89.34 Y24.40
M3 ; Pen Down
G1 X87.31 Y24.40
M5 ; Pen Up
G1 X85.55 Y24.40
M3 ; Pen Down
G1 X80.44 Y24.40
M5 ; Pen Up
G1 X74.86 Y24.40
M3 ; Pen Down
G1 X73.42 Y24.40
M5 ; Pen Up
G1 X71.34 Y24.40
M3 ; Pen Down
G1 X70.23 Y24.40
M5 ; Pen Up
G1 X68.09 Y24.40
M3 ; Pen Down
G1 X65.96 Y24.40
M5 ; Pen Up
G1 X63.94 Y24.40
M3 ; Pen Down
G1 X61.49 Y24.40
M5 ; Pen Up
G1 X59.72 Y24.40
M3 ; Pen Down
G1 X57.94 Y24.40
M5 ; Pen Up
G1 X55.88 Y24.40
M3 ; Pen Down
G1 X52.05 Y24.40
M5 ; Pen Up
G1 X50.87 Y24.40
M3 ; Pen Down
G1 X48.86 Y24.40
M5 ; Pen Up
G1 X47.41 Y24.40
M3 ; Pen Down
G1 X41.21 Y24.40
M5 ; Pen Up
G1 X39.97 Y24.40
M3 ; Pen Down
G1 X36.14 Y24.40
M5 ; Pen Up
G1 X34.74 Y24.40
M3 ; Pen Down
G1 X33.56 Y24.40
M5 ; Pen Up
G1 X30.55 Y24.40
M3 ; Pen Down
G1 X29.05 Y24.40
M5 ; Pen Up
G1 X28.69 Y24.40
M3 ; Pen Down
G1 X27.84 Y24.40
M5 ; Pen Up
G1 X26.56 Y24.40
M3 ; Pen Down
G1 X23.87 Y24.40
M5 ; Pen Up
G1 X20.81 Y24.40
M3 ; Pen Down
G1 X19.68 Y24.40
M5 ; Pen Up
G1 X18.28 Y24.40
M3 ; Pen Down
G1 X14.50 Y24.40
M5 ; Pen Up
G1 X13.20 Y24.40
M3 ; Pen Down
G1 X6.99 Y24.40
M5 ; Pen Up
G1 X6.99 Y24.90
M3 ; Pen Down
G1 X12.21 Y24.90
M5 ; Pen Up
G1 X14.50 Y24.90
M3 ; Pen Down
G1 X18.07 Y24.90
M5 ; Pen Up
G1 X19.52 Y24.90
M3 ; Pen Down
G1 X20.44 Y24.90
M5 ; Pen Up
G1 X21.80 Y24.90
M3 ; Pen Down
G1 X22.71 Y24.90
M5 ; Pen Up
G1 X24.04 Y24.90
M3 ; Pen Down
G1 X26.58 Y24.90
M5 ; Pen Up
G1 X27.87 Y24.90
M3 ; Pen Down
G1 X28.67 Y24.90
M5 ; Pen Up
G1 X29.09 Y24.90
M3 ; Pen Down
G1 X30.41 Y24.90
M5 ; Pen Up
G1 X31.72 Y24.90
M3 ; Pen Down
G1 X32.62 Y24.90
M5 ; Pen Up
G1 X33.92 Y24.90
M3 ; Pen Down
G1 X34.91 Y24.90
M5 ; Pen Up
G1 X36.27 Y24.90
M3 ; Pen Down
G1 X39.95 Y24.90
M5 ; Pen Up
G1 X42.22 Y24.90
M3 ; Pen Down
G1 X47.41 Y24.90
M5 ; Pen Up
G1 X48.86 Y24.90
M3 ; Pen Down
G1 X51.01 Y24.90
M5 ; Pen Up
G1 X51.48 Y24.90
M3 ; Pen Down
G1 X55.67 Y24.90
M5 ; Pen Up
G1 X58.20 Y24.90
M3 ; Pen Down
G1 X59.88 Y24.90
M5 ; Pen Up
G1 X61.54 Y24.90
M3 ; Pen Down
G1 X63.61 Y24.90
M5 ; Pen Up
G1 X65.91 Y24.90
M3 ; Pen Down
G1 X67.67 Y24.90
M5 ; Pen Up
G1 X70.00 Y24.90
M3 ; Pen Down
G1 X71.23 Y24.90
M5 ; Pen Up
G1 X73.30 Y24.90
M3 ; Pen Down
G1 X74.90 Y24.90
M5 ; Pen Up
G1 X79.69 Y24.90
M3 ; Pen Down
G1 X81.80 Y24.90
M5 ; Pen Up
G1 X82.36 Y24.90
M3 ; Pen Down
G1 X84.98 Y24.90
M5 ; Pen Up
G1 X87.20 Y24.90
M3 ; Pen Down
G1 X89.31 Y24.90
M5 ; Pen Up
G1 X90.63 Y24.90
M3 ; Pen Down
G1 X92.95 Y24.90
M5 ; Pen Up
G1 X95.54 Y24.90
M3 ; Pen Down
G1 X100.04 Y24.90
M5 ; Pen Up
G1 X102.18 Y24.90
M3 ; Pen Down
G1 X103.64 Y24.90
M5 ; Pen Up
G1 X105.93 Y24.90
M3 ; Pen Down
G1 X107.06 Y24.90
M5 ; Pen Up
G1 X108.91 Y24.90
M3 ; Pen Down
G1 X109.76 Y24.90
M5 ; Pen Up
G1 X111.98 Y24.90
M3 ; Pen Down
G1 X112.77 Y24.90
M5 ; Pen Up
G1 X114.64 Y24.90
M3 ; Pen Down
G1 X115.64 Y24.90
M5 ; Pen Up
G1 X117.94 Y24.90
M3 ; Pen Down
G1 X119.55 Y24.90
M5 ; Pen Up
G1 X121.76 Y24.90
M3 ; Pen Down
G1 X125.18 Y24.90
M5 ; Pen Up
G1 X127.91 Y24.90
M3 ; Pen Down
G1 X131.16 Y24.90
M5 ; Pen Up
G1 X132.65 Y24.90
M3 ; Pen Down
G1 X135.13 Y24.90
M5 ; Pen Up
G1 X136.25 Y24.90
M3 ; Pen Down
G1 X138.35 Y24.90
M5 ; Pen Up
G1 X144.27 Y24.90
M3 ; Pen Down
G1 X149.01 Y24.90
M5 ; Pen Up
G1 X150.82 Y24.90
M3 ; Pen Down
G1 X152.16 Y24.90
M5 ; Pen Up
G1 X158.70 Y24.90
M3 ; Pen Down
G1 X160.89 Y24.90
M5 ; Pen Up
G1 X169.22 Y24.90
M3 ; Pen Down
G1 X173.00 Y24.90
M5 ; Pen Up
G1 X172.99 Y25.40
M3 ; Pen Down
G1 X168.96 Y25.40
M5 ; Pen Up
G1 X160.97 Y25.40
M3 ; Pen Down
G1 X158.99 Y25.40
M5 ; Pen Up
G1 X152.35 Y25.40
M3 ; Pen Down
G1 X150.94 Y25.40
M5 ; Pen Up
G1 X148.93 Y25.40
M3 ; Pen Down
G1 X143.28 Y25.40
M5 ; Pen Up
G1 X138.10 Y25.40
M3 ; Pen Down
G1 X136.28 Y25.40
M5 ; Pen Up
G1 X135.04 Y25.40
M3 ; Pen Down
G1 X132.64 Y25.40
M5 ; Pen Up
G1 X131.16 Y25.40
M3 ; Pen Down
G1 X127.78 Y25.40
M5 ; Pen Up
G1 X125.34 Y25.40
M3 ; Pen Down
G1 X121.63 Y25.40
M5 ; Pen Up
G1 X119.11 Y25.40
M3 ; Pen Down
G1 X117.68 Y25.40
M5 ; Pen Up
G1 X115.43 Y25.40
M3 ; Pen Down
G1 X114.40 Y25.40
M5 ; Pen Up
G1 X112.68 Y25.40
M3 ; Pen Down
G1 X111.78 Y25.40
M5 ; Pen Up
G1 X109.81 Y25.40
M3 ; Pen Down
G1 X109.00 Y25.40
M5 ; Pen Up
G1 X107.24 Y25.40
M3 ; Pen Down
G1 X106.28 Y25.40
M5 ; Pen Up
G1 X104.04 Y25.40
M3 ; Pen Down
G1 X102.58 Y25.40
M5 ; Pen Up
G1 X100.19 Y25.40
M3 ; Pen Down
G1 X95.16 Y25.40
M5 ; Pen Up
G1 X93.25 Y25.40
M3 ; Pen Down
G1 X90.67 Y25.40
M5 ; Pen Up
G1 X89.32 Y25.40
M3 ; Pen Down
G1 X87.22 Y25.40
M5 ; Pen Up
G1 X84.66 Y25.40
M3 ; Pen Down
G1 X82.54 Y25.40
M5 ; Pen Up
G1 X81.51 Y25.40
M3 ; Pen Down
G1 X79.12 Y25.40
M5 ; Pen Up
G1 X75.02 Y25.40
M3 ; Pen Down
G1 X73.18 Y25.40
M5 ; Pen Up
G1 X71.19 Y25.40
M3 ; Pen Down
G1 X69.75 Y25.40
M5 ; Pen Up
G1 X67.39 Y25.40
M3 ; Pen Down
G1 X65.85 Y25.40
M5 ; Pen Up
G1 X63.52 Y25.40
M3 ; Pen Down
G1 X61.26 Y25.40
M5 ; Pen Up
G1 X60.09 Y25.40
M3 ; Pen Down
G1 X58.40 Y25.40
M5 ; Pen Up
G1 X55.39 Y25.40
M3 ; Pen Down
G1 X53.58 Y25.40
M5 ; Pen Up
G1 X52.59 Y25.40
M3 ; Pen Down
G1 X48.86 Y25.40
M5 ; Pen Up
G1 X47.41 Y25.40
M3 ; Pen Down
G1 X42.32 Y25.40
M5 ; Pen Up
G1 X39.87 Y25.40
M3 ; Pen Down
G1 X36.40 Y25.40
M5 ; Pen Up
G1 X34.99 Y25.40
M3 ; Pen Down
G1 X34.11 Y25.40
M5 ; Pen Up
G1 X32.91 Y25.40
M3 ; Pen Down
G1 X31.92 Y25.40
M5 ; Pen Up
G1 X30.39 Y25.40
M3 ; Pen Down
G1 X29.48 Y25.40
M5 ; Pen Up
G1 X29.15 Y25.40
M3 ; Pen Down
G1 X27.89 Y25.40
M5 ; Pen Up
G1 X26.55 Y25.40
M3 ; Pen Down
G1 X25.22 Y25.40
M5 ; Pen Up
G1 X24.86 Y25.40
M3 ; Pen Down
G1 X24.06 Y25.40
M5 ; Pen Up
G1 X22.42 Y25.40
M3 ; Pen Down
G1 X21.53 Y25.40
M5 ; Pen Up
G1 X20.34 Y25.40
M3 ; Pen Down
G1 X19.38 Y25.40
M5 ; Pen Up
G1 X17.94 Y25.40
M3 ; Pen Down
G1 X14.57 Y25.40
M5 ; Pen Up
G1 X12.15 Y25.40
M3 ; Pen Down
G1 X7.00 Y25.40
M5 ; Pen Up
G1 X7.00 Y25.90
M3 ; Pen Down
G1 X12.45 Y25.90
M5 ; Pen Up
G1 X14.77 Y25.90
M3 ; Pen Down
G1 X17.93 Y25.90
M5 ; Pen Up
G1 X19.29 Y25.90
M3 ; Pen Down
G1 X20.31 Y25.90
M5 ; Pen Up
G1 X21.46 Y25.90
M3 ; Pen Down
G1 X22.29 Y25.90
M5 ; Pen Up
G1 X23.98 Y25.90
M3 ; Pen Down
G1 X24.79 Y25.90
M5 ; Pen Up
G1 X25.21 Y25.90
M3 ; Pen Down
G1 X26.46 Y25.90
M5 ; Pen Up
G1 X27.97 Y25.90
M3 ; Pen Down
G1 X29.23 Y25.90
M5 ; Pen Up
G1 X29.68 Y25.90
M3 ; Pen Down
G1 X30.42 Y25.90
M5 ; Pen Up
G1 X32.15 Y25.90
M3 ; Pen Down
G1 X33.02 Y25.90
M5 ; Pen Up
G1 X34.15 Y25.90
M3 ; Pen Down
G1 X35.03 Y25.90
M5 ; Pen Up
G1 X36.42 Y25.90
M3 ; Pen Down
G1 X39.66 Y25.90
M5 ; Pen Up
G1 X42.06 Y25.90
M3 ; Pen Down
G1 X47.41 Y25.90
M5 ; Pen Up
G1 X48.86 Y25.90
M3 ; Pen Down
G1 X52.15 Y25.90
M5 ; Pen Up
G1 X53.83 Y25.90
M3 ; Pen Down
G1 X55.21 Y25.90
M5 ; Pen Up
G1 X58.58 Y25.90
M3 ; Pen Down
G1 X60.21 Y25.90
M5 ; Pen Up
G1 X60.88 Y25.90
M3 ; Pen Down
G1 X63.64 Y25.90
M5 ; Pen Up
G1 X65.71 Y25.90
M3 ; Pen Down
G1 X67.39 Y25.90
M5 ; Pen Up
G1 X69.59 Y25.90
M3 ; Pen Down
G1 X71.11 Y25.90
M5 ; Pen Up
G1 X73.09 Y25.90
M3 ; Pen Down
G1 X75.19 Y25.90
M5 ; Pen Up
G1 X78.56 Y25.90
M3 ; Pen Down
G1 X81.46 Y25.90
M5 ; Pen Up
G1 X82.72 Y25.90
M3 ; Pen Down
G1 X84.35 Y25.90
M5 ; Pen Up
G1 X87.27 Y25.90
M3 ; Pen Down
G1 X89.34 Y25.90
M5 ; Pen Up
G1 X90.70 Y25.90
M3 ; Pen Down
G1 X100.49 Y25.90
M5 ; Pen Up
G1 X103.04 Y25.90
M3 ; Pen Down
G1 X104.52 Y25.90
M5 ; Pen Up
G1 X106.47 Y25.90
M3 ; Pen Down
G1 X107.51 Y25.90
M5 ; Pen Up
G1 X109.07 Y25.90
M3 ; Pen Down
G1 X109.98 Y25.90
M5 ; Pen Up
G1 X111.66 Y25.90
M3 ; Pen Down
G1 X112.50 Y25.90
M5 ; Pen Up
G1 X114.12 Y25.90
M3 ; Pen Down
G1 X115.24 Y25.90
M5 ; Pen Up
G1 X117.27 Y25.90
M3 ; Pen Down
G1 X118.61 Y25.90
M5 ; Pen Up
G1 X121.23 Y25.90
M3 ; Pen Down
G1 X125.92 Y25.90
M5 ; Pen Up
G1 X127.50 Y25.90
M3 ; Pen Down
G1 X131.14 Y25.90
M5 ; Pen Up
G1 X132.62 Y25.90
M3 ; Pen Down
G1 X135.04 Y25.90
M5 ; Pen Up
G1 X136.16 Y25.90
M3 ; Pen Down
G1 X137.85 Y25.90
M5 ; Pen Up
G1 X142.24 Y25.90
M3 ; Pen Down
G1 X148.80 Y25.90
M5 ; Pen Up
G1 X151.05 Y25.90
M3 ; Pen Down
G1 X152.64 Y25.90
M5 ; Pen Up
G1 X159.14 Y25.90
M3 ; Pen Down
G1 X161.22 Y25.90
M5 ; Pen Up
G1 X168.61 Y25.90
M3 ; Pen Down
G1 X172.99 Y25.90
M5 ; Pen Up
G1 X172.99 Y26.40
M3 ; Pen Down
G1 X168.35 Y26.40
M5 ; Pen Up
G1 X161.49 Y26.40
M3 ; Pen Down
G1 X159.33 Y26.40
M5 ; Pen Up
G1 X153.16 Y26.40
M3 ; Pen Down
G1 X151.16 Y26.40
M5 ; Pen Up
G1 X148.62 Y26.40
M3 ; Pen Down
G1 X145.78 Y26.40
M5 ; Pen Up
G1 X144.96 Y26.40
M3 ; Pen Down
G1 X141.20 Y26.40
M5 ; Pen Up
G1 X137.60 Y26.40
M3 ; Pen Down
G1 X135.85 Y26.40
M5 ; Pen Up
G1 X135.04 Y26.40
M3 ; Pen Down
G1 X132.59 Y26.40
M5 ; Pen Up
G1 X131.13 Y26.40
M3 ; Pen Down
G1 X128.78 Y26.40
M5 ; Pen Up
G1 X128.10 Y26.40
M3 ; Pen Down
G1 X120.68 Y26.40
M5 ; Pen Up
G1 X118.22 Y26.40
M3 ; Pen Down
G1 X116.88 Y26.40
M5 ; Pen Up
G1 X114.86 Y26.40
M3 ; Pen Down
G1 X113.95 Y26.40
M5 ; Pen Up
G1 X112.34 Y26.40
M3 ; Pen Down
G1 X111.62 Y26.40
M5 ; Pen Up
G1 X110.15 Y26.40
M3 ; Pen Down
G1 X109.11 Y26.40
M5 ; Pen Up
G1 X107.76 Y26.40
M3 ; Pen Down
G1 X106.85 Y26.40
M5 ; Pen Up
G1 X104.91 Y26.40
M3 ; Pen Down
G1 X103.48 Y26.40
M5 ; Pen Up
G1 X101.00 Y26.40
M3 ; Pen Down
G1 X90.67 Y26.40
M5 ; Pen Up
G1 X89.34 Y26.40
M3 ; Pen Down
G1 X87.26 Y26.40
M5 ; Pen Up
G1 X84.29 Y26.40
M3 ; Pen Down
G1 X82.89 Y26.40
M5 ; Pen Up
G1 X81.48 Y26.40
M3 ; Pen Down
G1 X80.37 Y26.40
M5 ; Pen Up
G1 X79.79 Y26.40
M3 ; Pen Down
G1 X78.03 Y26.40
M5 ; Pen Up
G1 X75.28 Y26.40
M3 ; Pen Down
G1 X72.98 Y26.40
M5 ; Pen Up
G1 X71.07 Y26.40
M3 ; Pen Down
G1 X69.24 Y26.40
M5 ; Pen Up
G1 X67.63 Y26.40
M3 ; Pen Down
G1 X65.47 Y26.40
M5 ; Pen Up
G1 X63.94 Y26.40
M3 ; Pen Down
G1 X58.82 Y26.40
M5 ; Pen Up
G1 X55.21 Y26.40
M3 ; Pen Down
G1 X53.96 Y26.40
M5 ; Pen Up
G1 X51.72 Y26.40
M3 ; Pen Down
G1 X48.86 Y26.40
M5 ; Pen Up
G1 X47.41 Y26.40
M3 ; Pen Down
G1 X41.10 Y26.40
M5 ; Pen Up
G1 X39.34 Y26.40
M3 ; Pen Down
G1 X36.36 Y26.40
M5 ; Pen Up
G1 X35.01 Y26.40
M3 ; Pen Down
G1 X34.09 Y26.40
M5 ; Pen Up
G1 X33.00 Y26.40
M3 ; Pen Down
G1 X32.06 Y26.40
M5 ; Pen Up
G1 X30.86 Y26.40
M3 ; Pen Down
G1 X28.31 Y26.40
M5 ; Pen Up
G1 X26.10 Y26.40
M3 ; Pen Down
G1 X23.49 Y26.40
M5 ; Pen Up
G1 X22.38 Y26.40
M3 ; Pen Down
G1 X21.50 Y26.40
M5 ; Pen Up
G1 X20.32 Y26.40
M3 ; Pen Down
G1 X19.32 Y26.40
M5 ; Pen Up
G1 X17.98 Y26.40
M3 ; Pen Down
G1 X15.14 Y26.40
M5 ; Pen Up
G1 X13.29 Y26.40
M3 ; Pen Down
G1 X7.00 Y26.40
M5 ; Pen Up
G1 X7.00 Y26.89
M3 ; Pen Down
G1 X13.39 Y26.89
M5 ; Pen Up
G1 X15.32 Y26.89
M3 ; Pen Down
G1 X18.05 Y26.89
M5 ; Pen Up
G1 X19.43 Y26.89
M3 ; Pen Down
G1 X20.45 Y26.89
M5 ; Pen Up
G1 X21.54 Y26.89
M3 ; Pen Down
G1 X25.67 Y26.89
M5 ; Pen Up
G1 X28.68 Y26.89
M3 ; Pen Down
G1 X30.11 Y26.89
M5 ; Pen Up
G1 X30.25 Y26.89
M3 ; Pen Down
G1 X31.18 Y26.89
M5 ; Pen Up
G1 X31.55 Y26.89
M3 ; Pen Down
G1 X32.95 Y26.89
M5 ; Pen Up
G1 X33.97 Y26.89
M3 ; Pen Down
G1 X34.92 Y26.89
M5 ; Pen Up
G1 X36.25 Y26.89
M3 ; Pen Down
G1 X39.07 Y26.89
M5 ; Pen Up
G1 X40.99 Y26.89
M3 ; Pen Down
G1 X47.41 Y26.89
M5 ; Pen Up
G1 X48.86 Y26.89
M3 ; Pen Down
G1 X51.23 Y26.89
M5 ; Pen Up
G1 X54.13 Y26.89
M3 ; Pen Down
G1 X55.44 Y26.89
M5 ; Pen Up
G1 X58.96 Y26.89
M3 ; Pen Down
G1 X64.06 Y26.89
M5 ; Pen Up
G1 X65.35 Y26.89
M3 ; Pen Down
G1 X67.68 Y26.89
M5 ; Pen Up
G1 X69.08 Y26.89
M3 ; Pen Down
G1 X71.27 Y26.89
M5 ; Pen Up
G1 X72.83 Y26.89
M3 ; Pen Down
G1 X75.35 Y26.89
M5 ; Pen Up
G1 X77.62 Y26.89
M3 ; Pen Down
G1 X79.28 Y26.89
M5 ; Pen Up
G1 X80.42 Y26.89
M3 ; Pen Down
G1 X81.40 Y26.89
M5 ; Pen Up
G1 X82.86 Y26.89
M3 ; Pen Down
G1 X84.33 Y26.89
M5 ; Pen Up
G1 X87.23 Y26.89
M3 ; Pen Down
G1 X89.32 Y26.89
M5 ; Pen Up
G1 X90.68 Y26.89
M3 ; Pen Down
G1 X96.32 Y26.89
M5 ; Pen Up
G1 X98.18 Y26.89
M3 ; Pen Down
G1 X101.67 Y26.89
M5 ; Pen Up
G1 X103.91 Y26.89
M3 ; Pen Down
G1 X105.22 Y26.89
M5 ; Pen Up
G1 X107.01 Y26.89
M3 ; Pen Down
G1 X107.87 Y26.89
M5 ; Pen Up
G1 X109.24 Y26.89
M3 ; Pen Down
G1 X110.23 Y26.89
M5 ; Pen Up
G1 X111.55 Y26.89
M3 ; Pen Down
G1 X112.33 Y26.89
M5 ; Pen Up
G1 X113.70 Y26.89
M3 ; Pen Down
G1 X114.72 Y26.89
M5 ; Pen Up
G1 X116.45 Y26.89
M3 ; Pen Down
G1 X117.72 Y26.89
M5 ; Pen Up
G1 X119.96 Y26.89
M3 ; Pen Down
G1 X123.32 Y26.89
M5 ; Pen Up
G1 X125.50 Y26.89
M3 ; Pen Down
G1 X127.98 Y26.89
M5 ; Pen Up
G1 X129.08 Y26.89
M3 ; Pen Down
G1 X131.16 Y26.89
M5 ; Pen Up
G1 X132.59 Y26.89
M3 ; Pen Down
G1 X135.05 Y26.89
M5 ; Pen Up
G1 X135.62 Y26.89
M3 ; Pen Down
G1 X137.34 Y26.89
M5 ; Pen Up
G1 X140.07 Y26.89
M3 ; Pen Down
G1 X144.02 Y26.89
M5 ; Pen Up
G1 X145.81 Y26.89
M3 ; Pen Down
G1 X148.43 Y26.89
M5 ; Pen Up
G1 X151.28 Y26.89
M3 ; Pen Down
G1 X154.25 Y26.89
M5 ; Pen Up
G1 X159.58 Y26.89
M3 ; Pen Down
G1 X161.64 Y26.89
M5 ; Pen Up
G1 X167.92 Y26.89
M3 ; Pen Down
G1 X172.99 Y26.89
M5 ; Pen Up
G1 X172.99 Y27.39
M3 ; Pen Down
G1 X170.16 Y27.39
M5 ; Pen Up
G1 X169.32 Y27.39
M3 ; Pen Down
G1 X167.57 Y27.39
M5 ; Pen Up
G1 X161.85 Y27.39
M3 ; Pen Down
G1 X159.72 Y27.39
M5 ; Pen Up
G1 X155.15 Y27.39
M3 ; Pen Down
G1 X151.35 Y27.39
M5 ; Pen Up
G1 X148.35 Y27.39
M3 ; Pen Down
G1 X145.69 Y27.39
M5 ; Pen Up
G1 X142.82 Y27.39
M3 ; Pen Down
G1 X138.89 Y27.39
M5 ; Pen Up
G1 X137.16 Y27.39
M3 ; Pen Down
G1 X135.45 Y27.39
M5 ; Pen Up
G1 X135.17 Y27.39
M3 ; Pen Down
G1 X132.60 Y27.39
M5 ; Pen Up
G1 X131.16 Y27.39
M3 ; Pen Down
G1 X129.04 Y27.39
M5 ; Pen Up
G1 X128.12 Y27.39
M3 ; Pen Down
G1 X125.40 Y27.39
M5 ; Pen Up
G1 X123.17 Y27.39
M3 ; Pen Down
G1 X119.46 Y27.39
M5 ; Pen Up
G1 X117.30 Y27.39
M3 ; Pen Down
G1 X116.04 Y27.39
M5 ; Pen Up
G1 X114.36 Y27.39
M3 ; Pen Down
G1 X113.44 Y27.39
M5 ; Pen Up
G1 X112.23 Y27.39
M3 ; Pen Down
G1 X111.51 Y27.39
M5 ; Pen Up
G1 X110.27 Y27.39
M3 ; Pen Down
G1 X109.41 Y27.39
M5 ; Pen Up
G1 X108.17 Y27.39
M3 ; Pen Down
G1 X107.29 Y27.39
M5 ; Pen Up
G1 X105.61 Y27.39
M3 ; Pen Down
G1 X104.43 Y27.39
M5 ; Pen Up
G1 X102.29 Y27.39
M3 ; Pen Down
G1 X98.50 Y27.39
M5 ; Pen Up
G1 X96.36 Y27.39
M3 ; Pen Down
G1 X95.01 Y27.39
M5 ; Pen Up
G1 X94.61 Y27.39
M3 ; Pen Down
G1 X90.67 Y27.39
M5 ; Pen Up
G1 X89.31 Y27.39
M3 ; Pen Down
G1 X87.27 Y27.39
M5 ; Pen Up
G1 X84.43 Y27.39
M3 ; Pen Down
G1 X82.98 Y27.39
M5 ; Pen Up
G1 X81.42 Y27.39
M3 ; Pen Down
G1 X80.35 Y27.39
M5 ; Pen Up
G1 X78.76 Y27.39
M3 ; Pen Down
G1 X77.09 Y27.39
M5 ; Pen Up
G1 X75.38 Y27.39
M3 ; Pen Down
G1 X72.75 Y27.39
M5 ; Pen Up
G1 X71.51 Y27.39
M3 ; Pen Down
G1 X68.96 Y27.39
M5 ; Pen Up
G1 X67.73 Y27.39
M3 ; Pen Down
G1 X65.28 Y27.39
M5 ; Pen Up
G1 X64.17 Y27.39
M3 ; Pen Down
G1 X62.74 Y27.39
M5 ; Pen Up
G1 X61.70 Y27.39
M3 ; Pen Down
G1 X58.98 Y27.39
M5 ; Pen Up
G1 X55.71 Y27.39
M3 ; Pen Down
G1 X54.24 Y27.39
M5 ; Pen Up
G1 X50.97 Y27.39
M3 ; Pen Down
G1 X48.86 Y27.39
M5 ; Pen Up
G1 X47.41 Y27.39
M3 ; Pen Down
G1 X40.80 Y27.39
M5 ; Pen Up
G1 X38.78 Y27.39
M3 ; Pen Down
G1 X36.05 Y27.39
M5 ; Pen Up
G1 X34.78 Y27.39
M3 ; Pen Down
G1 X33.66 Y27.39
M5 ; Pen Up
G1 X32.63 Y27.39
M3 ; Pen Down
G1 X28.72 Y27.39
M5 ; Pen Up
G1 X25.66 Y27.39
M3 ; Pen Down
G1 X21.71 Y27.39
M5 ; Pen Up
G1 X20.75 Y27.39
M3 ; Pen Down
G1 X19.65 Y27.39
M5 ; Pen Up
G1 X18.33 Y27.39
M3 ; Pen Down
G1 X15.53 Y27.39
M5 ; Pen Up
G1 X13.49 Y27.39
M3 ; Pen Down
G1 X7.00 Y27.39
M5 ; Pen Up
G1 X7.00 Y27.89
M3 ; Pen Down
G1 X13.79 Y27.89
M5 ; Pen Up
G1 X17.19 Y27.89
M3 ; Pen Down
G1 X18.38 Y27.89
M5 ; Pen Up
G1 X19.73 Y27.89
M3 ; Pen Down
G1 X21.06 Y27.89
M5 ; Pen Up
G1 X22.13 Y27.89
M3 ; Pen Down
G1 X25.68 Y27.89
M5 ; Pen Up
G1 X28.68 Y27.89
M3 ; Pen Down
G1 X32.33 Y27.89
M5 ; Pen Up
G1 X33.33 Y27.89
M3 ; Pen Down
G1 X34.70 Y27.89
M5 ; Pen Up
G1 X36.05 Y27.89
M3 ; Pen Down
G1 X37.22 Y27.89
M5 ; Pen Up
G1 X40.61 Y27.89
M3 ; Pen Down
G1 X47.41 Y27.89
M5 ; Pen Up
G1 X48.86 Y27.89
M3 ; Pen Down
G1 X50.94 Y27.89
M5 ; Pen Up
G1 X54.26 Y27.89
M3 ; Pen Down
G1 X55.86 Y27.89
M5 ; Pen Up
G1 X58.99 Y27.89
M3 ; Pen Down
G1 X61.40 Y27.89
M5 ; Pen Up
G1 X62.96 Y27.89
M3 ; Pen Down
G1 X64.46 Y27.89
M5 ; Pen Up
G1 X65.18 Y27.89
M3 ; Pen Down
G1 X67.83 Y27.89
M5 ; Pen Up
G1 X68.78 Y27.89
M3 ; Pen Down
G1 X71.61 Y27.89
M5 ; Pen Up
G1 X72.71 Y27.89
M3 ; Pen Down
G1 X75.42 Y27.89
M5 ; Pen Up
G1 X76.68 Y27.89
M3 ; Pen Down
G1 X78.31 Y27.89
M5 ; Pen Up
G1 X80.27 Y27.89
M3 ; Pen Down
G1 X81.37 Y27.89
M5 ; Pen Up
G1 X83.05 Y27.89
M3 ; Pen Down
G1 X84.50 Y27.89
M5 ; Pen Up
G1 X87.23 Y27.89
M3 ; Pen Down
G1 X89.32 Y27.89
M5 ; Pen Up
G1 X90.65 Y27.89
M3 ; Pen Down
G1 X94.28 Y27.89
M5 ; Pen Up
G1 X95.48 Y27.89
M3 ; Pen Down
G1 X97.33 Y27.89
M5 ; Pen Up
G1 X98.14 Y27.89
M3 ; Pen Down
G1 X102.79 Y27.89
M5 ; Pen Up
G1 X104.75 Y27.89
M3 ; Pen Down
G1 X105.99 Y27.89
M5 ; Pen Up
G1 X107.54 Y27.89
M3 ; Pen Down
G1 X108.40 Y27.89
M5 ; Pen Up
G1 X109.50 Y27.89
M3 ; Pen Down
G1 X110.30 Y27.89
M5 ; Pen Up
G1 X111.53 Y27.89
M3 ; Pen Down
G1 X112.17 Y27.89
M5 ; Pen Up
G1 X113.31 Y27.89
M3 ; Pen Down
G1 X114.12 Y27.89
M5 ; Pen Up
G1 X115.60 Y27.89
M3 ; Pen Down
G1 X116.86 Y27.89
M5 ; Pen Up
G1 X118.91 Y27.89
M3 ; Pen Down
G1 X123.65 Y27.89
M5 ; Pen Up
G1 X124.35 Y27.89
M3 ; Pen Down
G1 X126.20 Y27.89
M5 ; Pen Up
G1 X127.43 Y27.89
M3 ; Pen Down
G1 X131.15 Y27.89
M5 ; Pen Up
G1 X132.60 Y27.89
M3 ; Pen Down
G1 X137.42 Y27.89
M5 ; Pen Up
G1 X137.74 Y27.89
M3 ; Pen Down
G1 X137.74 Y27.89
M5 ; Pen Up
G1 X137.76 Y27.89
M3 ; Pen Down
G1 X141.78 Y27.89
M5 ; Pen Up
G1 X145.47 Y27.89
M3 ; Pen Down
G1 X148.25 Y27.89
M5 ; Pen Up
G1 X151.42 Y27.89
M3 ; Pen Down
G1 X152.94 Y27.89
M5 ; Pen Up
G1 X153.71 Y27.89
M3 ; Pen Down
G1 X156.14 Y27.89
M5 ; Pen Up
G1 X159.82 Y27.89
M3 ; Pen Down
G1 X162.14 Y27.89
M5 ; Pen Up
G1 X167.28 Y27.89
M3 ; Pen Down
G1 X169.13 Y27.89
M5 ; Pen Up
G1 X170.31 Y27.89
M3 ; Pen Down
G1 X172.99 Y27.89
M5 ; Pen Up
G1 X172.99 Y28.39
M3 ; Pen Down
G1 X170.41 Y28.39
M5 ; Pen Up
G1 X168.80 Y28.39
M3 ; Pen Down
G1 X166.87 Y28.39
M5 ; Pen Up
G1 X162.32 Y28.39
M3 ; Pen Down
G1 X160.07 Y28.39
M5 ; Pen Up
G1 X157.20 Y28.39
M3 ; Pen Down
G1 X154.62 Y28.39
M5 ; Pen Up
G1 X152.85 Y28.39
M3 ; Pen Down
G1 X151.49 Y28.39
M5 ; Pen Up
G1 X148.03 Y28.39
M3 ; Pen Down
G1 X145.22 Y28.39
M5 ; Pen Up
G1 X140.95 Y28.39
M3 ; Pen Down
G1 X132.59 Y28.39
M5 ; Pen Up
G1 X131.14 Y28.39
M3 ; Pen Down
G1 X127.75 Y28.39
M5 ; Pen Up
G1 X126.14 Y28.39
M3 ; Pen Down
G1 X120.19 Y28.39
M5 ; Pen Up
G1 X119.96 Y28.39
M3 ; Pen Down
G1 X118.29 Y28.39
M5 ; Pen Up
G1 X116.45 Y28.39
M3 ; Pen Down
G1 X115.30 Y28.39
M5 ; Pen Up
G1 X113.97 Y28.39
M3 ; Pen Down
G1 X113.10 Y28.39
M5 ; Pen Up
G1 X112.12 Y28.39
M3 ; Pen Down
G1 X111.57 Y28.39
M5 ; Pen Up
G1 X110.33 Y28.39
M3 ; Pen Down
G1 X109.59 Y28.39
M5 ; Pen Up
G1 X108.56 Y28.39
M3 ; Pen Down
G1 X107.70 Y28.39
M5 ; Pen Up
G1 X106.41 Y28.39
M3 ; Pen Down
G1 X105.22 Y28.39
M5 ; Pen Up
G1 X103.37 Y28.39
M3 ; Pen Down
G1 X95.63 Y28.39
M5 ; Pen Up
G1 X93.91 Y28.39
M3 ; Pen Down
G1 X90.64 Y28.39
M5 ; Pen Up
G1 X89.34 Y28.39
M3 ; Pen Down
G1 X86.93 Y28.39
M5 ; Pen Up
G1 X84.58 Y28.39
M3 ; Pen Down
G1 X83.11 Y28.39
M5 ; Pen Up
G1 X81.33 Y28.39
M3 ; Pen Down
G1 X80.15 Y28.39
M5 ; Pen Up
G1 X77.97 Y28.39
M3 ; Pen Down
G1 X76.24 Y28.39
M5 ; Pen Up
G1 X75.53 Y28.39
M3 ; Pen Down
G1 X72.63 Y28.39
M5 ; Pen Up
G1 X71.73 Y28.39
M3 ; Pen Down
G1 X70.81 Y28.39
M5 ; Pen Up
G1 X69.91 Y28.39
M3 ; Pen Down
G1 X68.49 Y28.39
M5 ; Pen Up
G1 X67.99 Y28.39
M3 ; Pen Down
G1 X63.16 Y28.39
M5 ; Pen Up
G1 X61.21 Y28.39
M3 ; Pen Down
G1 X58.96 Y28.39
M5 ; Pen Up
G1 X56.11 Y28.39
M3 ; Pen Down
G1 X54.20 Y28.39
M5 ; Pen Up
G1 X51.11 Y28.39
M3 ; Pen Down
G1 X48.86 Y28.39
M5 ; Pen Up
G1 X47.41 Y28.39
M3 ; Pen Down
G1 X40.46 Y28.39
M5 ; Pen Up
G1 X36.63 Y28.39
M3 ; Pen Down
G1 X36.19 Y28.39
M5 ; Pen Up
G1 X35.01 Y28.39
M3 ; Pen Down
G1 X32.92 Y28.39
M5 ; Pen Up
G1 X31.93 Y28.39
M3 ; Pen Down
G1 X29.53 Y28.39
M5 ; Pen Up
G1 X25.17 Y28.39
M3 ; Pen Down
G1 X22.40 Y28.39
M5 ; Pen Up
G1 X21.43 Y28.39
M3 ; Pen Down
G1 X19.49 Y28.39
M5 ; Pen Up
G1 X18.33 Y28.39
M3 ; Pen Down
G1 X17.85 Y28.39
M5 ; Pen Up
G1 X14.02 Y28.39
M3 ; Pen Down
G1 X7.00 Y28.39
M5 ; Pen Up
G1 X7.00 Y28.89
M3 ; Pen Down
G1 X11.30 Y28.89
M5 ; Pen Up
G1 X12.75 Y28.89
M3 ; Pen Down
G1 X14.27 Y28.89
M5 ; Pen Up
G1 X18.39 Y28.89
M3 ; Pen Down
G1 X21.88 Y28.89
M5 ; Pen Up
G1 X22.90 Y28.89
M3 ; Pen Down
G1 X24.72 Y28.89
M5 ; Pen Up
G1 X29.72 Y28.89
M3 ; Pen Down
G1 X31.52 Y28.89
M5 ; Pen Up
G1 X32.43 Y28.89
M3 ; Pen Down
G1 X36.02 Y28.89
M5 ; Pen Up
G1 X40.04 Y28.89
M3 ; Pen Down
G1 X41.65 Y28.89
M5 ; Pen Up
G1 X43.05 Y28.89
M3 ; Pen Down
G1 X47.41 Y28.89
M5 ; Pen Up
G1 X48.86 Y28.89
M3 ; Pen Down
G1 X51.66 Y28.89
M5 ; Pen Up
G1 X54.02 Y28.89
M3 ; Pen Down
G1 X56.32 Y28.89
M5 ; Pen Up
G1 X58.83 Y28.89
M3 ; Pen Down
G1 X61.16 Y28.89
M5 ; Pen Up
G1 X63.33 Y28.89
M3 ; Pen Down
G1 X69.74 Y28.89
M5 ; Pen Up
G1 X70.91 Y28.89
M3 ; Pen Down
G1 X77.52 Y28.89
M5 ; Pen Up
G1 X79.96 Y28.89
M3 ; Pen Down
G1 X81.34 Y28.89
M5 ; Pen Up
G1 X83.21 Y28.89
M3 ; Pen Down
G1 X84.73 Y28.89
M5 ; Pen Up
G1 X86.29 Y28.89
M3 ; Pen Down
G1 X89.35 Y28.89
M5 ; Pen Up
G1 X90.66 Y28.89
M3 ; Pen Down
G1 X93.75 Y28.89
M5 ; Pen Up
G1 X95.61 Y28.89
M3 ; Pen Down
G1 X98.46 Y28.89
M5 ; Pen Up
G1 X100.59 Y28.89
M3 ; Pen Down
G1 X101.52 Y28.89
M5 ; Pen Up
G1 X102.52 Y28.89
M3 ; Pen Down
G1 X103.96 Y28.89
M5 ; Pen Up
G1 X105.76 Y28.89
M3 ; Pen Down
G1 X106.75 Y28.89
M5 ; Pen Up
G1 X108.10 Y28.89
M3 ; Pen Down
G1 X108.87 Y28.89
M5 ; Pen Up
G1 X109.66 Y28.89
M3 ; Pen Down
G1 X110.38 Y28.89
M5 ; Pen Up
G1 X111.62 Y28.89
M3 ; Pen Down
G1 X111.99 Y28.89
M5 ; Pen Up
G1 X112.83 Y28.89
M3 ; Pen Down
G1 X113.54 Y28.89
M5 ; Pen Up
G1 X114.89 Y28.89
M3 ; Pen Down
G1 X116.03 Y28.89
M5 ; Pen Up
G1 X117.62 Y28.89
M3 ; Pen Down
G1 X119.21 Y28.89
M5 ; Pen Up
G1 X120.27 Y28.89
M3 ; Pen Down
G1 X121.26 Y28.89
M5 ; Pen Up
G1 X123.17 Y28.89
M3 ; Pen Down
G1 X126.11 Y28.89
M5 ; Pen Up
G1 X127.99 Y28.89
M3 ; Pen Down
G1 X131.12 Y28.89
M5 ; Pen Up
G1 X132.59 Y28.89
M3 ; Pen Down
G1 X139.86 Y28.89
M5 ; Pen Up
G1 X145.09 Y28.89
M3 ; Pen Down
G1 X147.81 Y28.89
M5 ; Pen Up
G1 X151.58 Y28.89
M3 ; Pen Down
G1 X152.94 Y28.89
M5 ; Pen Up
G1 X155.33 Y28.89
M3 ; Pen Down
G1 X158.10 Y28.89
M5 ; Pen Up
G1 X160.27 Y28.89
M3 ; Pen Down
G1 X162.47 Y28.89
M5 ; Pen Up
G1 X166.62 Y28.89
M3 ; Pen Down
G1 X168.53 Y28.89
M5 ; Pen Up
G1 X170.50 Y28.89
M3 ; Pen Down
G1 X172.99 Y28.89
M5 ; Pen Up
G1 X172.99 Y29.38
M3 ; Pen Down
G1 X170.62 Y29.38
M5 ; Pen Up
G1 X168.15 Y29.38
M3 ; Pen Down
G1 X166.17 Y29.38
M5 ; Pen Up
G1 X162.77 Y29.38
M3 ; Pen Down
G1 X160.41 Y29.38
M5 ; Pen Up
G1 X159.29 Y29.38
M3 ; Pen Down
G1 X156.39 Y29.38
M5 ; Pen Up
G1 X153.20 Y29.38
M3 ; Pen Down
G1 X151.67 Y29.38
M5 ; Pen Up
G1 X147.82 Y29.38
M3 ; Pen Down
G1 X144.96 Y29.38
M5 ; Pen Up
G1 X138.60 Y29.38
M3 ; Pen Down
G1 X132.59 Y29.38
M5 ; Pen Up
G1 X131.11 Y29.38
M3 ; Pen Down
G1 X128.05 Y29.38
M5 ; Pen Up
G1 X126.30 Y29.38
M3 ; Pen Down
G1 X123.33 Y29.38
M5 ; Pen Up
G1 X121.04 Y29.38
M3 ; Pen Down
G1 X119.92 Y29.38
M5 ; Pen Up
G1 X118.57 Y29.38
M3 ; Pen Down
G1 X117.08 Y29.38
M5 ; Pen Up
G1 X115.59 Y29.38
M3 ; Pen Down
G1 X114.55 Y29.38
M5 ; Pen Up
G1 X113.45 Y29.38
M3 ; Pen Down
G1 X112.76 Y29.38
M5 ; Pen Up
G1 X110.38 Y29.38
M3 ; Pen Down
G1 X109.66 Y29.38
M5 ; Pen Up
G1 X109.01 Y29.38
M3 ; Pen Down
G1 X108.26 Y29.38
M5 ; Pen Up
G1 X107.22 Y29.38
M3 ; Pen Down
G1 X106.24 Y29.38
M5 ; Pen Up
G1 X104.70 Y29.38
M3 ; Pen Down
G1 X103.13 Y29.38
M5 ; Pen Up
G1 X101.58 Y29.38
M3 ; Pen Down
G1 X100.70 Y29.38
M5 ; Pen Up
G1 X98.32 Y29.38
M3 ; Pen Down
G1 X95.16 Y29.38
M5 ; Pen Up
G1 X93.62 Y29.38
M3 ; Pen Down
G1 X90.68 Y29.38
M5 ; Pen Up
G1 X89.34 Y29.38
M3 ; Pen Down
G1 X85.55 Y29.38
M5 ; Pen Up
G1 X84.73 Y29.38
M3 ; Pen Down
G1 X83.19 Y29.38
M5 ; Pen Up
G1 X81.22 Y29.38
M3 ; Pen Down
G1 X79.84 Y29.38
M5 ; Pen Up
G1 X77.18 Y29.38
M3 ; Pen Down
G1 X74.41 Y29.38
M5 ; Pen Up
G1 X73.60 Y29.38
M3 ; Pen Down
G1 X70.99 Y29.38
M5 ; Pen Up
G1 X69.64 Y29.38
M3 ; Pen Down
G1 X66.67 Y29.38
M5 ; Pen Up
G1 X66.16 Y29.38
M3 ; Pen Down
G1 X63.49 Y29.38
M5 ; Pen Up
G1 X61.30 Y29.38
M3 ; Pen Down
G1 X58.57 Y29.38
M5 ; Pen Up
G1 X56.53 Y29.38
M3 ; Pen Down
G1 X53.83 Y29.38
M5 ; Pen Up
G1 X52.38 Y29.38
M3 ; Pen Down
G1 X48.86 Y29.38
M5 ; Pen Up
G1 X47.41 Y29.38
M3 ; Pen Down
G1 X43.66 Y29.38
M5 ; Pen Up
G1 X42.33 Y29.38
M3 ; Pen Down
G1 X41.88 Y29.38
M5 ; Pen Up
G1 X41.21 Y29.38
M3 ; Pen Down
G1 X39.71 Y29.38
M5 ; Pen Up
G1 X39.30 Y29.38
M3 ; Pen Down
G1 X38.21 Y29.38
M5 ; Pen Up
G1 X36.37 Y29.38
M3 ; Pen Down
G1 X31.85 Y29.38
M5 ; Pen Up
G1 X30.96 Y29.38
M3 ; Pen Down
G1 X29.74 Y29.38
M5 ; Pen Up
G1 X24.68 Y29.38
M3 ; Pen Down
G1 X23.44 Y29.38
M5 ; Pen Up
G1 X22.62 Y29.38
M3 ; Pen Down
G1 X18.19 Y29.38
M5 ; Pen Up
G1 X16.07 Y29.38
M3 ; Pen Down
G1 X15.16 Y29.38
M5 ; Pen Up
G1 X14.62 Y29.38
M3 ; Pen Down
G1 X13.11 Y29.38
M5 ; Pen Up
G1 X12.71 Y29.38
M3 ; Pen Down
G1 X12.19 Y29.38
M5 ; Pen Up
G1 X10.74 Y29.38
M3 ; Pen Down
G1 X7.00 Y29.38
M5 ; Pen Up
G1 X7.00 Y29.88
M3 ; Pen Down
G1 X10.41 Y29.88
M5 ; Pen Up
G1 X11.52 Y29.88
M3 ; Pen Down
G1 X12.07 Y29.88
M5 ; Pen Up
G1 X13.30 Y29.88
M3 ; Pen Down
G1 X15.73 Y29.88
M5 ; Pen Up
G1 X17.88 Y29.88
M3 ; Pen Down
G1 X23.12 Y29.88
M5 ; Pen Up
G1 X23.96 Y29.88
M3 ; Pen Down
G1 X24.69 Y29.88
M5 ; Pen Up
G1 X29.77 Y29.88
M3 ; Pen Down
G1 X30.48 Y29.88
M5 ; Pen Up
G1 X31.18 Y29.88
M3 ; Pen Down
G1 X36.52 Y29.88
M5 ; Pen Up
G1 X38.88 Y29.88
M3 ; Pen Down
G1 X41.14 Y29.88
M5 ; Pen Up
G1 X43.90 Y29.88
M3 ; Pen Down
G1 X47.41 Y29.88
M5 ; Pen Up
G1 X48.86 Y29.88
M3 ; Pen Down
G1 X54.72 Y29.88
M5 ; Pen Up
G1 X55.20 Y29.88
M3 ; Pen Down
G1 X56.80 Y29.88
M5 ; Pen Up
G1 X58.34 Y29.88
M3 ; Pen Down
G1 X61.52 Y29.88
M5 ; Pen Up
G1 X63.67 Y29.88
M3 ; Pen Down
G1 X65.87 Y29.88
M5 ; Pen Up
G1 X66.88 Y29.88
M3 ; Pen Down
G1 X69.45 Y29.88
M5 ; Pen Up
G1 X71.18 Y29.88
M3 ; Pen Down
G1 X73.52 Y29.88
M5 ; Pen Up
G1 X74.50 Y29.88
M3 ; Pen Down
G1 X76.72 Y29.88
M5 ; Pen Up
G1 X79.75 Y29.88
M3 ; Pen Down
G1 X81.15 Y29.88
M5 ; Pen Up
G1 X83.25 Y29.88
M3 ; Pen Down
G1 X89.30 Y29.88
M5 ; Pen Up
G1 X90.64 Y29.88
M3 ; Pen Down
G1 X93.65 Y29.88
M5 ; Pen Up
G1 X95.20 Y29.88
M3 ; Pen Down
G1 X96.50 Y29.88
M5 ; Pen Up
G1 X96.90 Y29.88
M3 ; Pen Down
G1 X98.38 Y29.88
M5 ; Pen Up
G1 X100.70 Y29.88
M3 ; Pen Down
G1 X101.69 Y29.88
M5 ; Pen Up
G1 X103.71 Y29.88
M3 ; Pen Down
G1 X105.21 Y29.88
M5 ; Pen Up
G1 X106.56 Y29.88
M3 ; Pen Down
G1 X107.53 Y29.88
M5 ; Pen Up
G1 X108.46 Y29.88
M3 ; Pen Down
G1 X109.12 Y29.88
M5 ; Pen Up
G1 X109.59 Y29.88
M3 ; Pen Down
G1 X110.43 Y29.88
M5 ; Pen Up
G1 X111.61 Y29.88
M3 ; Pen Down
G1 X112.93 Y29.88
M5 ; Pen Up
G1 X112.95 Y29.88
M3 ; Pen Down
G1 X112.95 Y29.88
M5 ; Pen Up
G1 X114.14 Y29.88
M3 ; Pen Down
G1 X115.14 Y29.88
M5 ; Pen Up
G1 X116.51 Y29.88
M3 ; Pen Down
G1 X117.93 Y29.88
M5 ; Pen Up
G1 X119.83 Y29.88
M3 ; Pen Down
G1 X120.98 Y29.88
M5 ; Pen Up
G1 X123.31 Y29.88
M3 ; Pen Down
G1 X124.66 Y29.88
M5 ; Pen Up
G1 X125.28 Y29.88
M3 ; Pen Down
G1 X126.40 Y29.88
M5 ; Pen Up
G1 X128.12 Y29.88
M3 ; Pen Down
G1 X131.14 Y29.88
M5 ; Pen Up
G1 X132.58 Y29.88
M3 ; Pen Down
G1 X137.52 Y29.88
M5 ; Pen Up
G1 X144.70 Y29.88
M3 ; Pen Down
G1 X148.07 Y29.88
M5 ; Pen Up
G1 X151.88 Y29.88
M3 ; Pen Down
G1 X153.35 Y29.88
M5 ; Pen Up
G1 X157.26 Y29.88
M3 ; Pen Down
G1 X163.01 Y29.88
M5 ; Pen Up
G1 X165.91 Y29.88
M3 ; Pen Down
G1 X167.90 Y29.88
M5 ; Pen Up
G1 X170.80 Y29.88
M3 ; Pen Down
G1 X172.99 Y29.88
M5 ; Pen Up
G1 X172.99 Y30.38
M3 ; Pen Down
G1 X171.00 Y30.38
M5 ; Pen Up
G1 X167.56 Y30.38
M3 ; Pen Down
G1 X165.51 Y30.38
M5 ; Pen Up
G1 X163.25 Y30.38
M3 ; Pen Down
G1 X158.28 Y30.38
M5 ; Pen Up
G1 X153.42 Y30.38
M3 ; Pen Down
G1 X151.98 Y30.38
M5 ; Pen Up
G1 X148.62 Y30.38
M3 ; Pen Down
G1 X144.53 Y30.38
M5 ; Pen Up
G1 X136.48 Y30.38
M3 ; Pen Down
G1 X132.60 Y30.38
M5 ; Pen Up
G1 X131.14 Y30.38
M3 ; Pen Down
G1 X128.01 Y30.38
M5 ; Pen Up
G1 X126.22 Y30.38
M3 ; Pen Down
G1 X125.54 Y30.38
M5 ; Pen Up
G1 X124.40 Y30.38
M3 ; Pen Down
G1 X123.28 Y30.38
M5 ; Pen Up
G1 X120.96 Y30.38
M3 ; Pen Down
G1 X119.75 Y30.38
M5 ; Pen Up
G1 X118.38 Y30.38
M3 ; Pen Down
G1 X115.99 Y30.38
M5 ; Pen Up
G1 X114.70 Y30.38
M3 ; Pen Down
G1 X113.94 Y30.38
M5 ; Pen Up
G1 X112.79 Y30.38
M3 ; Pen Down
G1 X108.88 Y30.38
M5 ; Pen Up
G1 X107.71 Y30.38
M3 ; Pen Down
G1 X107.11 Y30.38
M5 ; Pen Up
G1 X105.73 Y30.38
M3 ; Pen Down
G1 X103.35 Y30.38
M5 ; Pen Up
G1 X101.95 Y30.38
M3 ; Pen Down
G1 X100.74 Y30.38
M5 ; Pen Up
G1 X98.42 Y30.38
M3 ; Pen Down
G1 X97.32 Y30.38
M5 ; Pen Up
G1 X96.18 Y30.38
M3 ; Pen Down
G1 X95.66 Y30.38
M5 ; Pen Up
G1 X93.78 Y30.38
M3 ; Pen Down
G1 X90.64 Y30.38
M5 ; Pen Up
G1 X89.31 Y30.38
M3 ; Pen Down
G1 X87.24 Y30.38
M5 ; Pen Up
G1 X86.41 Y30.38
M3 ; Pen Down
G1 X83.28 Y30.38
M5 ; Pen Up
G1 X81.60 Y30.38
M3 ; Pen Down
G1 X79.44 Y30.38
M5 ; Pen Up
G1 X76.28 Y30.38
M3 ; Pen Down
G1 X74.50 Y30.38
M5 ; Pen Up
G1 X73.45 Y30.38
M3 ; Pen Down
G1 X71.45 Y30.38
M5 ; Pen Up
G1 X69.23 Y30.38
M3 ; Pen Down
G1 X66.88 Y30.38
M5 ; Pen Up
G1 X65.82 Y30.38
M3 ; Pen Down
G1 X63.70 Y30.38
M5 ; Pen Up
G1 X61.71 Y30.38
M3 ; Pen Down
G1 X58.12 Y30.38
M5 ; Pen Up
G1 X57.02 Y30.38
M3 ; Pen Down
G1 X55.63 Y30.38
M5 ; Pen Up
G1 X54.45 Y30.38
M3 ; Pen Down
G1 X51.94 Y30.38
M5 ; Pen Up
G1 X51.05 Y30.38
M3 ; Pen Down
G1 X48.86 Y30.38
M5 ; Pen Up
G1 X47.41 Y30.38
M3 ; Pen Down
G1 X44.27 Y30.38
M5 ; Pen Up
G1 X42.95 Y30.38
M3 ; Pen Down
G1 X42.38 Y30.38
M5 ; Pen Up
G1 X41.33 Y30.38
M3 ; Pen Down
G1 X39.27 Y30.38
M5 ; Pen Up
G1 X36.36 Y30.38
M3 ; Pen Down
G1 X30.73 Y30.38
M5 ; Pen Up
G1 X30.37 Y30.38
M3 ; Pen Down
G1 X30.10 Y30.38
M5 ; Pen Up
G1 X24.53 Y30.38
M3 ; Pen Down
G1 X24.00 Y30.38
M5 ; Pen Up
G1 X23.65 Y30.38
M3 ; Pen Down
G1 X17.97 Y30.38
M5 ; Pen Up
G1 X16.26 Y30.38
M3 ; Pen Down
G1 X16.12 Y30.38
M5 ; Pen Up
G1 X15.19 Y30.38
M3 ; Pen Down
G1 X13.13 Y30.38
M5 ; Pen Up
G1 X12.19 Y30.38
M3 ; Pen Down
G1 X11.45 Y30.38
M5 ; Pen Up
G1 X10.17 Y30.38
M3 ; Pen Down
G1 X6.99 Y30.38
M5 ; Pen Up
G1 X6.97 Y30.88
M3 ; Pen Down
G1 X10.08 Y30.88
M5 ; Pen Up
G1 X11.82 Y30.88
M3 ; Pen Down
G1 X14.46 Y30.88
M5 ; Pen Up
G1 X15.69 Y30.88
M3 ; Pen Down
G1 X16.48 Y30.88
M5 ; Pen Up
G1 X19.48 Y30.88
M3 ; Pen Down
G1 X24.03 Y30.88
M5 ; Pen Up
G1 X30.39 Y30.88
M3 ; Pen Down
G1 X35.28 Y30.88
M5 ; Pen Up
G1 X37.95 Y30.88
M3 ; Pen Down
G1 X38.69 Y30.88
M5 ; Pen Up
G1 X39.92 Y30.88
M3 ; Pen Down
G1 X42.84 Y30.88
M5 ; Pen Up
G1 X44.44 Y30.88
M3 ; Pen Down
G1 X47.41 Y30.88
M5 ; Pen Up
G1 X48.86 Y30.88
M3 ; Pen Down
G1 X50.97 Y30.88
M5 ; Pen Up
G1 X52.29 Y30.88
M3 ; Pen Down
G1 X54.06 Y30.88
M5 ; Pen Up
G1 X55.74 Y30.88
M3 ; Pen Down
G1 X59.38 Y30.88
M5 ; Pen Up
G1 X60.17 Y30.88
M3 ; Pen Down
G1 X61.86 Y30.88
M5 ; Pen Up
G1 X63.57 Y30.88
M3 ; Pen Down
G1 X65.81 Y30.88
M5 ; Pen Up
G1 X66.93 Y30.88
M3 ; Pen Down
G1 X69.14 Y30.88
M5 ; Pen Up
G1 X71.52 Y30.88
M3 ; Pen Down
G1 X73.25 Y30.88
M5 ; Pen Up
G1 X74.50 Y30.88
M3 ; Pen Down
G1 X75.94 Y30.88
M5 ; Pen Up
G1 X79.20 Y30.88
M3 ; Pen Down
G1 X82.31 Y30.88
M5 ; Pen Up
G1 X83.17 Y30.88
M3 ; Pen Down
G1 X85.66 Y30.88
M5 ; Pen Up
G1 X87.32 Y30.88
M3 ; Pen Down
G1 X89.34 Y30.88
M5 ; Pen Up
G1 X90.67 Y30.88
M3 ; Pen Down
G1 X93.96 Y30.88
M5 ; Pen Up
G1 X97.30 Y30.88
M3 ; Pen Down
G1 X98.36 Y30.88
M5 ; Pen Up
G1 X100.78 Y30.88
M3 ; Pen Down
G1 X106.40 Y30.88
M5 ; Pen Up
G1 X107.28 Y30.88
M3 ; Pen Down
G1 X108.20 Y30.88
M5 ; Pen Up
G1 X108.96 Y30.88
M3 ; Pen Down
G1 X112.79 Y30.88
M5 ; Pen Up
G1 X113.40 Y30.88
M3 ; Pen Down
G1 X114.25 Y30.88
M5 ; Pen Up
G1 X115.33 Y30.88
M3 ; Pen Down
G1 X120.92 Y30.88
M5 ; Pen Up
G1 X123.33 Y30.88
M3 ; Pen Down
G1 X124.56 Y30.88
M5 ; Pen Up
G1 X127.68 Y30.88
M3 ; Pen Down
G1 X131.14 Y30.88
M5 ; Pen Up
G1 X132.62 Y30.88
M3 ; Pen Down
G1 X136.06 Y30.88
M5 ; Pen Up
G1 X144.39 Y30.88
M3 ; Pen Down
G1 X149.09 Y30.88
M5 ; Pen Up
G1 X152.01 Y30.88
M3 ; Pen Down
G1 X153.49 Y30.88
M5 ; Pen Up
G1 X159.11 Y30.88
M3 ; Pen Down
G1 X163.45 Y30.88
M5 ; Pen Up
G1 X165.24 Y30.88
M3 ; Pen Down
G1 X167.22 Y30.88
M5 ; Pen Up
G1 X171.07 Y30.88
M3 ; Pen Down
G1 X172.99 Y30.88
M5 ; Pen Up
G1 X172.99 Y31.38
M3 ; Pen Down
G1 X171.05 Y31.38
M5 ; Pen Up
G1 X166.88 Y31.38
M3 ; Pen Down
G1 X164.84 Y31.38
M5 ; Pen Up
G1 X163.57 Y31.38
M3 ; Pen Down
G1 X160.02 Y31.38
M5 ; Pen Up
G1 X153.66 Y31.38
M3 ; Pen Down
G1 X152.08 Y31.38
M5 ; Pen Up
G1 X149.67 Y31.38
M3 ; Pen Down
G1 X147.51 Y31.38
M5 ; Pen Up
G1 X146.50 Y31.38
M3 ; Pen Down
G1 X144.26 Y31.38
M5 ; Pen Up
G1 X135.92 Y31.38
M3 ; Pen Down
G1 X132.60 Y31.38
M5 ; Pen Up
G1 X131.18 Y31.38
M3 ; Pen Down
G1 X129.18 Y31.38
M5 ; Pen Up
G1 X128.56 Y31.38
M3 ; Pen Down
G1 X127.09 Y31.38
M5 ; Pen Up
G1 X124.92 Y31.38
M3 ; Pen Down
G1 X123.49 Y31.38
M5 ; Pen Up
G1 X120.97 Y31.38
M3 ; Pen Down
G1 X114.49 Y31.38
M5 ; Pen Up
G1 X114.00 Y31.38
M3 ; Pen Down
G1 X108.87 Y31.38
M5 ; Pen Up
G1 X108.44 Y31.38
M3 ; Pen Down
G1 X107.71 Y31.38
M5 ; Pen Up
G1 X107.25 Y31.38
M3 ; Pen Down
G1 X103.91 Y31.38
M5 ; Pen Up
G1 X103.41 Y31.38
M3 ; Pen Down
G1 X100.70 Y31.38
M5 ; Pen Up
G1 X98.24 Y31.38
M3 ; Pen Down
G1 X96.79 Y31.38
M5 ; Pen Up
G1 X94.59 Y31.38
M3 ; Pen Down
G1 X90.68 Y31.38
M5 ; Pen Up
G1 X89.35 Y31.38
M3 ; Pen Down
G1 X87.22 Y31.38
M5 ; Pen Up
G1 X85.10 Y31.38
M3 ; Pen Down
G1 X81.16 Y31.38
M5 ; Pen Up
G1 X80.51 Y31.38
M3 ; Pen Down
G1 X79.00 Y31.38
M5 ; Pen Up
G1 X75.86 Y31.38
M3 ; Pen Down
G1 X74.54 Y31.38
M5 ; Pen Up
G1 X73.04 Y31.38
M3 ; Pen Down
G1 X71.53 Y31.38
M5 ; Pen Up
G1 X69.03 Y31.38
M3 ; Pen Down
G1 X67.03 Y31.38
M5 ; Pen Up
G1 X65.78 Y31.38
M3 ; Pen Down
G1 X63.48 Y31.38
M5 ; Pen Up
G1 X62.06 Y31.38
M3 ; Pen Down
G1 X60.27 Y31.38
M5 ; Pen Up
G1 X59.11 Y31.38
M3 ; Pen Down
G1 X55.98 Y31.38
M5 ; Pen Up
G1 X53.67 Y31.38
M3 ; Pen Down
G1 X52.25 Y31.38
M5 ; Pen Up
G1 X50.84 Y31.38
M3 ; Pen Down
G1 X48.86 Y31.38
M5 ; Pen Up
G1 X47.41 Y31.38
M3 ; Pen Down
G1 X44.53 Y31.38
M5 ; Pen Up
G1 X42.29 Y31.38
M3 ; Pen Down
G1 X40.83 Y31.38
M5 ; Pen Up
G1 X39.23 Y31.38
M3 ; Pen Down
G1 X37.79 Y31.38
M5 ; Pen Up
G1 X23.72 Y31.38
M3 ; Pen Down
G1 X23.46 Y31.38
M5 ; Pen Up
G1 X16.48 Y31.38
M3 ; Pen Down
G1 X15.17 Y31.38
M5 ; Pen Up
G1 X13.69 Y31.38
M3 ; Pen Down
G1 X12.27 Y31.38
M5 ; Pen Up
G1 X9.77 Y31.38
M3 ; Pen Down
G1 X6.99 Y31.38
M5 ; Pen Up
G1 X7.00 Y31.88
M3 ; Pen Down
G1 X9.67 Y31.88
M5 ; Pen Up
G1 X14.74 Y31.88
M3 ; Pen Down
G1 X17.84 Y31.88
M5 ; Pen Up
G1 X19.19 Y31.88
M3 ; Pen Down
G1 X20.32 Y31.88
M5 ; Pen Up
G1 X21.34 Y31.88
M3 ; Pen Down
G1 X22.19 Y31.88
M5 ; Pen Up
G1 X32.61 Y31.88
M3 ; Pen Down
G1 X33.66 Y31.88
M5 ; Pen Up
G1 X34.45 Y31.88
M3 ; Pen Down
G1 X35.47 Y31.88
M5 ; Pen Up
G1 X36.84 Y31.88
M3 ; Pen Down
G1 X39.63 Y31.88
M5 ; Pen Up
G1 X44.69 Y31.88
M3 ; Pen Down
G1 X47.41 Y31.88
M5 ; Pen Up
G1 X48.86 Y31.88
M3 ; Pen Down
G1 X50.95 Y31.88
M5 ; Pen Up
G1 X51.80 Y31.88
M3 ; Pen Down
G1 X53.23 Y31.88
M5 ; Pen Up
G1 X56.29 Y31.88
M3 ; Pen Down
G1 X58.87 Y31.88
M5 ; Pen Up
G1 X60.48 Y31.88
M3 ; Pen Down
G1 X62.25 Y31.88
M5 ; Pen Up
G1 X63.34 Y31.88
M3 ; Pen Down
G1 X65.77 Y31.88
M5 ; Pen Up
G1 X67.12 Y31.88
M3 ; Pen Down
G1 X68.90 Y31.88
M5 ; Pen Up
G1 X71.54 Y31.88
M3 ; Pen Down
G1 X73.02 Y31.88
M5 ; Pen Up
G1 X74.61 Y31.88
M3 ; Pen Down
G1 X75.90 Y31.88
M5 ; Pen Up
G1 X78.66 Y31.88
M3 ; Pen Down
G1 X80.09 Y31.88
M5 ; Pen Up
G1 X81.76 Y31.88
M3 ; Pen Down
G1 X84.86 Y31.88
M5 ; Pen Up
G1 X87.22 Y31.88
M3 ; Pen Down
G1 X89.32 Y31.88
M5 ; Pen Up
G1 X90.64 Y31.88
M3 ; Pen Down
G1 X92.66 Y31.88
M5 ; Pen Up
G1 X93.22 Y31.88
M3 ; Pen Down
G1 X97.79 Y31.88
M5 ; Pen Up
G1 X100.58 Y31.88
M3 ; Pen Down
G1 X102.24 Y31.88
M5 ; Pen Up
G1 X104.04 Y31.88
M3 ; Pen Down
G1 X105.35 Y31.88
M5 ; Pen Up
G1 X106.14 Y31.88
M3 ; Pen Down
G1 X109.85 Y31.88
M5 ; Pen Up
G1 X111.66 Y31.88
M3 ; Pen Down
G1 X115.48 Y31.88
M5 ; Pen Up
G1 X116.38 Y31.88
M3 ; Pen Down
G1 X117.61 Y31.88
M5 ; Pen Up
G1 X119.51 Y31.88
M3 ; Pen Down
G1 X121.24 Y31.88
M5 ; Pen Up
G1 X123.89 Y31.88
M3 ; Pen Down
G1 X128.29 Y31.88
M5 ; Pen Up
G1 X129.14 Y31.88
M3 ; Pen Down
G1 X131.16 Y31.88
M5 ; Pen Up
G1 X132.59 Y31.88
M3 ; Pen Down
G1 X135.73 Y31.88
M5 ; Pen Up
G1 X144.03 Y31.88
M3 ; Pen Down
G1 X146.30 Y31.88
M5 ; Pen Up
G1 X148.15 Y31.88
M3 ; Pen Down
G1 X150.21 Y31.88
M5 ; Pen Up
G1 X152.19 Y31.88
M3 ; Pen Down
G1 X153.90 Y31.88
M5 ; Pen Up
G1 X160.92 Y31.88
M3 ; Pen Down
G1 X163.79 Y31.88
M5 ; Pen Up
G1 X164.52 Y31.88
M3 ; Pen Down
G1 X166.60 Y31.88
M5 ; Pen Up
G1 X170.92 Y31.88
M3 ; Pen Down
G1 X172.99 Y31.88
M5 ; Pen Up
G1 X172.99 Y32.37
M3 ; Pen Down
G1 X170.60 Y32.37
M5 ; Pen Up
G1 X166.28 Y32.37
M3 ; Pen Down
G1 X161.39 Y32.37
M5 ; Pen Up
G1 X153.98 Y32.37
M3 ; Pen Down
G1 X152.36 Y32.37
M5 ; Pen Up
G1 X150.72 Y32.37
M3 ; Pen Down
G1 X148.67 Y32.37
M5 ; Pen Up
G1 X146.15 Y32.37
M3 ; Pen Down
G1 X143.89 Y32.37
M5 ; Pen Up
G1 X135.62 Y32.37
M3 ; Pen Down
G1 X132.59 Y32.37
M5 ; Pen Up
G1 X131.18 Y32.37
M3 ; Pen Down
G1 X129.08 Y32.37
M5 ; Pen Up
G1 X128.37 Y32.37
M3 ; Pen Down
G1 X124.51 Y32.37
M5 ; Pen Up
G1 X121.79 Y32.37
M3 ; Pen Down
G1 X120.18 Y32.37
M5 ; Pen Up
G1 X118.17 Y32.37
M3 ; Pen Down
G1 X116.51 Y32.37
M5 ; Pen Up
G1 X115.06 Y32.37
M3 ; Pen Down
G1 X112.35 Y32.37
M5 ; Pen Up
G1 X109.35 Y32.37
M3 ; Pen Down
G1 X106.75 Y32.37
M5 ; Pen Up
G1 X105.26 Y32.37
M3 ; Pen Down
G1 X103.46 Y32.37
M5 ; Pen Up
G1 X101.46 Y32.37
M3 ; Pen Down
G1 X99.66 Y32.37
M5 ; Pen Up
G1 X97.26 Y32.37
M3 ; Pen Down
G1 X93.12 Y32.37
M5 ; Pen Up
G1 X92.69 Y32.37
M3 ; Pen Down
G1 X90.66 Y32.37
M5 ; Pen Up
G1 X89.34 Y32.37
M3 ; Pen Down
G1 X87.22 Y32.37
M5 ; Pen Up
G1 X84.82 Y32.37
M3 ; Pen Down
G1 X82.28 Y32.37
M5 ; Pen Up
G1 X79.85 Y32.37
M3 ; Pen Down
G1 X78.43 Y32.37
M5 ; Pen Up
G1 X75.93 Y32.37
M3 ; Pen Down
G1 X74.64 Y32.37
M5 ; Pen Up
G1 X72.85 Y32.37
M3 ; Pen Down
G1 X71.42 Y32.37
M5 ; Pen Up
G1 X68.87 Y32.37
M3 ; Pen Down
G1 X67.17 Y32.37
M5 ; Pen Up
G1 X65.84 Y32.37
M3 ; Pen Down
G1 X60.78 Y32.37
M5 ; Pen Up
G1 X58.63 Y32.37
M3 ; Pen Down
G1 X56.42 Y32.37
M5 ; Pen Up
G1 X52.82 Y32.37
M3 ; Pen Down
G1 X48.86 Y32.37
M5 ; Pen Up
G1 X47.41 Y32.37
M3 ; Pen Down
G1 X44.53 Y32.37
M5 ; Pen Up
G1 X39.93 Y32.37
M3 ; Pen Down
G1 X34.80 Y32.37
M5 ; Pen Up
G1 X32.62 Y32.37
M3 ; Pen Down
G1 X31.55 Y32.37
M5 ; Pen Up
G1 X22.84 Y32.37
M3 ; Pen Down
G1 X21.80 Y32.37
M5 ; Pen Up
G1 X19.62 Y32.37
M3 ; Pen Down
G1 X14.47 Y32.37
M5 ; Pen Up
G1 X9.93 Y32.37
M3 ; Pen Down
G1 X7.00 Y32.37
M5 ; Pen Up
G1 X6.99 Y32.87
M3 ; Pen Down
G1 X10.64 Y32.87
M5 ; Pen Up
G1 X14.18 Y32.87
M3 ; Pen Down
G1 X19.26 Y32.87
M5 ; Pen Up
G1 X22.13 Y32.87
M3 ; Pen Down
G1 X22.84 Y32.87
M5 ; Pen Up
G1 X31.57 Y32.87
M3 ; Pen Down
G1 X32.38 Y32.87
M5 ; Pen Up
G1 X35.09 Y32.87
M3 ; Pen Down
G1 X40.21 Y32.87
M5 ; Pen Up
G1 X43.76 Y32.87
M3 ; Pen Down
G1 X47.41 Y32.87
M5 ; Pen Up
G1 X48.86 Y32.87
M3 ; Pen Down
G1 X52.41 Y32.87
M5 ; Pen Up
G1 X56.53 Y32.87
M3 ; Pen Down
G1 X58.51 Y32.87
M5 ; Pen Up
G1 X60.93 Y32.87
M3 ; Pen Down
G1 X65.91 Y32.87
M5 ; Pen Up
G1 X67.20 Y32.87
M3 ; Pen Down
G1 X68.93 Y32.87
M5 ; Pen Up
G1 X71.09 Y32.87
M3 ; Pen Down
G1 X72.61 Y32.87
M5 ; Pen Up
G1 X74.45 Y32.87
M3 ; Pen Down
G1 X75.93 Y32.87
M5 ; Pen Up
G1 X78.12 Y32.87
M3 ; Pen Down
G1 X79.63 Y32.87
M5 ; Pen Up
G1 X82.81 Y32.87
M3 ; Pen Down
G1 X84.98 Y32.87
M5 ; Pen Up
G1 X87.27 Y32.87
M3 ; Pen Down
G1 X89.32 Y32.87
M5 ; Pen Up
G1 X90.67 Y32.87
M3 ; Pen Down
G1 X94.57 Y32.87
M5 ; Pen Up
G1 X95.10 Y32.87
M3 ; Pen Down
G1 X96.11 Y32.87
M5 ; Pen Up
G1 X98.26 Y32.87
M3 ; Pen Down
G1 X101.32 Y32.87
M5 ; Pen Up
G1 X102.90 Y32.87
M3 ; Pen Down
G1 X105.21 Y32.87
M5 ; Pen Up
G1 X107.15 Y32.87
M3 ; Pen Down
G1 X108.93 Y32.87
M5 ; Pen Up
G1 X112.80 Y32.87
M3 ; Pen Down
G1 X114.59 Y32.87
M5 ; Pen Up
G1 X116.57 Y32.87
M3 ; Pen Down
G1 X118.76 Y32.87
M5 ; Pen Up
G1 X120.33 Y32.87
M3 ; Pen Down
G1 X123.45 Y32.87
M5 ; Pen Up
G1 X125.42 Y32.87
M3 ; Pen Down
G1 X126.19 Y32.87
M5 ; Pen Up
G1 X127.09 Y32.87
M3 ; Pen Down
G1 X128.59 Y32.87
M5 ; Pen Up
G1 X129.07 Y32.87
M3 ; Pen Down
G1 X131.18 Y32.87
M5 ; Pen Up
G1 X132.58 Y32.87
M3 ; Pen Down
G1 X135.56 Y32.87
M5 ; Pen Up
G1 X143.73 Y32.87
M3 ; Pen Down
G1 X145.90 Y32.87
M5 ; Pen Up
G1 X149.19 Y32.87
M3 ; Pen Down
G1 X151.21 Y32.87
M5 ; Pen Up
G1 X152.42 Y32.87
M3 ; Pen Down
G1 X154.05 Y32.87
M5 ; Pen Up
G1 X161.57 Y32.87
M3 ; Pen Down
G1 X166.02 Y32.87
M5 ; Pen Up
G1 X170.44 Y32.87
M3 ; Pen Down
G1 X172.99 Y32.87
M5 ; Pen Up
G1 X172.99 Y33.37
M3 ; Pen Down
G1 X170.17 Y33.37
M5 ; Pen Up
G1 X165.73 Y33.37
M3 ; Pen Down
G1 X161.76 Y33.37
M5 ; Pen Up
G1 X154.16 Y33.37
M3 ; Pen Down
G1 X152.26 Y33.37
M5 ; Pen Up
G1 X151.65 Y33.37
M3 ; Pen Down
G1 X149.70 Y33.37
M5 ; Pen Up
G1 X145.73 Y33.37
M3 ; Pen Down
G1 X143.50 Y33.37
M5 ; Pen Up
G1 X135.51 Y33.37
M3 ; Pen Down
G1 X132.59 Y33.37
M5 ; Pen Up
G1 X131.13 Y33.37
M3 ; Pen Down
G1 X129.10 Y33.37
M5 ; Pen Up
G1 X128.63 Y33.37
M3 ; Pen Down
G1 X127.38 Y33.37
M5 ; Pen Up
G1 X124.12 Y33.37
M3 ; Pen Down
G1 X116.53 Y33.37
M5 ; Pen Up
G1 X114.28 Y33.37
M3 ; Pen Down
G1 X112.92 Y33.37
M5 ; Pen Up
G1 X108.70 Y33.37
M3 ; Pen Down
G1 X107.41 Y33.37
M5 ; Pen Up
G1 X105.20 Y33.37
M3 ; Pen Down
G1 X97.71 Y33.37
M5 ; Pen Up
G1 X94.31 Y33.37
M3 ; Pen Down
G1 X90.65 Y33.37
M5 ; Pen Up
G1 X89.28 Y33.37
M3 ; Pen Down
G1 X87.31 Y33.37
M5 ; Pen Up
G1 X85.45 Y33.37
M3 ; Pen Down
G1 X83.01 Y33.37
M5 ; Pen Up
G1 X79.33 Y33.37
M3 ; Pen Down
G1 X77.76 Y33.37
M5 ; Pen Up
G1 X75.91 Y33.37
M3 ; Pen Down
G1 X73.57 Y33.37
M5 ; Pen Up
G1 X72.49 Y33.37
M3 ; Pen Down
G1 X70.90 Y33.37
M5 ; Pen Up
G1 X69.01 Y33.37
M3 ; Pen Down
G1 X67.23 Y33.37
M5 ; Pen Up
G1 X65.95 Y33.37
M3 ; Pen Down
G1 X61.18 Y33.37
M5 ; Pen Up
G1 X58.50 Y33.37
M3 ; Pen Down
G1 X56.67 Y33.37
M5 ; Pen Up
G1 X52.01 Y33.37
M3 ; Pen Down
G1 X48.86 Y33.37
M5 ; Pen Up
G1 X47.41 Y33.37
M3 ; Pen Down
G1 X43.66 Y33.37
M5 ; Pen Up
G1 X40.44 Y33.37
M3 ; Pen Down
G1 X35.47 Y33.37
M5 ; Pen Up
G1 X18.95 Y33.37
M3 ; Pen Down
G1 X13.96 Y33.37
M5 ; Pen Up
G1 X10.78 Y33.37
M3 ; Pen Down
G1 X6.99 Y33.37
M5 ; Pen Up
G1 X6.99 Y33.87
M3 ; Pen Down
G1 X9.79 Y33.87
M5 ; Pen Up
G1 X11.94 Y33.87
M3 ; Pen Down
G1 X12.81 Y33.87
M5 ; Pen Up
G1 X13.82 Y33.87
M3 ; Pen Down
G1 X18.62 Y33.87
M5 ; Pen Up
G1 X19.25 Y33.87
M3 ; Pen Down
G1 X20.91 Y33.87
M5 ; Pen Up
G1 X24.40 Y33.87
M3 ; Pen Down
G1 X25.35 Y33.87
M5 ; Pen Up
G1 X29.11 Y33.87
M3 ; Pen Down
G1 X29.90 Y33.87
M5 ; Pen Up
G1 X33.53 Y33.87
M3 ; Pen Down
G1 X34.96 Y33.87
M5 ; Pen Up
G1 X35.47 Y33.87
M3 ; Pen Down
G1 X40.53 Y33.87
M5 ; Pen Up
G1 X41.45 Y33.87
M3 ; Pen Down
G1 X42.51 Y33.87
M5 ; Pen Up
G1 X44.68 Y33.87
M3 ; Pen Down
G1 X47.41 Y33.87
M5 ; Pen Up
G1 X48.86 Y33.87
M3 ; Pen Down
G1 X52.20 Y33.87
M5 ; Pen Up
G1 X56.91 Y33.87
M3 ; Pen Down
G1 X58.45 Y33.87
M5 ; Pen Up
G1 X61.40 Y33.87
M3 ; Pen Down
G1 X63.57 Y33.87
M5 ; Pen Up
G1 X64.52 Y33.87
M3 ; Pen Down
G1 X66.00 Y33.87
M5 ; Pen Up
G1 X67.27 Y33.87
M3 ; Pen Down
G1 X69.03 Y33.87
M5 ; Pen Up
G1 X70.58 Y33.87
M3 ; Pen Down
G1 X75.89 Y33.87
M5 ; Pen Up
G1 X77.28 Y33.87
M3 ; Pen Down
G1 X78.92 Y33.87
M5 ; Pen Up
G1 X82.95 Y33.87
M3 ; Pen Down
G1 X86.09 Y33.87
M5 ; Pen Up
G1 X87.31 Y33.87
M3 ; Pen Down
G1 X89.31 Y33.87
M5 ; Pen Up
G1 X90.69 Y33.87
M3 ; Pen Down
G1 X92.64 Y33.87
M5 ; Pen Up
G1 X93.11 Y33.87
M3 ; Pen Down
G1 X94.32 Y33.87
M5 ; Pen Up
G1 X97.00 Y33.87
M3 ; Pen Down
G1 X98.45 Y33.87
M5 ; Pen Up
G1 X99.38 Y33.87
M3 ; Pen Down
G1 X105.54 Y33.87
M5 ; Pen Up
G1 X107.62 Y33.87
M3 ; Pen Down
G1 X108.87 Y33.87
M5 ; Pen Up
G1 X112.87 Y33.87
M3 ; Pen Down
G1 X114.11 Y33.87
M5 ; Pen Up
G1 X116.13 Y33.87
M3 ; Pen Down
G1 X122.29 Y33.87
M5 ; Pen Up
